; G-Code generated by Simplify3D(R) Version 4.1.2
; Mar 13, 2021 at 10:04:56 PM
; Settings Summary
;   processName,High Quality PLA
;   applyToModels,arm1
;   profileName,FlashForge Creator Pro(2) (modified)
;   profileVersion,2018-01-19 08:00:00
;   baseProfile,
;   printMaterial,PLA
;   printQuality,High
;   printExtruders,Left Extruder Only
;   extruderName,Right Extruder,Left Extruder
;   extruderToolheadNumber,0,1
;   extruderDiameter,0.4,0.4
;   extruderAutoWidth,0,0
;   extruderWidth,0.4,0.4
;   extrusionMultiplier,0.97,0.95
;   extruderUseRetract,1,1
;   extruderRetractionDistance,1.2,1
;   extruderExtraRestartDistance,0,0
;   extruderRetractionZLift,0,0
;   extruderRetractionSpeed,1500,1200
;   extruderUseCoasting,0,0
;   extruderCoastingDistance,0.2,0.2
;   extruderUseWipe,0,0
;   extruderWipeDistance,5,5
;   primaryExtruder,1
;   layerHeight,0.1
;   topSolidLayers,4
;   bottomSolidLayers,4
;   perimeterOutlines,4
;   printPerimetersInsideOut,1
;   startPointOption,2
;   startPointOriginX,0
;   startPointOriginY,0
;   sequentialIslands,0
;   spiralVaseMode,0
;   firstLayerHeightPercentage,150
;   firstLayerWidthPercentage,105
;   firstLayerUnderspeed,0.5
;   useRaft,0
;   raftExtruder,1
;   raftTopLayers,3
;   raftBaseLayers,2
;   raftOffset,3
;   raftSeparationDistance,0.14
;   raftTopInfill,100
;   aboveRaftSpeedMultiplier,0.3
;   useSkirt,1
;   skirtExtruder,1
;   skirtLayers,1
;   skirtOutlines,4
;   skirtOffset,6
;   usePrimePillar,0
;   primePillarExtruder,999
;   primePillarWidth,12
;   primePillarLocation,7
;   primePillarSpeedMultiplier,1
;   useOozeShield,0
;   oozeShieldExtruder,999
;   oozeShieldOffset,3
;   oozeShieldOutlines,2
;   oozeShieldSidewallShape,1
;   oozeShieldSidewallAngle,30
;   oozeShieldSpeedMultiplier,1
;   infillExtruder,1
;   internalInfillPattern,Full Honeycomb
;   externalInfillPattern,Rectilinear
;   infillPercentage,35
;   outlineOverlapPercentage,20
;   infillExtrusionWidthPercentage,100
;   minInfillLength,5
;   infillLayerInterval,1
;   internalInfillAngles,0,120,-120
;   overlapInternalInfillAngles,0
;   externalInfillAngles,45,-45
;   generateSupport,0
;   supportExtruder,1
;   supportInfillPercentage,40
;   supportExtraInflation,0
;   supportBaseLayers,0
;   denseSupportExtruder,1
;   denseSupportLayers,0
;   denseSupportInfillPercentage,70
;   supportLayerInterval,1
;   supportHorizontalPartOffset,0.3
;   supportUpperSeparationLayers,1
;   supportLowerSeparationLayers,1
;   supportType,0
;   supportGridSpacing,4
;   maxOverhangAngle,45
;   supportAngles,0
;   temperatureName,Right Extruder,Left Extruder,Heated Build Platform
;   temperatureNumber,0,1,0
;   temperatureSetpointCount,1,1,1
;   temperatureSetpointLayers,1,1,1
;   temperatureSetpointTemperatures,0,190,55
;   temperatureStabilizeAtStartup,0,0,0
;   temperatureHeatedBed,0,0,1
;   fanLayers,1
;   fanSpeeds,100
;   blipFanToFullPower,0
;   adjustSpeedForCooling,1
;   minSpeedLayerTime,15
;   minCoolingSpeedSlowdown,20
;   increaseFanForCooling,0
;   minFanLayerTime,45
;   maxCoolingFanSpeed,100
;   increaseFanForBridging,1
;   bridgingFanSpeed,100
;   use5D,1
;   relativeEdistances,1
;   allowEaxisZeroing,0
;   independentExtruderAxes,1
;   includeM10123,0
;   stickySupport,1
;   applyToolheadOffsets,0
;   gcodeXoffset,0
;   gcodeYoffset,0
;   gcodeZoffset,0
;   overrideMachineDefinition,1
;   machineTypeOverride,0
;   strokeXoverride,225
;   strokeYoverride,145
;   strokeZoverride,150
;   originOffsetXoverride,112.5
;   originOffsetYoverride,72.5
;   originOffsetZoverride,0
;   homeXdirOverride,1
;   homeYdirOverride,1
;   homeZdirOverride,-1
;   flipXoverride,1
;   flipYoverride,-1
;   flipZoverride,1
;   toolheadOffsets,0,0|34,0|0,0|0,0|0,0|0,0
;   overrideFirmwareConfiguration,1
;   firmwareTypeOverride,MakerBot/Sailfish Firmware
;   GPXconfigOverride,r1d
;   baudRateOverride,115200
;   overridePrinterModels,1
;   printerModelsOverride,FlashForge_CreatorPro.stl
;   startingGcode,; **** Replicator 1 dual start.gcode ****,M73 P0 ; enable build progress,G162 X Y F3000 ; home XY maximum,G161 Z F1200 ; home Z minimum,G92 Z-5 ; set Z to -5,G1 Z0 ; move Z to 0,G161 Z F100 ; home Z slowly,M132 X Y Z A B ; recall home offsets,M135 T0 ; load right extruder offsets,G1 X-110 Y-70 Z30 F9000 ; move to wait position left hand side of the table,G130 X20 Y20 Z20 A20 B20 ; lower stepper Vrefs while heating,M126 S[fan_speed_pwm],M140 S[bed0_temperature] T0,M134 T0 ; stabilize bed temperature,M104 S[extruder1_temperature] T1,M133 T1 ; stabilize left extruder temperature,G130 X127 Y127 Z40 A127 B127 ; default stepper Vrefs,G92 A0 B0 ; zero extruders,G1 Z0.4 ; position nozzle,M135 T1 ; left tool,G1 X-140 Y-70 F9000 ; reposition nozzle,G1 X-100 Y-70 E25 F300 ; purge nozzle,G1 X-110 Y-70 Z0.15 F1200 ; slow wipe,G1 X-100 Y-70 Z0.5 F1200 ; lift,G92 A0 B0 ; zero extruders,M73 P1 ;@body (notify GPX body has started),; **** end of start.gcode ****
;   layerChangeGcode,
;   retractionGcode,
;   toolChangeGcode,
;   endingGcode,; **** Replicator 1 dual end.gcode ****,M73 P100 ; end build progress,G1 Z150 F1000 ; send Z axis to bottom of machine,M140 S0 T0 ; cool down HBP,M104 S0 T0 ; cool down right extruder,M104 S0 T1 ; cool down left extruder,M127 ; stop blower fan,G162 X Y F3000 ; home XY maximum,M18 ; disable stepper,M72 P1 ; play Ta-Da song,; **** end of end.gcode ****
;   exportFileFormat,gcode
;   celebration,0
;   celebrationSong,Random Song
;   postProcessing,curl -k -H "X-Api-Key: 27C03DAE77BD475FAFE33C1E0B3A564D" -F "select=false" -F "print=false" -F "file=@[output_filepath]" "http://rpi42/api/files/local" {STRIP "; postProcessing"}
;   defaultSpeed,3000
;   outlineUnderspeed,0.5
;   solidInfillUnderspeed,0.8
;   supportUnderspeed,0.8
;   rapidXYspeed,4200
;   rapidZspeed,1200
;   minBridgingArea,5
;   bridgingExtraInflation,0
;   bridgingExtrusionMultiplier,1
;   bridgingSpeedMultiplier,0.8
;   useFixedBridgingAngle,0
;   fixedBridgingAngle,0
;   applyBridgingToPerimeters,1
;   filamentDiameters,1.75|1.75|1.75|1.75|1.75|1.75
;   filamentPricesPerKg,46|46|46|46|46|46
;   filamentDensities,1.25|1.25|1.25|1.25|1.25|1.25
;   useMinPrintHeight,0
;   minPrintHeight,0
;   useMaxPrintHeight,0
;   maxPrintHeight,0
;   useDiaphragm,0
;   diaphragmLayerInterval,20
;   robustSlicing,1
;   mergeAllIntoSolid,0
;   onlyRetractWhenCrossingOutline,1
;   retractBetweenLayers,1
;   useRetractionMinTravel,0
;   retractionMinTravel,3
;   retractWhileWiping,0
;   onlyWipeOutlines,1
;   avoidCrossingOutline,0
;   maxMovementDetourFactor,3
;   toolChangeRetractionDistance,12
;   toolChangeExtraRestartDistance,-0.5
;   toolChangeRetractionSpeed,600
;   externalThinWallType,0
;   internalThinWallType,2
;   thinWallAllowedOverlapPercentage,10
;   singleExtrusionMinLength,1
;   singleExtrusionMinPrintingWidthPercentage,50
;   singleExtrusionMaxPrintingWidthPercentage,200
;   singleExtrusionEndpointExtension,0.2
;   horizontalSizeCompensation,0
G90
M83
; **** Replicator 1 dual start.gcode ****
M73 P0 ; enable build progress
G162 X Y F3000 ; home XY maximum
G161 Z F1200 ; home Z minimum
G92 Z-5 ; set Z to -5
G1 Z0 ; move Z to 0
G161 Z F100 ; home Z slowly
M132 X Y Z A B ; recall home offsets
M135 T0 ; load right extruder offsets
G1 X-110 Y-70 Z30 F9000 ; move to wait position left hand side of the table
G130 X20 Y20 Z20 A20 B20 ; lower stepper Vrefs while heating
M126 S255
M140 S55 T0
M134 T0 ; stabilize bed temperature
M104 S190 T1
M133 T1 ; stabilize left extruder temperature
G130 X127 Y127 Z40 A127 B127 ; default stepper Vrefs
G92 A0 B0 ; zero extruders
G1 Z0.4 ; position nozzle
M135 T1 ; left tool
G1 X-140 Y-70 F9000 ; reposition nozzle
G1 X-100 Y-70 E25 F300 ; purge nozzle
G1 X-110 Y-70 Z0.15 F1200 ; slow wipe
G1 X-100 Y-70 Z0.5 F1200 ; lift
G92 A0 B0 ; zero extruders
M73 P1 ;@body (notify GPX body has started)
; **** end of start.gcode ****
; process High Quality PLA
; layer 1, Z = 0.150
M135 T1
G1 E-1.0000 F1200
; feature skirt
; tool H0.150 W0.420
G1 Z0.150 F1200
G1 X-59.280 Y6.470 F4200
G1 E1.0000 F1200
G1 X-59.280 Y8.094 E0.0404 F1500
G1 X-62.305 Y11.119 E0.1064
G1 X-62.381 Y11.890 E0.0193
G1 X-62.524 Y12.610 E0.0183
G1 X-62.822 Y13.594 E0.0256
G1 X-63.103 Y14.272 E0.0183
G1 X-63.588 Y15.178 E0.0256
G1 X-63.995 Y15.788 E0.0183
G1 X-64.648 Y16.583 E0.0256
G1 X-65.167 Y17.102 E0.0183
G1 X-65.962 Y17.754 E0.0256
G1 X-66.572 Y18.162 E0.0183
G1 X-67.478 Y18.647 E0.0256
G1 X-68.156 Y18.928 E0.0183
G1 X-69.140 Y19.226 E0.0256
G1 X-69.860 Y19.369 E0.0183
G1 X-70.700 Y19.452 E0.0210
G1 X-71.067 Y19.470 E0.0091
G1 X-72.433 Y19.470 E0.0340
G1 X-72.800 Y19.452 E0.0091
G1 X-73.640 Y19.369 E0.0210
G1 X-74.360 Y19.226 E0.0183
G1 X-75.344 Y18.928 E0.0256
G1 X-76.022 Y18.647 E0.0183
G1 X-76.928 Y18.162 E0.0256
G1 X-77.538 Y17.754 E0.0183
G1 X-78.333 Y17.102 E0.0256
G1 X-78.852 Y16.583 E0.0183
G1 X-79.504 Y15.788 E0.0256
G1 X-79.912 Y15.178 E0.0183
G1 X-80.397 Y14.272 E0.0256
G1 X-80.678 Y13.594 E0.0183
G1 X-80.976 Y12.610 E0.0256
G1 X-81.119 Y11.890 E0.0183
G1 X-81.202 Y11.050 E0.0210
G1 X-81.220 Y10.683 E0.0091
G1 X-81.220 Y-10.683 E0.5317
G1 X-81.202 Y-11.050 E0.0091
G1 X-81.119 Y-11.890 E0.0210
G1 X-80.976 Y-12.610 E0.0183
G1 X-80.678 Y-13.594 E0.0256
G1 X-80.397 Y-14.272 E0.0183
G1 X-79.912 Y-15.178 E0.0256
G1 X-79.504 Y-15.788 E0.0183
G1 X-78.852 Y-16.583 E0.0256
G1 X-78.333 Y-17.102 E0.0183
G1 X-77.538 Y-17.754 E0.0256
G1 X-76.928 Y-18.162 E0.0183
G1 X-76.022 Y-18.647 E0.0256
G1 X-75.344 Y-18.928 E0.0183
G1 X-74.360 Y-19.226 E0.0256
G1 X-73.640 Y-19.369 E0.0183
G1 X-72.800 Y-19.452 E0.0210
G1 X-72.433 Y-19.470 E0.0091
G1 X-71.067 Y-19.470 E0.0340
G1 X-70.700 Y-19.452 E0.0091
G1 X-69.860 Y-19.369 E0.0210
G1 X-69.140 Y-19.226 E0.0183
G1 X-68.156 Y-18.928 E0.0256
G1 X-67.478 Y-18.647 E0.0183
G1 X-66.572 Y-18.162 E0.0256
G1 X-65.962 Y-17.754 E0.0183
G1 X-65.167 Y-17.102 E0.0256
G1 X-64.648 Y-16.583 E0.0183
G1 X-63.995 Y-15.788 E0.0256
G1 X-63.588 Y-15.178 E0.0183
G1 X-63.103 Y-14.272 E0.0256
G1 X-62.822 Y-13.594 E0.0183
G1 X-62.524 Y-12.610 E0.0256
G1 X-62.496 Y-12.470 E0.0035
G1 X70.872 Y-12.470 E3.3186
G1 X71.117 Y-12.462 E0.0061
G1 X71.874 Y-12.412 E0.0189
G1 X72.359 Y-12.348 E0.0122
G1 X73.224 Y-12.177 E0.0219
G1 X73.696 Y-12.050 E0.0122
G1 X74.531 Y-11.767 E0.0219
G1 X74.983 Y-11.579 E0.0122
G1 X75.773 Y-11.190 E0.0219
G1 X76.197 Y-10.945 E0.0122
G1 X76.930 Y-10.455 E0.0219
G1 X77.318 Y-10.158 E0.0122
G1 X77.980 Y-9.576 E0.0219
G1 X78.326 Y-9.231 E0.0122
G1 X78.908 Y-8.568 E0.0219
G1 X79.205 Y-8.180 E0.0122
G1 X79.695 Y-7.447 E0.0219
G1 X79.940 Y-7.023 E0.0122
G1 X80.329 Y-6.233 E0.0219
G1 X80.517 Y-5.781 E0.0122
G1 X80.800 Y-4.946 E0.0219
G1 X80.927 Y-4.473 E0.0122
G1 X81.099 Y-3.609 E0.0219
G1 X81.162 Y-3.124 E0.0122
G1 X81.212 Y-2.367 E0.0189
G1 X81.220 Y-2.122 E0.0061
G1 X81.220 Y3.122 E0.1305
G1 X81.212 Y3.367 E0.0061
G1 X81.162 Y4.124 E0.0189
G1 X81.099 Y4.609 E0.0122
G1 X80.927 Y5.473 E0.0219
G1 X80.800 Y5.946 E0.0122
G1 X80.517 Y6.781 E0.0219
G1 X80.329 Y7.232 E0.0122
G1 X79.940 Y8.023 E0.0219
G1 X79.695 Y8.447 E0.0122
G1 X79.205 Y9.180 E0.0219
G1 X78.908 Y9.568 E0.0122
G1 X78.326 Y10.230 E0.0219
G1 X77.980 Y10.576 E0.0122
G1 X77.318 Y11.158 E0.0219
G1 X76.930 Y11.455 E0.0122
G1 X76.197 Y11.945 E0.0219
G1 X75.773 Y12.190 E0.0122
G1 X74.983 Y12.579 E0.0219
G1 X74.531 Y12.767 E0.0122
G1 X73.696 Y13.050 E0.0219
G1 X73.224 Y13.177 E0.0122
G1 X72.359 Y13.348 E0.0219
G1 X71.874 Y13.412 E0.0122
G1 X71.117 Y13.462 E0.0189
G1 X70.872 Y13.470 E0.0061
G1 X64.656 Y13.470 E0.1547
G1 X60.280 Y9.094 E0.1540
G1 X60.280 Y6.470 E0.0653
G1 X-59.280 Y6.470 E2.9750
G1 E-1.0000 F1200
G1 X-59.700 Y6.050 F4200
G1 E1.0000 F1200
G1 X-59.700 Y7.920 E0.0465 F1500
G1 X-62.713 Y10.933 E0.1060
G1 X-62.717 Y11.019 E0.0021
G1 X-62.797 Y11.828 E0.0202
G1 X-62.932 Y12.508 E0.0172
G1 X-63.218 Y13.452 E0.0246
G1 X-63.483 Y14.092 E0.0172
G1 X-63.948 Y14.962 E0.0246
G1 X-64.333 Y15.538 E0.0172
G1 X-64.959 Y16.301 E0.0246
G1 X-65.449 Y16.791 E0.0172
G1 X-66.212 Y17.417 E0.0246
G1 X-66.788 Y17.802 E0.0172
G1 X-67.658 Y18.267 E0.0246
G1 X-68.298 Y18.532 E0.0172
G1 X-69.242 Y18.818 E0.0246
G1 X-69.921 Y18.953 E0.0172
G1 X-70.731 Y19.033 E0.0202
G1 X-71.077 Y19.050 E0.0086
G1 X-72.423 Y19.050 E0.0335
G1 X-72.769 Y19.033 E0.0086
G1 X-73.578 Y18.953 E0.0202
G1 X-74.258 Y18.818 E0.0172
G1 X-75.202 Y18.532 E0.0246
G1 X-75.842 Y18.267 E0.0172
G1 X-76.712 Y17.802 E0.0246
G1 X-77.288 Y17.417 E0.0172
G1 X-78.051 Y16.791 E0.0246
G1 X-78.541 Y16.301 E0.0172
G1 X-79.167 Y15.538 E0.0246
G1 X-79.552 Y14.962 E0.0172
G1 X-80.017 Y14.092 E0.0246
G1 X-80.282 Y13.452 E0.0172
G1 X-80.568 Y12.508 E0.0246
G1 X-80.703 Y11.828 E0.0172
G1 X-80.783 Y11.019 E0.0202
G1 X-80.800 Y10.673 E0.0086
G1 X-80.800 Y-10.673 E0.5312
G1 X-80.783 Y-11.019 E0.0086
G1 X-80.703 Y-11.828 E0.0202
G1 X-80.568 Y-12.508 E0.0172
G1 X-80.282 Y-13.452 E0.0246
G1 X-80.017 Y-14.092 E0.0172
G1 X-79.552 Y-14.962 E0.0246
G1 X-79.167 Y-15.538 E0.0172
G1 X-78.541 Y-16.301 E0.0246
G1 X-78.051 Y-16.791 E0.0172
G1 X-77.288 Y-17.417 E0.0246
G1 X-76.712 Y-17.802 E0.0172
G1 X-75.842 Y-18.267 E0.0246
G1 X-75.202 Y-18.532 E0.0172
G1 X-74.258 Y-18.818 E0.0246
G1 X-73.578 Y-18.953 E0.0172
G1 X-72.769 Y-19.033 E0.0202
G1 X-72.423 Y-19.050 E0.0086
G1 X-71.077 Y-19.050 E0.0335
G1 X-70.731 Y-19.033 E0.0086
G1 X-69.921 Y-18.953 E0.0202
G1 X-69.242 Y-18.818 E0.0172
G1 X-68.298 Y-18.532 E0.0246
G1 X-67.658 Y-18.267 E0.0172
G1 X-66.788 Y-17.802 E0.0246
G1 X-66.212 Y-17.417 E0.0172
G1 X-65.449 Y-16.791 E0.0246
G1 X-64.959 Y-16.301 E0.0172
G1 X-64.333 Y-15.538 E0.0246
G1 X-63.948 Y-14.962 E0.0172
G1 X-63.483 Y-14.092 E0.0246
G1 X-63.218 Y-13.452 E0.0172
G1 X-62.932 Y-12.508 E0.0246
G1 X-62.841 Y-12.050 E0.0116
G1 X70.865 Y-12.050 E3.3270
G1 X71.096 Y-12.042 E0.0057
G1 X71.833 Y-11.994 E0.0184
G1 X72.291 Y-11.934 E0.0115
G1 X73.128 Y-11.767 E0.0212
G1 X73.574 Y-11.648 E0.0115
G1 X74.383 Y-11.373 E0.0212
G1 X74.809 Y-11.197 E0.0115
G1 X75.575 Y-10.819 E0.0213
G1 X75.975 Y-10.588 E0.0115
G1 X76.685 Y-10.114 E0.0212
G1 X77.051 Y-9.833 E0.0115
G1 X77.693 Y-9.270 E0.0212
G1 X78.020 Y-8.943 E0.0115
G1 X78.583 Y-8.301 E0.0213
G1 X78.864 Y-7.935 E0.0115
G1 X79.338 Y-7.225 E0.0213
G1 X79.569 Y-6.825 E0.0115
G1 X79.947 Y-6.059 E0.0212
G1 X80.123 Y-5.633 E0.0115
G1 X80.398 Y-4.824 E0.0213
G1 X80.517 Y-4.378 E0.0115
G1 X80.684 Y-3.540 E0.0212
G1 X80.744 Y-3.083 E0.0115
G1 X80.792 Y-2.346 E0.0184
G1 X80.800 Y-2.115 E0.0057
G1 X80.800 Y3.115 E0.1302
G1 X80.792 Y3.346 E0.0057
G1 X80.744 Y4.083 E0.0184
G1 X80.684 Y4.540 E0.0115
G1 X80.517 Y5.378 E0.0213
G1 X80.398 Y5.824 E0.0115
G1 X80.123 Y6.633 E0.0213
G1 X79.947 Y7.059 E0.0115
G1 X79.569 Y7.825 E0.0213
G1 X79.338 Y8.225 E0.0115
G1 X78.864 Y8.935 E0.0213
G1 X78.583 Y9.301 E0.0115
G1 X78.020 Y9.943 E0.0213
G1 X77.693 Y10.270 E0.0115
G1 X77.051 Y10.833 E0.0213
G1 X76.685 Y11.114 E0.0115
G1 X75.975 Y11.588 E0.0212
G1 X75.575 Y11.819 E0.0115
G1 X74.809 Y12.197 E0.0213
G1 X74.383 Y12.373 E0.0115
G1 X73.574 Y12.648 E0.0212
G1 X73.128 Y12.767 E0.0115
G1 X72.291 Y12.934 E0.0212
G1 X71.833 Y12.994 E0.0115
G1 X71.096 Y13.042 E0.0184
G1 X70.865 Y13.050 E0.0057
G1 X64.830 Y13.050 E0.1502
G1 X60.700 Y8.920 E0.1453
G1 X60.700 Y6.050 E0.0714
G1 X-59.700 Y6.050 E2.9959
G1 E-1.0000 F1200
G1 X-60.120 Y5.630 F4200
G1 E1.0000 F1200
G1 X-60.120 Y7.746 E0.0527 F1500
G1 X-63.124 Y10.751 E0.1057
G1 X-63.136 Y10.988 E0.0059
G1 X-63.213 Y11.767 E0.0195
G1 X-63.340 Y12.406 E0.0162
G1 X-63.614 Y13.310 E0.0235
G1 X-63.863 Y13.912 E0.0162
G1 X-64.309 Y14.746 E0.0235
G1 X-64.671 Y15.287 E0.0162
G1 X-65.271 Y16.018 E0.0235
G1 X-65.732 Y16.479 E0.0162
G1 X-66.463 Y17.079 E0.0235
G1 X-67.004 Y17.441 E0.0162
G1 X-67.838 Y17.887 E0.0235
G1 X-68.440 Y18.136 E0.0162
G1 X-69.344 Y18.410 E0.0235
G1 X-69.983 Y18.537 E0.0162
G1 X-70.762 Y18.614 E0.0195
G1 X-71.087 Y18.630 E0.0081
G1 X-72.413 Y18.630 E0.0330
G1 X-72.738 Y18.614 E0.0081
G1 X-73.517 Y18.537 E0.0195
G1 X-74.156 Y18.410 E0.0162
G1 X-75.060 Y18.136 E0.0235
G1 X-75.662 Y17.887 E0.0162
G1 X-76.496 Y17.441 E0.0235
G1 X-77.037 Y17.079 E0.0162
G1 X-77.768 Y16.479 E0.0235
