; G-Code generated by Simplify3D(R) Version 4.1.2
; Mar 6, 2021 at 4:19:43 PM
; Settings Summary
;   processName,High Quality ABS
;   applyToModels,arm1
;   profileName,FlashForge Creator Pro - Octoprint (modified)
;   profileVersion,2021-02-07 11:52:42
;   baseProfile,FlashForge Creator Pro(2) (modified)
;   printMaterial,ABS
;   printQuality,High
;   printExtruders,Left Extruder Only
;   extruderName,Right Extruder,Left Extruder
;   extruderToolheadNumber,0,1
;   extruderDiameter,0.4,0.4
;   extruderAutoWidth,0,0
;   extruderWidth,0.4,0.4
;   extrusionMultiplier,0.95,0.95
;   extruderUseRetract,1,1
;   extruderRetractionDistance,2,2
;   extruderExtraRestartDistance,0,0
;   extruderRetractionZLift,0,0
;   extruderRetractionSpeed,1500,1500
;   extruderUseCoasting,0,0
;   extruderCoastingDistance,0.2,0.2
;   extruderUseWipe,0,0
;   extruderWipeDistance,5,5
;   primaryExtruder,1
;   layerHeight,0.1
;   topSolidLayers,6
;   bottomSolidLayers,6
;   perimeterOutlines,4
;   printPerimetersInsideOut,1
;   startPointOption,2
;   startPointOriginX,0
;   startPointOriginY,0
;   sequentialIslands,0
;   spiralVaseMode,0
;   firstLayerHeightPercentage,200
;   firstLayerWidthPercentage,110
;   firstLayerUnderspeed,0.4
;   useRaft,0
;   raftExtruder,1
;   raftTopLayers,3
;   raftBaseLayers,2
;   raftOffset,3
;   raftSeparationDistance,0.14
;   raftTopInfill,100
;   aboveRaftSpeedMultiplier,0.3
;   useSkirt,1
;   skirtExtruder,1
;   skirtLayers,1
;   skirtOutlines,5
;   skirtOffset,4
;   usePrimePillar,0
;   primePillarExtruder,999
;   primePillarWidth,12
;   primePillarLocation,7
;   primePillarSpeedMultiplier,1
;   useOozeShield,0
;   oozeShieldExtruder,999
;   oozeShieldOffset,3
;   oozeShieldOutlines,2
;   oozeShieldSidewallShape,0
;   oozeShieldSidewallAngle,30
;   oozeShieldSpeedMultiplier,1
;   infillExtruder,1
;   internalInfillPattern,Triangular
;   externalInfillPattern,Rectilinear
;   infillPercentage,30
;   outlineOverlapPercentage,15
;   infillExtrusionWidthPercentage,100
;   minInfillLength,5
;   infillLayerInterval,1
;   internalInfillAngles,0,60,-60
;   overlapInternalInfillAngles,1
;   externalInfillAngles,45,-45
;   generateSupport,0
;   supportExtruder,1
;   supportInfillPercentage,90
;   supportExtraInflation,0
;   supportBaseLayers,0
;   denseSupportExtruder,1
;   denseSupportLayers,0
;   denseSupportInfillPercentage,70
;   supportLayerInterval,1
;   supportHorizontalPartOffset,0.3
;   supportUpperSeparationLayers,1
;   supportLowerSeparationLayers,1
;   supportType,0
;   supportGridSpacing,4
;   maxOverhangAngle,45
;   supportAngles,0
;   temperatureName,Right Extruder,Left Extruder,Heated Build Platform
;   temperatureNumber,0,1,0
;   temperatureSetpointCount,1,1,1
;   temperatureSetpointLayers,1,1,1
;   temperatureSetpointTemperatures,0,235,110
;   temperatureStabilizeAtStartup,0,1,0
;   temperatureHeatedBed,0,0,1
;   fanLayers,1
;   fanSpeeds,0
;   blipFanToFullPower,0
;   adjustSpeedForCooling,1
;   minSpeedLayerTime,15
;   minCoolingSpeedSlowdown,20
;   increaseFanForCooling,0
;   minFanLayerTime,45
;   maxCoolingFanSpeed,100
;   increaseFanForBridging,1
;   bridgingFanSpeed,100
;   use5D,1
;   relativeEdistances,1
;   allowEaxisZeroing,0
;   independentExtruderAxes,1
;   includeM10123,0
;   stickySupport,1
;   applyToolheadOffsets,0
;   gcodeXoffset,0
;   gcodeYoffset,0
;   gcodeZoffset,0
;   overrideMachineDefinition,1
;   machineTypeOverride,0
;   strokeXoverride,225
;   strokeYoverride,145
;   strokeZoverride,150
;   originOffsetXoverride,112.5
;   originOffsetYoverride,72.5
;   originOffsetZoverride,0
;   homeXdirOverride,1
;   homeYdirOverride,1
;   homeZdirOverride,-1
;   flipXoverride,1
;   flipYoverride,-1
;   flipZoverride,1
;   toolheadOffsets,0,0|34,0|0,0|0,0|0,0|0,0
;   overrideFirmwareConfiguration,1
;   firmwareTypeOverride,MakerBot/Sailfish Firmware
;   GPXconfigOverride,r1d
;   baudRateOverride,115200
;   overridePrinterModels,1
;   printerModelsOverride,FlashForge_CreatorPro.stl
;   startingGcode,; **** Replicator 1 dual start.gcode ****,M73 P0 ; enable build progress,G162 X Y F3000 ; home XY maximum,G161 Z F1200 ; home Z minimum,G92 Z-5 ; set Z to -5,G1 Z0 ; move Z to 0,G161 Z F100 ; home Z slowly,M132 X Y Z A B ; recall home offsets,M135 T0 ; load right extruder offsets,G1 X-110 Y-70 Z30 F9000 ; move to wait position left hand side of the table,G130 X20 Y20 Z20 A20 B20 ; lower stepper Vrefs while heating,M126 S[fan_speed_pwm],M140 S[bed0_temperature] T0,M134 T0 ; stabilize bed temperature,M104 S[extruder1_temperature] T1,M133 T1 ; stabilize left extruder temperature,G130 X127 Y127 Z40 A127 B127 ; default stepper Vrefs,G92 A0 B0 ; zero extruders,G1 Z0.4 ; position nozzle,M135 T1 ; left tool,G1 X-140 Y-70 F9000 ; reposition nozzle,G1 X-100 Y-70 E25 F300 ; purge nozzle,G1 X-110 Y-70 Z0.15 F1200 ; slow wipe,G1 X-100 Y-70 Z0.5 F1200 ; lift,G92 A0 B0 ; zero extruders,M73 P1 ;@body (notify GPX body has started),; **** end of start.gcode ****
;   layerChangeGcode,
;   retractionGcode,
;   toolChangeGcode,
;   endingGcode,; **** Replicator 1 dual end.gcode ****,M73 P100 ; end build progress,G1 Z150 F1000 ; send Z axis to bottom of machine,M140 S0 T0 ; cool down HBP,M104 S0 T0 ; cool down right extruder,M104 S0 T1 ; cool down left extruder,M127 ; stop blower fan,G162 X Y F3000 ; home XY maximum,M18 ; disable stepper,M72 P1 ; play Ta-Da song,; **** end of end.gcode ****
;   exportFileFormat,gcode
;   celebration,0
;   celebrationSong,Random Song
;   postProcessing,curl -k -H "X-Api-Key: 27C03DAE77BD475FAFE33C1E0B3A564D" -F "select=false" -F "print=false" -F "file=@[output_filepath]" "http://rpi42/api/files/local" {STRIP "; postProcessing"}
;   defaultSpeed,2400
;   outlineUnderspeed,0.5
;   solidInfillUnderspeed,0.8
;   supportUnderspeed,0.8
;   rapidXYspeed,4200
;   rapidZspeed,1200
;   minBridgingArea,5
;   bridgingExtraInflation,0
;   bridgingExtrusionMultiplier,0.95
;   bridgingSpeedMultiplier,0.65
;   useFixedBridgingAngle,0
;   fixedBridgingAngle,0
;   applyBridgingToPerimeters,1
;   filamentDiameters,1.75|1.75|1.75|1.75|1.75|1.75
;   filamentPricesPerKg,46|46|46|46|46|46
;   filamentDensities,1.25|1.25|1.25|1.25|1.25|1.25
;   useMinPrintHeight,0
;   minPrintHeight,0
;   useMaxPrintHeight,0
;   maxPrintHeight,0
;   useDiaphragm,0
;   diaphragmLayerInterval,20
;   robustSlicing,1
;   mergeAllIntoSolid,0
;   onlyRetractWhenCrossingOutline,1
;   retractBetweenLayers,1
;   useRetractionMinTravel,0
;   retractionMinTravel,3
;   retractWhileWiping,0
;   onlyWipeOutlines,1
;   avoidCrossingOutline,0
;   maxMovementDetourFactor,3
;   toolChangeRetractionDistance,12
;   toolChangeExtraRestartDistance,-0.5
;   toolChangeRetractionSpeed,600
;   externalThinWallType,0
;   internalThinWallType,2
;   thinWallAllowedOverlapPercentage,10
;   singleExtrusionMinLength,1
;   singleExtrusionMinPrintingWidthPercentage,50
;   singleExtrusionMaxPrintingWidthPercentage,200
;   singleExtrusionEndpointExtension,0.2
;   horizontalSizeCompensation,0
G90
M83
; **** Replicator 1 dual start.gcode ****
M73 P0 ; enable build progress
G162 X Y F3000 ; home XY maximum
G161 Z F1200 ; home Z minimum
G92 Z-5 ; set Z to -5
G1 Z0 ; move Z to 0
G161 Z F100 ; home Z slowly
M132 X Y Z A B ; recall home offsets
M135 T0 ; load right extruder offsets
G1 X-110 Y-70 Z30 F9000 ; move to wait position left hand side of the table
G130 X20 Y20 Z20 A20 B20 ; lower stepper Vrefs while heating
M127
M140 S110 T0
M134 T0 ; stabilize bed temperature
M104 S235 T1
M133 T1 ; stabilize left extruder temperature
G130 X127 Y127 Z40 A127 B127 ; default stepper Vrefs
G92 A0 B0 ; zero extruders
G1 Z0.4 ; position nozzle
M135 T1 ; left tool
G1 X-140 Y-70 F9000 ; reposition nozzle
G1 X-100 Y-70 E25 F300 ; purge nozzle
G1 X-110 Y-70 Z0.15 F1200 ; slow wipe
G1 X-100 Y-70 Z0.5 F1200 ; lift
G92 A0 B0 ; zero extruders
M73 P1 ;@body (notify GPX body has started)
; **** end of start.gcode ****
; process High Quality ABS
; layer 1, Z = 0.200
M135 T1
G1 E-2.0000 F1500
; feature skirt
; tool H0.200 W0.440
G1 Z0.200 F1200
G1 X61.770 Y4.980 F4200
G1 E2.0000 F1500
G1 X-61.770 Y4.980 E4.2939 F960
G1 X-61.770 Y7.477 E0.0868
G1 X-63.770 Y9.477 E0.0983
G1 X-63.770 Y14.477 E0.1738
G1 X-67.273 Y17.980 E0.1722
G1 X-75.227 Y17.980 E0.2765
G1 X-78.730 Y14.477 E0.1722
G1 X-78.730 Y-14.477 E1.0063
G1 X-75.227 Y-17.980 E0.1722
G1 X-67.273 Y-17.980 E0.2765
G1 X-63.770 Y-14.477 E0.1722
G1 X-63.770 Y-10.980 E0.1215
G1 X75.227 Y-10.980 E4.8311
G1 X78.730 Y-7.477 E0.1722
G1 X78.730 Y2.098 E0.3328
G1 X78.724 Y2.294 E0.0068
G1 X78.679 Y2.978 E0.0238
G1 X78.628 Y3.366 E0.0136
G1 X78.475 Y4.135 E0.0272
G1 X78.373 Y4.513 E0.0136
G1 X78.121 Y5.256 E0.0273
G1 X77.972 Y5.617 E0.0136
G1 X77.625 Y6.320 E0.0272
G1 X77.429 Y6.660 E0.0136
G1 X76.993 Y7.311 E0.0272
G1 X76.755 Y7.622 E0.0136
G1 X76.238 Y8.211 E0.0272
G1 X75.961 Y8.488 E0.0136
G1 X75.372 Y9.005 E0.0273
G1 X75.061 Y9.243 E0.0136
G1 X74.410 Y9.679 E0.0272
G1 X74.070 Y9.875 E0.0136
G1 X73.367 Y10.222 E0.0272
G1 X73.006 Y10.371 E0.0136
G1 X72.263 Y10.623 E0.0272
G1 X71.885 Y10.725 E0.0136
G1 X71.116 Y10.878 E0.0272
G1 X70.728 Y10.929 E0.0136
G1 X70.044 Y10.974 E0.0238
G1 X69.848 Y10.980 E0.0068
G1 X65.273 Y10.980 E0.1590
G1 X61.770 Y7.477 E0.1722
G1 X61.770 Y4.980 E0.0868
G1 E-2.0000 F1500
G1 X62.210 Y4.540 F4200
G1 E2.0000 F1500
G1 X-62.210 Y4.540 E4.3244 F960
G1 X-62.210 Y7.295 E0.0957
G1 X-64.210 Y9.295 E0.0983
G1 X-64.210 Y14.295 E0.1738
G1 X-67.455 Y17.540 E0.1595
G1 X-75.045 Y17.540 E0.2638
G1 X-78.290 Y14.295 E0.1595
G1 X-78.290 Y-14.295 E0.9937
G1 X-75.045 Y-17.540 E0.1595
G1 X-67.455 Y-17.540 E0.2638
G1 X-64.210 Y-14.295 E0.1595
G1 X-64.210 Y-10.540 E0.1305
G1 X75.045 Y-10.540 E4.8401
G1 X78.290 Y-7.295 E0.1595
G1 X78.290 Y2.091 E0.3262
G1 X78.284 Y2.272 E0.0063
G1 X78.241 Y2.935 E0.0231
G1 X78.193 Y3.294 E0.0126
G1 X78.046 Y4.035 E0.0262
G1 X77.952 Y4.386 E0.0126
G1 X77.709 Y5.101 E0.0262
G1 X77.571 Y5.436 E0.0126
G1 X77.237 Y6.113 E0.0262
G1 X77.055 Y6.427 E0.0126
G1 X76.636 Y7.055 E0.0262
G1 X76.415 Y7.343 E0.0126
G1 X75.917 Y7.910 E0.0262
G1 X75.660 Y8.167 E0.0126
G1 X75.093 Y8.665 E0.0262
G1 X74.805 Y8.886 E0.0126
G1 X74.177 Y9.305 E0.0262
G1 X73.863 Y9.487 E0.0126
G1 X73.186 Y9.821 E0.0262
G1 X72.850 Y9.959 E0.0126
G1 X72.135 Y10.202 E0.0262
G1 X71.785 Y10.296 E0.0126
G1 X71.045 Y10.443 E0.0262
G1 X70.685 Y10.491 E0.0126
G1 X70.022 Y10.534 E0.0231
G1 X69.841 Y10.540 E0.0063
G1 X65.455 Y10.540 E0.1524
G1 X62.210 Y7.295 E0.1595
G1 X62.210 Y4.540 E0.0957
G1 E-2.0000 F1500
G1 X62.650 Y4.100 F4200
G1 E2.0000 F1500
G1 X-62.650 Y4.100 E4.3550 F960
G1 X-62.650 Y7.112 E0.1047
G1 X-64.650 Y9.113 E0.0983
G1 X-64.650 Y14.112 E0.1738
G1 X-67.638 Y17.100 E0.1468
G1 X-74.862 Y17.100 E0.2511
G1 X-77.850 Y14.112 E0.1468
G1 X-77.850 Y-14.112 E0.9810
G1 X-74.862 Y-17.100 E0.1468
G1 X-67.638 Y-17.100 E0.2511
G1 X-64.650 Y-14.112 E0.1468
G1 X-64.650 Y-10.100 E0.1395
G1 X74.862 Y-10.100 E4.8490
G1 X77.850 Y-7.112 E0.1468
G1 X77.850 Y2.083 E0.3196
G1 X77.845 Y2.250 E0.0058
G1 X77.802 Y2.892 E0.0223
G1 X77.759 Y3.223 E0.0116
G1 X77.617 Y3.935 E0.0252
G1 X77.531 Y4.258 E0.0116
G1 X77.297 Y4.946 E0.0252
G1 X77.170 Y5.254 E0.0116
G1 X76.848 Y5.905 E0.0252
G1 X76.681 Y6.195 E0.0116
G1 X76.278 Y6.799 E0.0252
G1 X76.075 Y7.063 E0.0116
G1 X75.596 Y7.610 E0.0252
G1 X75.359 Y7.846 E0.0116
G1 X74.813 Y8.325 E0.0252
G1 X74.549 Y8.528 E0.0116
G1 X73.945 Y8.931 E0.0252
G1 X73.655 Y9.098 E0.0116
G1 X73.004 Y9.420 E0.0252
G1 X72.695 Y9.547 E0.0116
G1 X72.008 Y9.781 E0.0252
G1 X71.685 Y9.867 E0.0116
G1 X70.973 Y10.009 E0.0252
G1 X70.642 Y10.052 E0.0116
G1 X70.000 Y10.095 E0.0223
G1 X69.833 Y10.100 E0.0058
G1 X65.638 Y10.100 E0.1458
G1 X62.650 Y7.112 E0.1468
G1 X62.650 Y4.100 E0.1047
G1 E-2.0000 F1500
G1 X63.090 Y3.660 F4200
G1 E2.0000 F1500
G1 X-63.090 Y3.660 E4.3856 F960
G1 X-63.090 Y6.930 E0.1137
G1 X-65.090 Y8.930 E0.0983
G1 X-65.090 Y13.930 E0.1738
G1 X-67.820 Y16.660 E0.1342
G1 X-74.680 Y16.660 E0.2384
G1 X-77.410 Y13.930 E0.1342
G1 X-77.410 Y-13.930 E0.9683
G1 X-74.680 Y-16.660 E0.1342
G1 X-67.820 Y-16.660 E0.2384
G1 X-65.090 Y-13.930 E0.1342
G1 X-65.090 Y-9.660 E0.1484
G1 X74.680 Y-9.660 E4.8580
G1 X77.410 Y-6.930 E0.1342
G1 X77.410 Y2.076 E0.3130
G1 X77.405 Y2.229 E0.0053
G1 X77.364 Y2.849 E0.0216
G1 X77.325 Y3.151 E0.0106
G1 X77.189 Y3.835 E0.0242
G1 X77.110 Y4.130 E0.0106
G1 X76.885 Y4.790 E0.0242
G1 X76.769 Y5.072 E0.0106
G1 X76.460 Y5.698 E0.0242
G1 X76.307 Y5.962 E0.0106
G1 X75.920 Y6.542 E0.0242
G1 X75.734 Y6.784 E0.0106
G1 X75.274 Y7.309 E0.0242
G1 X75.058 Y7.524 E0.0106
G1 X74.534 Y7.984 E0.0242
G1 X74.292 Y8.170 E0.0106
G1 X73.712 Y8.557 E0.0242
G1 X73.448 Y8.710 E0.0106
G1 X72.822 Y9.019 E0.0242
G1 X72.540 Y9.135 E0.0106
G1 X71.880 Y9.359 E0.0242
G1 X71.585 Y9.438 E0.0106
G1 X70.901 Y9.575 E0.0242
G1 X70.599 Y9.614 E0.0106
G1 X69.979 Y9.655 E0.0216
G1 X69.826 Y9.660 E0.0053
G1 X65.820 Y9.660 E0.1393
G1 X63.090 Y6.930 E0.1342
G1 X63.090 Y3.660 E0.1137
G1 E-2.0000 F1500
G1 X63.530 Y3.220 F4200
G1 E2.0000 F1500
G1 X-63.530 Y3.220 E4.4162 F960
G1 X-63.530 Y6.748 E0.1226
G1 X-65.530 Y8.748 E0.0983
G1 X-65.530 Y13.748 E0.1738
G1 X-68.002 Y16.220 E0.1215
G1 X-74.498 Y16.220 E0.2258
G1 X-76.970 Y13.748 E0.1215
G1 X-76.970 Y-13.748 E0.9557
G1 X-74.498 Y-16.220 E0.1215
G1 X-68.002 Y-16.220 E0.2258
G1 X-65.530 Y-13.748 E0.1215
G1 X-65.530 Y-9.220 E0.1574
G1 X74.498 Y-9.220 E4.8669
G1 X76.970 Y-6.748 E0.1215
G1 X76.970 Y2.069 E0.3065
G1 X76.965 Y2.207 E0.0048
G1 X76.926 Y2.805 E0.0208
G1 X76.890 Y3.079 E0.0096
G1 X76.760 Y3.735 E0.0232
G1 X76.688 Y4.002 E0.0096
G1 X76.473 Y4.635 E0.0232
G1 X76.368 Y4.891 E0.0096
G1 X76.072 Y5.490 E0.0232
G1 X75.934 Y5.730 E0.0096
G1 X75.562 Y6.286 E0.0232
G1 X75.394 Y6.505 E0.0096
G1 X74.953 Y7.008 E0.0232
G1 X74.758 Y7.203 E0.0096
G1 X74.255 Y7.644 E0.0232
G1 X74.036 Y7.812 E0.0096
G1 X73.480 Y8.184 E0.0232
G1 X73.240 Y8.322 E0.0096
G1 X72.641 Y8.618 E0.0232
G1 X72.385 Y8.723 E0.0096
G1 X71.752 Y8.938 E0.0232
G1 X71.485 Y9.010 E0.0096
G1 X70.829 Y9.140 E0.0232
G1 X70.555 Y9.176 E0.0096
G1 X69.957 Y9.215 E0.0208
G1 X69.819 Y9.220 E0.0048
G1 X66.002 Y9.220 E0.1327
G1 X63.530 Y6.748 E0.1215
G1 X63.530 Y3.220 E0.1226
G1 E-2.0000 F1500
; feature inner perimeter
G1 X-70.468 Y3.460 F4200
G1 E2.0000 F1500
G1 X-71.210 Y3.460 E0.0258 F720
G1 X-71.210 Y2.718 E0.0258
G1 X-70.468 Y3.460 E0.0365
G1 X-71.210 Y-2.540 F4200
G1 X-71.210 Y-3.460 E0.0320 F720
G1 X71.210 Y-3.460 E4.9501
G1 X71.210 Y-2.540 E0.0320
G1 X-71.210 Y-2.540 E4.9501
G1 X-70.850 Y-2.100 F4200
G1 X-70.850 Y2.456 E0.1583 F720
G1 X-69.406 Y3.900 E0.0710
G1 X-70.850 Y3.900 E0.0502
G1 X-70.850 Y10.900 E0.2433
G1 X-71.650 Y10.900 E0.0278
G1 X-71.650 Y-10.900 E0.7577
G1 X-70.850 Y-10.900 E0.0278
G1 X-70.850 Y-3.900 E0.2433
G1 X71.650 Y-3.900 E4.9528
G1 X71.650 Y1.964 E0.2038
G1 X71.631 Y2.248 E0.0099
G1 X71.583 Y2.491 E0.0086
G1 X71.503 Y2.726 E0.0086
G1 X71.393 Y2.949 E0.0086
G1 X71.255 Y3.155 E0.0086
G1 X71.092 Y3.342 E0.0086
G1 X70.905 Y3.505 E0.0086
G1 X70.699 Y3.643 E0.0086
G1 X70.476 Y3.753 E0.0086
G1 X70.241 Y3.833 E0.0086
G1 X69.998 Y3.881 E0.0086
G1 X69.384 Y3.922 E0.0214
G1 X70.850 Y2.456 E0.0721
G1 X70.850 Y-2.100 E0.1583
G1 X-70.850 Y-2.100 E4.9250
G1 X-70.410 Y-1.660 F4200
G1 X-70.410 Y2.273 E0.1367 F720
G1 X-69.023 Y3.660 E0.0682
G1 X-68.410 Y3.660 E0.0213
G1 X-68.410 Y4.340 E0.0236
G1 X-70.410 Y4.340 E0.0695
G1 X-70.410 Y11.340 E0.2433
G1 X-72.090 Y11.340 E0.0584
G1 X-72.090 Y-11.340 E0.7883
G1 X-70.410 Y-11.340 E0.0584
G1 X-70.410 Y-4.340 E0.2433
G1 X72.090 Y-4.340 E4.9528
G1 X72.090 Y1.978 E0.2196
G1 X72.069 Y2.305 E0.0114
G1 X72.009 Y2.605 E0.0106
G1 X71.911 Y2.895 E0.0106
G1 X71.775 Y3.169 E0.0106
G1 X71.605 Y3.424 E0.0106
G1 X71.404 Y3.654 E0.0106
G1 X71.174 Y3.855 E0.0106
G1 X70.919 Y4.025 E0.0106
G1 X70.645 Y4.161 E0.0106
G1 X70.355 Y4.259 E0.0106
G1 X70.055 Y4.319 E0.0106
G1 X69.728 Y4.340 E0.0114
G1 X68.410 Y4.340 E0.0458
G1 X68.410 Y3.660 E0.0236
G1 X69.023 Y3.660 E0.0213
G1 X70.410 Y2.273 E0.0682
G1 X70.410 Y-1.660 E0.1367
G1 X-70.410 Y-1.660 E4.8945
; feature outer perimeter
G1 X-69.970 Y-1.220 F4200
