; G-Code generated by Simplify3D(R) Version 4.1.2
; Mar 14, 2021 at 10:23:25 PM
; Settings Summary
;   processName,High Quality PLA
;   applyToModels,arm2
;   profileName,FlashForge Creator Pro(2) (modified)
;   profileVersion,2018-01-19 08:00:00
;   baseProfile,
;   printMaterial,PLA
;   printQuality,High
;   printExtruders,Left Extruder Only
;   extruderName,Right Extruder,Left Extruder
;   extruderToolheadNumber,0,1
;   extruderDiameter,0.4,0.4
;   extruderAutoWidth,0,0
;   extruderWidth,0.4,0.4
;   extrusionMultiplier,0.97,0.95
;   extruderUseRetract,1,1
;   extruderRetractionDistance,1.2,1
;   extruderExtraRestartDistance,0,0
;   extruderRetractionZLift,0,0
;   extruderRetractionSpeed,1500,1200
;   extruderUseCoasting,0,0
;   extruderCoastingDistance,0.2,0.2
;   extruderUseWipe,0,0
;   extruderWipeDistance,5,5
;   primaryExtruder,1
;   layerHeight,0.1
;   topSolidLayers,4
;   bottomSolidLayers,4
;   perimeterOutlines,4
;   printPerimetersInsideOut,1
;   startPointOption,2
;   startPointOriginX,0
;   startPointOriginY,0
;   sequentialIslands,0
;   spiralVaseMode,0
;   firstLayerHeightPercentage,150
;   firstLayerWidthPercentage,105
;   firstLayerUnderspeed,0.5
;   useRaft,0
;   raftExtruder,1
;   raftTopLayers,3
;   raftBaseLayers,2
;   raftOffset,3
;   raftSeparationDistance,0.14
;   raftTopInfill,100
;   aboveRaftSpeedMultiplier,0.3
;   useSkirt,1
;   skirtExtruder,1
;   skirtLayers,1
;   skirtOutlines,4
;   skirtOffset,6
;   usePrimePillar,0
;   primePillarExtruder,999
;   primePillarWidth,12
;   primePillarLocation,7
;   primePillarSpeedMultiplier,1
;   useOozeShield,0
;   oozeShieldExtruder,999
;   oozeShieldOffset,3
;   oozeShieldOutlines,2
;   oozeShieldSidewallShape,1
;   oozeShieldSidewallAngle,30
;   oozeShieldSpeedMultiplier,1
;   infillExtruder,1
;   internalInfillPattern,Full Honeycomb
;   externalInfillPattern,Rectilinear
;   infillPercentage,35
;   outlineOverlapPercentage,20
;   infillExtrusionWidthPercentage,100
;   minInfillLength,5
;   infillLayerInterval,1
;   internalInfillAngles,0,120,-120
;   overlapInternalInfillAngles,0
;   externalInfillAngles,45,-45
;   generateSupport,0
;   supportExtruder,1
;   supportInfillPercentage,40
;   supportExtraInflation,0
;   supportBaseLayers,0
;   denseSupportExtruder,1
;   denseSupportLayers,0
;   denseSupportInfillPercentage,70
;   supportLayerInterval,1
;   supportHorizontalPartOffset,0.3
;   supportUpperSeparationLayers,1
;   supportLowerSeparationLayers,1
;   supportType,0
;   supportGridSpacing,4
;   maxOverhangAngle,45
;   supportAngles,0
;   temperatureName,Right Extruder,Left Extruder,Heated Build Platform
;   temperatureNumber,0,1,0
;   temperatureSetpointCount,1,1,1
;   temperatureSetpointLayers,1,1,1
;   temperatureSetpointTemperatures,0,190,55
;   temperatureStabilizeAtStartup,0,0,0
;   temperatureHeatedBed,0,0,1
;   fanLayers,1
;   fanSpeeds,100
;   blipFanToFullPower,0
;   adjustSpeedForCooling,1
;   minSpeedLayerTime,15
;   minCoolingSpeedSlowdown,20
;   increaseFanForCooling,0
;   minFanLayerTime,45
;   maxCoolingFanSpeed,100
;   increaseFanForBridging,1
;   bridgingFanSpeed,100
;   use5D,1
;   relativeEdistances,1
;   allowEaxisZeroing,0
;   independentExtruderAxes,1
;   includeM10123,0
;   stickySupport,1
;   applyToolheadOffsets,0
;   gcodeXoffset,0
;   gcodeYoffset,0
;   gcodeZoffset,0
;   overrideMachineDefinition,1
;   machineTypeOverride,0
;   strokeXoverride,225
;   strokeYoverride,145
;   strokeZoverride,150
;   originOffsetXoverride,112.5
;   originOffsetYoverride,72.5
;   originOffsetZoverride,0
;   homeXdirOverride,1
;   homeYdirOverride,1
;   homeZdirOverride,-1
;   flipXoverride,1
;   flipYoverride,-1
;   flipZoverride,1
;   toolheadOffsets,0,0|34,0|0,0|0,0|0,0|0,0
;   overrideFirmwareConfiguration,1
;   firmwareTypeOverride,MakerBot/Sailfish Firmware
;   GPXconfigOverride,r1d
;   baudRateOverride,115200
;   overridePrinterModels,1
;   printerModelsOverride,FlashForge_CreatorPro.stl
;   startingGcode,; **** Replicator 1 dual start.gcode ****,M73 P0 ; enable build progress,G162 X Y F3000 ; home XY maximum,G161 Z F1200 ; home Z minimum,G92 Z-5 ; set Z to -5,G1 Z0 ; move Z to 0,G161 Z F100 ; home Z slowly,M132 X Y Z A B ; recall home offsets,M135 T0 ; load right extruder offsets,G1 X-110 Y-70 Z30 F9000 ; move to wait position left hand side of the table,G130 X20 Y20 Z20 A20 B20 ; lower stepper Vrefs while heating,M126 S[fan_speed_pwm],M140 S[bed0_temperature] T0,M134 T0 ; stabilize bed temperature,M104 S[extruder1_temperature] T1,M133 T1 ; stabilize left extruder temperature,G130 X127 Y127 Z40 A127 B127 ; default stepper Vrefs,G92 A0 B0 ; zero extruders,G1 Z0.4 ; position nozzle,M135 T1 ; left tool,G1 X-140 Y-70 F9000 ; reposition nozzle,G1 X-100 Y-70 E25 F300 ; purge nozzle,G1 X-110 Y-70 Z0.15 F1200 ; slow wipe,G1 X-100 Y-70 Z0.5 F1200 ; lift,G92 A0 B0 ; zero extruders,M73 P1 ;@body (notify GPX body has started),; **** end of start.gcode ****
;   layerChangeGcode,
;   retractionGcode,
;   toolChangeGcode,
;   endingGcode,; **** Replicator 1 dual end.gcode ****,M73 P100 ; end build progress,G1 Z150 F1000 ; send Z axis to bottom of machine,M140 S0 T0 ; cool down HBP,M104 S0 T0 ; cool down right extruder,M104 S0 T1 ; cool down left extruder,M127 ; stop blower fan,G162 X Y F3000 ; home XY maximum,M18 ; disable stepper,M72 P1 ; play Ta-Da song,; **** end of end.gcode ****
;   exportFileFormat,gcode
;   celebration,0
;   celebrationSong,Random Song
;   postProcessing,curl -k -H "X-Api-Key: 27C03DAE77BD475FAFE33C1E0B3A564D" -F "select=false" -F "print=false" -F "file=@[output_filepath]" "http://rpi42/api/files/local" {STRIP "; postProcessing"}
;   defaultSpeed,3000
;   outlineUnderspeed,0.5
;   solidInfillUnderspeed,0.8
;   supportUnderspeed,0.8
;   rapidXYspeed,4200
;   rapidZspeed,1200
;   minBridgingArea,5
;   bridgingExtraInflation,0
;   bridgingExtrusionMultiplier,1
;   bridgingSpeedMultiplier,0.8
;   useFixedBridgingAngle,0
;   fixedBridgingAngle,0
;   applyBridgingToPerimeters,1
;   filamentDiameters,1.75|1.75|1.75|1.75|1.75|1.75
;   filamentPricesPerKg,46|46|46|46|46|46
;   filamentDensities,1.25|1.25|1.25|1.25|1.25|1.25
;   useMinPrintHeight,0
;   minPrintHeight,0
;   useMaxPrintHeight,0
;   maxPrintHeight,0
;   useDiaphragm,0
;   diaphragmLayerInterval,20
;   robustSlicing,1
;   mergeAllIntoSolid,0
;   onlyRetractWhenCrossingOutline,1
;   retractBetweenLayers,1
;   useRetractionMinTravel,0
;   retractionMinTravel,3
;   retractWhileWiping,0
;   onlyWipeOutlines,1
;   avoidCrossingOutline,0
;   maxMovementDetourFactor,3
;   toolChangeRetractionDistance,12
;   toolChangeExtraRestartDistance,-0.5
;   toolChangeRetractionSpeed,600
;   externalThinWallType,0
;   internalThinWallType,2
;   thinWallAllowedOverlapPercentage,10
;   singleExtrusionMinLength,1
;   singleExtrusionMinPrintingWidthPercentage,50
;   singleExtrusionMaxPrintingWidthPercentage,200
;   singleExtrusionEndpointExtension,0.2
;   horizontalSizeCompensation,0
G90
M83
; **** Replicator 1 dual start.gcode ****
M73 P0 ; enable build progress
G162 X Y F3000 ; home XY maximum
G161 Z F1200 ; home Z minimum
G92 Z-5 ; set Z to -5
G1 Z0 ; move Z to 0
G161 Z F100 ; home Z slowly
M132 X Y Z A B ; recall home offsets
M135 T0 ; load right extruder offsets
G1 X-110 Y-70 Z30 F9000 ; move to wait position left hand side of the table
G130 X20 Y20 Z20 A20 B20 ; lower stepper Vrefs while heating
M126 S255
M140 S55 T0
M134 T0 ; stabilize bed temperature
M104 S190 T1
M133 T1 ; stabilize left extruder temperature
G130 X127 Y127 Z40 A127 B127 ; default stepper Vrefs
G92 A0 B0 ; zero extruders
G1 Z0.4 ; position nozzle
M135 T1 ; left tool
G1 X-140 Y-70 F9000 ; reposition nozzle
G1 X-100 Y-70 E25 F300 ; purge nozzle
G1 X-110 Y-70 Z0.15 F1200 ; slow wipe
G1 X-100 Y-70 Z0.5 F1200 ; lift
G92 A0 B0 ; zero extruders
M73 P1 ;@body (notify GPX body has started)
; **** end of start.gcode ****
; process High Quality PLA
; layer 1, Z = 0.150
M135 T1
G1 E-1.0000 F1200
; feature skirt
; tool H0.150 W0.420
G1 Z0.150 F1200
G1 X25.030 Y8.030 F4200
G1 E1.0000 F1200
G1 X25.030 Y-24.183 E0.8016 F1500
G1 X25.048 Y-24.550 E0.0091
G1 X25.131 Y-25.390 E0.0210
G1 X25.274 Y-26.110 E0.0183
G1 X25.572 Y-27.093 E0.0256
G1 X25.853 Y-27.772 E0.0183
G1 X26.338 Y-28.678 E0.0256
G1 X26.746 Y-29.289 E0.0183
G1 X27.398 Y-30.083 E0.0256
G1 X27.917 Y-30.602 E0.0183
G1 X28.711 Y-31.254 E0.0256
G1 X29.322 Y-31.662 E0.0183
G1 X30.228 Y-32.147 E0.0256
G1 X30.906 Y-32.428 E0.0183
G1 X31.890 Y-32.726 E0.0256
G1 X32.610 Y-32.869 E0.0183
G1 X33.450 Y-32.952 E0.0210
G1 X33.817 Y-32.970 E0.0091
G1 X35.183 Y-32.970 E0.0340
G1 X35.550 Y-32.952 E0.0091
G1 X36.390 Y-32.869 E0.0210
G1 X37.110 Y-32.726 E0.0183
G1 X38.094 Y-32.428 E0.0256
G1 X38.772 Y-32.147 E0.0183
G1 X39.678 Y-31.662 E0.0256
G1 X40.289 Y-31.254 E0.0183
G1 X41.083 Y-30.602 E0.0256
G1 X41.602 Y-30.083 E0.0183
G1 X42.254 Y-29.289 E0.0256
G1 X42.662 Y-28.678 E0.0183
G1 X43.147 Y-27.772 E0.0256
G1 X43.428 Y-27.094 E0.0183
G1 X43.726 Y-26.110 E0.0256
G1 X43.869 Y-25.390 E0.0183
G1 X43.952 Y-24.550 E0.0210
G1 X43.970 Y-24.183 E0.0091
G1 X43.970 Y18.245 E1.0557
G1 X43.938 Y18.733 E0.0122
G1 X43.791 Y19.849 E0.0280
G1 X43.538 Y20.794 E0.0244
G1 X43.013 Y22.061 E0.0341
G1 X42.523 Y22.909 E0.0244
G1 X41.689 Y23.997 E0.0341
G1 X40.996 Y24.689 E0.0244
G1 X39.909 Y25.523 E0.0341
G1 X39.061 Y26.013 E0.0244
G1 X37.795 Y26.538 E0.0341
G1 X36.849 Y26.791 E0.0244
G1 X35.733 Y26.938 E0.0280
G1 X35.245 Y26.970 E0.0122
G1 X-25.535 Y26.970 E1.5124
G1 X-25.572 Y27.093 E0.0032
G1 X-25.853 Y27.772 E0.0183
G1 X-26.338 Y28.678 E0.0256
G1 X-26.746 Y29.289 E0.0183
G1 X-27.398 Y30.083 E0.0256
G1 X-27.917 Y30.602 E0.0183
G1 X-28.712 Y31.254 E0.0256
G1 X-29.322 Y31.662 E0.0183
G1 X-30.228 Y32.147 E0.0256
G1 X-30.906 Y32.428 E0.0183
G1 X-31.890 Y32.726 E0.0256
G1 X-32.610 Y32.869 E0.0183
G1 X-33.450 Y32.952 E0.0210
G1 X-33.817 Y32.970 E0.0091
G1 X-35.183 Y32.970 E0.0340
G1 X-35.550 Y32.952 E0.0091
G1 X-36.390 Y32.869 E0.0210
G1 X-37.110 Y32.726 E0.0183
G1 X-38.094 Y32.428 E0.0256
G1 X-38.772 Y32.147 E0.0183
G1 X-39.678 Y31.662 E0.0256
G1 X-40.288 Y31.255 E0.0183
G1 X-41.083 Y30.602 E0.0256
G1 X-41.602 Y30.083 E0.0183
G1 X-42.254 Y29.288 E0.0256
G1 X-42.662 Y28.678 E0.0183
G1 X-43.147 Y27.772 E0.0256
G1 X-43.428 Y27.094 E0.0183
G1 X-43.726 Y26.110 E0.0256
G1 X-43.869 Y25.390 E0.0183
G1 X-43.952 Y24.550 E0.0210
G1 X-43.970 Y24.183 E0.0091
G1 X-43.970 Y16.817 E0.1833
G1 X-43.952 Y16.450 E0.0091
G1 X-43.869 Y15.613 E0.0209
G1 X-43.727 Y14.896 E0.0182
G1 X-43.429 Y13.911 E0.0256
G1 X-43.147 Y13.230 E0.0183
G1 X-42.662 Y12.322 E0.0256
G1 X-42.254 Y11.712 E0.0183
G1 X-41.602 Y10.917 E0.0256
G1 X-41.083 Y10.398 E0.0183
G1 X-40.288 Y9.745 E0.0256
G1 X-39.678 Y9.338 E0.0183
G1 X-38.772 Y8.853 E0.0256
G1 X-38.094 Y8.572 E0.0183
G1 X-37.110 Y8.274 E0.0256
G1 X-36.390 Y8.131 E0.0183
G1 X-35.550 Y8.048 E0.0210
G1 X-35.183 Y8.030 E0.0091
G1 X25.030 Y8.030 E1.4983
G1 E-1.0000 F1200
G1 X25.450 Y8.450 F4200
G1 E1.0000 F1200
G1 X25.450 Y-24.173 E0.8118 F1500
G1 X25.467 Y-24.519 E0.0086
G1 X25.547 Y-25.328 E0.0202
G1 X25.682 Y-26.008 E0.0172
G1 X25.968 Y-26.952 E0.0246
G1 X26.233 Y-27.592 E0.0172
G1 X26.698 Y-28.462 E0.0246
G1 X27.083 Y-29.038 E0.0172
G1 X27.709 Y-29.801 E0.0246
G1 X28.199 Y-30.291 E0.0172
G1 X28.962 Y-30.917 E0.0246
G1 X29.538 Y-31.302 E0.0172
G1 X30.408 Y-31.767 E0.0246
G1 X31.048 Y-32.032 E0.0172
G1 X31.992 Y-32.318 E0.0246
G1 X32.672 Y-32.453 E0.0172
G1 X33.481 Y-32.533 E0.0202
G1 X33.827 Y-32.550 E0.0086
G1 X35.173 Y-32.550 E0.0335
G1 X35.519 Y-32.533 E0.0086
G1 X36.328 Y-32.453 E0.0202
G1 X37.008 Y-32.318 E0.0172
G1 X37.952 Y-32.032 E0.0246
G1 X38.592 Y-31.767 E0.0172
G1 X39.462 Y-31.302 E0.0246
G1 X40.038 Y-30.917 E0.0172
G1 X40.801 Y-30.291 E0.0246
G1 X41.291 Y-29.801 E0.0172
G1 X41.917 Y-29.038 E0.0246
G1 X42.302 Y-28.462 E0.0172
G1 X42.767 Y-27.592 E0.0246
G1 X43.032 Y-26.952 E0.0172
G1 X43.318 Y-26.008 E0.0246
G1 X43.453 Y-25.328 E0.0172
G1 X43.533 Y-24.519 E0.0202
G1 X43.550 Y-24.173 E0.0086
G1 X43.550 Y18.231 E1.0551
G1 X43.520 Y18.691 E0.0115
G1 X43.378 Y19.767 E0.0270
G1 X43.139 Y20.659 E0.0230
G1 X42.636 Y21.875 E0.0327
G1 X42.173 Y22.675 E0.0230
G1 X41.372 Y23.719 E0.0327
G1 X40.719 Y24.373 E0.0230
G1 X39.675 Y25.174 E0.0327
G1 X38.875 Y25.635 E0.0230
G1 X37.659 Y26.139 E0.0327
G1 X36.767 Y26.378 E0.0230
G1 X35.692 Y26.520 E0.0270
G1 X35.231 Y26.550 E0.0115
G1 X-25.846 Y26.550 E1.5198
G1 X-25.968 Y26.952 E0.0104
G1 X-26.233 Y27.592 E0.0172
G1 X-26.698 Y28.462 E0.0246
G1 X-27.083 Y29.038 E0.0172
G1 X-27.709 Y29.801 E0.0246
G1 X-28.199 Y30.291 E0.0172
G1 X-28.962 Y30.917 E0.0246
G1 X-29.538 Y31.302 E0.0172
G1 X-30.408 Y31.767 E0.0246
G1 X-31.048 Y32.032 E0.0172
G1 X-31.992 Y32.318 E0.0246
G1 X-32.672 Y32.453 E0.0172
G1 X-33.481 Y32.533 E0.0202
G1 X-33.827 Y32.550 E0.0086
G1 X-35.173 Y32.550 E0.0335
G1 X-35.519 Y32.533 E0.0086
G1 X-36.328 Y32.453 E0.0202
G1 X-37.008 Y32.318 E0.0172
G1 X-37.952 Y32.032 E0.0246
G1 X-38.592 Y31.767 E0.0172
G1 X-39.462 Y31.302 E0.0246
G1 X-40.038 Y30.917 E0.0172
G1 X-40.801 Y30.291 E0.0246
G1 X-41.291 Y29.801 E0.0172
G1 X-41.917 Y29.038 E0.0246
G1 X-42.302 Y28.462 E0.0172
G1 X-42.767 Y27.592 E0.0246
G1 X-43.032 Y26.952 E0.0172
G1 X-43.318 Y26.008 E0.0246
G1 X-43.453 Y25.328 E0.0172
G1 X-43.533 Y24.519 E0.0202
G1 X-43.550 Y24.173 E0.0086
G1 X-43.550 Y16.827 E0.1828
G1 X-43.533 Y16.481 E0.0086
G1 X-43.454 Y15.674 E0.0202
G1 X-43.319 Y14.998 E0.0172
G1 X-43.033 Y14.052 E0.0246
G1 X-42.767 Y13.409 E0.0173
G1 X-42.302 Y12.538 E0.0246
G1 X-41.917 Y11.962 E0.0172
G1 X-41.291 Y11.199 E0.0246
G1 X-40.801 Y10.709 E0.0172
G1 X-40.038 Y10.083 E0.0246
G1 X-39.462 Y9.698 E0.0172
G1 X-38.592 Y9.233 E0.0246
G1 X-37.952 Y8.968 E0.0172
G1 X-37.008 Y8.682 E0.0246
G1 X-36.328 Y8.547 E0.0172
G1 X-35.519 Y8.467 E0.0202
G1 X-35.173 Y8.450 E0.0086
G1 X25.450 Y8.450 E1.5085
G1 E-1.0000 F1200
G1 X25.870 Y8.870 F4200
G1 E1.0000 F1200
G1 X25.870 Y-24.163 E0.8219 F1500
G1 X25.886 Y-24.488 E0.0081
G1 X25.963 Y-25.267 E0.0195
G1 X26.090 Y-25.905 E0.0162
G1 X26.364 Y-26.810 E0.0235
G1 X26.613 Y-27.412 E0.0162
G1 X27.059 Y-28.246 E0.0235
G1 X27.421 Y-28.788 E0.0162
G1 X28.021 Y-29.519 E0.0235
G1 X28.482 Y-29.979 E0.0162
G1 X29.212 Y-30.579 E0.0235
G1 X29.754 Y-30.941 E0.0162
G1 X30.588 Y-31.387 E0.0235
G1 X31.190 Y-31.636 E0.0162
G1 X32.094 Y-31.910 E0.0235
G1 X32.733 Y-32.037 E0.0162
G1 X33.512 Y-32.114 E0.0195
G1 X33.837 Y-32.130 E0.0081
G1 X35.163 Y-32.130 E0.0330
G1 X35.488 Y-32.114 E0.0081
G1 X36.267 Y-32.037 E0.0195
G1 X36.906 Y-31.910 E0.0162
G1 X37.810 Y-31.636 E0.0235
G1 X38.412 Y-31.387 E0.0162
G1 X39.246 Y-30.941 E0.0235
G1 X39.788 Y-30.579 E0.0162
G1 X40.518 Y-29.979 E0.0235
G1 X40.979 Y-29.518 E0.0162
G1 X41.579 Y-28.788 E0.0235
G1 X41.941 Y-28.246 E0.0162
G1 X42.387 Y-27.412 E0.0235
G1 X42.636 Y-26.810 E0.0162
G1 X42.910 Y-25.906 E0.0235
G1 X43.037 Y-25.267 E0.0162
G1 X43.114 Y-24.488 E0.0195
G1 X43.130 Y-24.163 E0.0081
G1 X43.130 Y18.217 E1.0545
G1 X43.102 Y18.650 E0.0108
G1 X42.965 Y19.684 E0.0260
G1 X42.741 Y20.524 E0.0216
G1 X42.258 Y21.689 E0.0314
G1 X41.823 Y22.441 E0.0216
G1 X41.056 Y23.442 E0.0314
G1 X40.441 Y24.056 E0.0216
G1 X39.441 Y24.824 E0.0314
G1 X38.689 Y25.258 E0.0216
G1 X37.524 Y25.740 E0.0314
G1 X36.685 Y25.965 E0.0216
G1 X35.650 Y26.102 E0.0260
G1 X35.217 Y26.130 E0.0108
G1 X-26.158 Y26.130 E1.5272
G1 X-26.364 Y26.810 E0.0177
G1 X-26.613 Y27.412 E0.0162
G1 X-27.059 Y28.246 E0.0235
G1 X-27.421 Y28.788 E0.0162
G1 X-28.021 Y29.519 E0.0235
G1 X-28.482 Y29.979 E0.0162
G1 X-29.212 Y30.579 E0.0235
G1 X-29.754 Y30.941 E0.0162
G1 X-30.588 Y31.387 E0.0235
G1 X-31.190 Y31.636 E0.0162
G1 X-32.094 Y31.910 E0.0235
G1 X-32.733 Y32.037 E0.0162
G1 X-33.512 Y32.114 E0.0195
G1 X-33.837 Y32.130 E0.0081
G1 X-35.163 Y32.130 E0.0330
G1 X-35.488 Y32.114 E0.0081
G1 X-36.267 Y32.037 E0.0195
G1 X-36.906 Y31.910 E0.0162
G1 X-37.810 Y31.636 E0.0235
G1 X-38.412 Y31.387 E0.0162
G1 X-39.246 Y30.941 E0.0235
G1 X-39.787 Y30.579 E0.0162
G1 X-40.518 Y29.979 E0.0235
G1 X-40.979 Y29.518 E0.0162
G1 X-41.579 Y28.787 E0.0235
G1 X-41.941 Y28.246 E0.0162
G1 X-42.387 Y27.412 E0.0235
