; G-Code generated by Simplify3D(R) Version 4.1.2
; Mar 6, 2021 at 9:28:24 PM
; Settings Summary
;   processName,High Quality ABS
;   applyToModels,arm2
;   profileName,FlashForge Creator Pro - Octoprint (modified)
;   profileVersion,2021-02-07 11:52:42
;   baseProfile,FlashForge Creator Pro(2) (modified)
;   printMaterial,ABS
;   printQuality,High
;   printExtruders,Left Extruder Only
;   extruderName,Right Extruder,Left Extruder
;   extruderToolheadNumber,0,1
;   extruderDiameter,0.4,0.4
;   extruderAutoWidth,0,0
;   extruderWidth,0.4,0.4
;   extrusionMultiplier,0.95,0.95
;   extruderUseRetract,1,1
;   extruderRetractionDistance,2,2
;   extruderExtraRestartDistance,0,0
;   extruderRetractionZLift,0,0
;   extruderRetractionSpeed,1500,1500
;   extruderUseCoasting,0,0
;   extruderCoastingDistance,0.2,0.2
;   extruderUseWipe,0,0
;   extruderWipeDistance,5,5
;   primaryExtruder,1
;   layerHeight,0.1
;   topSolidLayers,6
;   bottomSolidLayers,6
;   perimeterOutlines,4
;   printPerimetersInsideOut,1
;   startPointOption,2
;   startPointOriginX,0
;   startPointOriginY,0
;   sequentialIslands,0
;   spiralVaseMode,0
;   firstLayerHeightPercentage,200
;   firstLayerWidthPercentage,110
;   firstLayerUnderspeed,0.4
;   useRaft,0
;   raftExtruder,1
;   raftTopLayers,3
;   raftBaseLayers,2
;   raftOffset,3
;   raftSeparationDistance,0.14
;   raftTopInfill,100
;   aboveRaftSpeedMultiplier,0.3
;   useSkirt,1
;   skirtExtruder,1
;   skirtLayers,1
;   skirtOutlines,5
;   skirtOffset,4
;   usePrimePillar,0
;   primePillarExtruder,999
;   primePillarWidth,12
;   primePillarLocation,7
;   primePillarSpeedMultiplier,1
;   useOozeShield,0
;   oozeShieldExtruder,999
;   oozeShieldOffset,3
;   oozeShieldOutlines,2
;   oozeShieldSidewallShape,0
;   oozeShieldSidewallAngle,30
;   oozeShieldSpeedMultiplier,1
;   infillExtruder,1
;   internalInfillPattern,Triangular
;   externalInfillPattern,Rectilinear
;   infillPercentage,30
;   outlineOverlapPercentage,15
;   infillExtrusionWidthPercentage,100
;   minInfillLength,5
;   infillLayerInterval,1
;   internalInfillAngles,0,60,-60
;   overlapInternalInfillAngles,1
;   externalInfillAngles,45,-45
;   generateSupport,0
;   supportExtruder,1
;   supportInfillPercentage,90
;   supportExtraInflation,0
;   supportBaseLayers,0
;   denseSupportExtruder,1
;   denseSupportLayers,0
;   denseSupportInfillPercentage,70
;   supportLayerInterval,1
;   supportHorizontalPartOffset,0.3
;   supportUpperSeparationLayers,1
;   supportLowerSeparationLayers,1
;   supportType,0
;   supportGridSpacing,4
;   maxOverhangAngle,45
;   supportAngles,0
;   temperatureName,Right Extruder,Left Extruder,Heated Build Platform
;   temperatureNumber,0,1,0
;   temperatureSetpointCount,1,1,1
;   temperatureSetpointLayers,1,1,1
;   temperatureSetpointTemperatures,0,235,110
;   temperatureStabilizeAtStartup,0,1,0
;   temperatureHeatedBed,0,0,1
;   fanLayers,1
;   fanSpeeds,0
;   blipFanToFullPower,0
;   adjustSpeedForCooling,1
;   minSpeedLayerTime,15
;   minCoolingSpeedSlowdown,20
;   increaseFanForCooling,0
;   minFanLayerTime,45
;   maxCoolingFanSpeed,100
;   increaseFanForBridging,1
;   bridgingFanSpeed,100
;   use5D,1
;   relativeEdistances,1
;   allowEaxisZeroing,0
;   independentExtruderAxes,1
;   includeM10123,0
;   stickySupport,1
;   applyToolheadOffsets,0
;   gcodeXoffset,0
;   gcodeYoffset,0
;   gcodeZoffset,0
;   overrideMachineDefinition,1
;   machineTypeOverride,0
;   strokeXoverride,225
;   strokeYoverride,145
;   strokeZoverride,150
;   originOffsetXoverride,112.5
;   originOffsetYoverride,72.5
;   originOffsetZoverride,0
;   homeXdirOverride,1
;   homeYdirOverride,1
;   homeZdirOverride,-1
;   flipXoverride,1
;   flipYoverride,-1
;   flipZoverride,1
;   toolheadOffsets,0,0|34,0|0,0|0,0|0,0|0,0
;   overrideFirmwareConfiguration,1
;   firmwareTypeOverride,MakerBot/Sailfish Firmware
;   GPXconfigOverride,r1d
;   baudRateOverride,115200
;   overridePrinterModels,1
;   printerModelsOverride,FlashForge_CreatorPro.stl
;   startingGcode,; **** Replicator 1 dual start.gcode ****,M73 P0 ; enable build progress,G162 X Y F3000 ; home XY maximum,G161 Z F1200 ; home Z minimum,G92 Z-5 ; set Z to -5,G1 Z0 ; move Z to 0,G161 Z F100 ; home Z slowly,M132 X Y Z A B ; recall home offsets,M135 T0 ; load right extruder offsets,G1 X-110 Y-70 Z30 F9000 ; move to wait position left hand side of the table,G130 X20 Y20 Z20 A20 B20 ; lower stepper Vrefs while heating,M126 S[fan_speed_pwm],M140 S[bed0_temperature] T0,M134 T0 ; stabilize bed temperature,M104 S[extruder1_temperature] T1,M133 T1 ; stabilize left extruder temperature,G130 X127 Y127 Z40 A127 B127 ; default stepper Vrefs,G92 A0 B0 ; zero extruders,G1 Z0.4 ; position nozzle,M135 T1 ; left tool,G1 X-140 Y-70 F9000 ; reposition nozzle,G1 X-100 Y-70 E25 F300 ; purge nozzle,G1 X-110 Y-70 Z0.15 F1200 ; slow wipe,G1 X-100 Y-70 Z0.5 F1200 ; lift,G92 A0 B0 ; zero extruders,M73 P1 ;@body (notify GPX body has started),; **** end of start.gcode ****
;   layerChangeGcode,
;   retractionGcode,
;   toolChangeGcode,
;   endingGcode,; **** Replicator 1 dual end.gcode ****,M73 P100 ; end build progress,G1 Z150 F1000 ; send Z axis to bottom of machine,M140 S0 T0 ; cool down HBP,M104 S0 T0 ; cool down right extruder,M104 S0 T1 ; cool down left extruder,M127 ; stop blower fan,G162 X Y F3000 ; home XY maximum,M18 ; disable stepper,M72 P1 ; play Ta-Da song,; **** end of end.gcode ****
;   exportFileFormat,gcode
;   celebration,0
;   celebrationSong,Random Song
;   postProcessing,curl -k -H "X-Api-Key: 27C03DAE77BD475FAFE33C1E0B3A564D" -F "select=false" -F "print=false" -F "file=@[output_filepath]" "http://rpi42/api/files/local" {STRIP "; postProcessing"}
;   defaultSpeed,2400
;   outlineUnderspeed,0.5
;   solidInfillUnderspeed,0.8
;   supportUnderspeed,0.8
;   rapidXYspeed,4200
;   rapidZspeed,1200
;   minBridgingArea,5
;   bridgingExtraInflation,0
;   bridgingExtrusionMultiplier,0.95
;   bridgingSpeedMultiplier,0.65
;   useFixedBridgingAngle,0
;   fixedBridgingAngle,0
;   applyBridgingToPerimeters,1
;   filamentDiameters,1.75|1.75|1.75|1.75|1.75|1.75
;   filamentPricesPerKg,46|46|46|46|46|46
;   filamentDensities,1.25|1.25|1.25|1.25|1.25|1.25
;   useMinPrintHeight,0
;   minPrintHeight,0
;   useMaxPrintHeight,0
;   maxPrintHeight,0
;   useDiaphragm,0
;   diaphragmLayerInterval,20
;   robustSlicing,1
;   mergeAllIntoSolid,0
;   onlyRetractWhenCrossingOutline,1
;   retractBetweenLayers,1
;   useRetractionMinTravel,0
;   retractionMinTravel,3
;   retractWhileWiping,0
;   onlyWipeOutlines,1
;   avoidCrossingOutline,0
;   maxMovementDetourFactor,3
;   toolChangeRetractionDistance,12
;   toolChangeExtraRestartDistance,-0.5
;   toolChangeRetractionSpeed,600
;   externalThinWallType,0
;   internalThinWallType,2
;   thinWallAllowedOverlapPercentage,10
;   singleExtrusionMinLength,1
;   singleExtrusionMinPrintingWidthPercentage,50
;   singleExtrusionMaxPrintingWidthPercentage,200
;   singleExtrusionEndpointExtension,0.2
;   horizontalSizeCompensation,0
G90
M83
; **** Replicator 1 dual start.gcode ****
M73 P0 ; enable build progress
G162 X Y F3000 ; home XY maximum
G161 Z F1200 ; home Z minimum
G92 Z-5 ; set Z to -5
G1 Z0 ; move Z to 0
G161 Z F100 ; home Z slowly
M132 X Y Z A B ; recall home offsets
M135 T0 ; load right extruder offsets
G1 X-110 Y-70 Z30 F9000 ; move to wait position left hand side of the table
G130 X20 Y20 Z20 A20 B20 ; lower stepper Vrefs while heating
M127
M140 S110 T0
M134 T0 ; stabilize bed temperature
M104 S235 T1
M133 T1 ; stabilize left extruder temperature
G130 X127 Y127 Z40 A127 B127 ; default stepper Vrefs
G92 A0 B0 ; zero extruders
G1 Z0.4 ; position nozzle
M135 T1 ; left tool
G1 X-140 Y-70 F9000 ; reposition nozzle
G1 X-100 Y-70 E25 F300 ; purge nozzle
G1 X-110 Y-70 Z0.15 F1200 ; slow wipe
G1 X-100 Y-70 Z0.5 F1200 ; lift
G92 A0 B0 ; zero extruders
M73 P1 ;@body (notify GPX body has started)
; **** end of start.gcode ****
; process High Quality ABS
; layer 1, Z = 0.200
M135 T1
G1 E-2.0000 F1500
; feature skirt
; tool H0.200 W0.440
G1 Z0.200 F1200
G1 X26.020 Y3.520 F4200
G1 E2.0000 F1500
G1 X26.020 Y-21.977 E0.8862 F960
G1 X29.523 Y-25.480 E0.1722
G1 X37.477 Y-25.480 E0.2765
G1 X40.980 Y-21.977 E0.1722
G1 X40.980 Y14.977 E1.2844
G1 X37.477 Y18.480 E0.1722
G1 X-26.020 Y18.480 E2.2070
G1 X-26.020 Y21.977 E0.1215
G1 X-29.523 Y25.480 E0.1722
G1 X-37.477 Y25.480 E0.2765
G1 X-40.980 Y21.977 E0.1722
G1 X-40.980 Y7.023 E0.5198
G1 X-37.477 Y3.520 E0.1722
G1 X26.020 Y3.520 E2.2070
G1 E-2.0000 F1500
G1 X26.460 Y3.960 F4200
G1 E2.0000 F1500
G1 X26.460 Y-21.795 E0.8952 F960
G1 X29.705 Y-25.040 E0.1595
G1 X37.295 Y-25.040 E0.2638
G1 X40.540 Y-21.795 E0.1595
G1 X40.540 Y14.795 E1.2717
G1 X37.295 Y18.040 E0.1595
G1 X-26.460 Y18.040 E2.2159
G1 X-26.460 Y21.795 E0.1305
G1 X-29.705 Y25.040 E0.1595
G1 X-37.295 Y25.040 E0.2638
G1 X-40.540 Y21.795 E0.1595
G1 X-40.540 Y7.205 E0.5071
G1 X-37.295 Y3.960 E0.1595
G1 X26.460 Y3.960 E2.2159
G1 E-2.0000 F1500
G1 X26.900 Y4.400 F4200
G1 E2.0000 F1500
G1 X26.900 Y-21.612 E0.9041 F960
G1 X29.888 Y-24.600 E0.1468
G1 X37.112 Y-24.600 E0.2511
G1 X40.100 Y-21.612 E0.1468
G1 X40.100 Y14.612 E1.2591
G1 X37.112 Y17.600 E0.1468
G1 X-26.900 Y17.600 E2.2249
G1 X-26.900 Y21.612 E0.1395
G1 X-29.888 Y24.600 E0.1468
G1 X-37.112 Y24.600 E0.2511
G1 X-40.100 Y21.612 E0.1468
G1 X-40.100 Y7.388 E0.4944
G1 X-37.112 Y4.400 E0.1468
G1 X26.900 Y4.400 E2.2249
G1 E-2.0000 F1500
G1 X27.340 Y4.840 F4200
G1 E2.0000 F1500
G1 X27.340 Y-21.430 E0.9131 F960
G1 X30.070 Y-24.160 E0.1342
G1 X36.930 Y-24.160 E0.2384
G1 X39.660 Y-21.430 E0.1342
G1 X39.660 Y14.430 E1.2464
G1 X36.930 Y17.160 E0.1342
G1 X-27.340 Y17.160 E2.2338
G1 X-27.340 Y21.430 E0.1484
G1 X-30.070 Y24.160 E0.1342
G1 X-36.930 Y24.160 E0.2384
G1 X-39.660 Y21.430 E0.1342
G1 X-39.660 Y7.570 E0.4817
G1 X-36.930 Y4.840 E0.1342
G1 X27.340 Y4.840 E2.2338
G1 E-2.0000 F1500
G1 X27.780 Y5.280 F4200
G1 E2.0000 F1500
G1 X27.780 Y-21.248 E0.9220 F960
G1 X30.252 Y-23.720 E0.1215
G1 X36.748 Y-23.720 E0.2258
G1 X39.220 Y-21.248 E0.1215
G1 X39.220 Y14.248 E1.2337
G1 X36.748 Y16.720 E0.1215
G1 X-27.780 Y16.720 E2.2428
G1 X-27.780 Y21.248 E0.1574
G1 X-30.252 Y23.720 E0.1215
G1 X-36.748 Y23.720 E0.2258
G1 X-39.220 Y21.248 E0.1215
G1 X-39.220 Y7.752 E0.4691
G1 X-36.748 Y5.280 E0.1215
G1 X27.780 Y5.280 E2.2428
G1 E-2.0000 F1500
; feature inner perimeter
G1 X33.100 Y10.600 F4200
G1 E2.0000 F1500
G1 X33.100 Y-18.400 E1.0079 F720
G1 X33.900 Y-18.400 E0.0278
G1 X33.900 Y11.400 E1.0358
G1 X-33.100 Y11.400 E2.3287
G1 X-33.100 Y18.400 E0.2433
G1 X-33.900 Y18.400 E0.0278
G1 X-33.900 Y10.600 E0.2711
G1 X33.100 Y10.600 E2.3287
G1 X32.660 Y10.160 F4200
G1 X32.660 Y-18.840 E1.0079 F720
G1 X34.340 Y-18.840 E0.0584
G1 X34.340 Y11.840 E1.0663
G1 X-32.660 Y11.840 E2.3287
G1 X-32.660 Y18.840 E0.2433
G1 X-34.340 Y18.840 E0.0584
G1 X-34.340 Y10.160 E0.3017
G1 X32.660 Y10.160 E2.3287
; feature outer perimeter
G1 X32.220 Y9.720 F4200
G1 X32.220 Y-19.280 E1.0079 F480
G1 X34.780 Y-19.280 E0.0890
G1 X34.780 Y12.280 E1.0969
G1 X-32.220 Y12.280 E2.3287
G1 X-32.220 Y19.280 E0.2433
G1 X-34.780 Y19.280 E0.0890
G1 X-34.780 Y9.720 E0.3323
G1 X32.220 Y9.720 E2.3287
; feature gap fill
; tool H0.200 W0.400
G1 X33.454 Y-18.023 F4200
G1 X33.546 Y-17.931 E0.0041 F960
G1 X33.546 Y-17.366 E0.0179
G1 X33.454 Y-17.458 E0.0041
G1 X33.454 Y-16.892 E0.0179
G1 X33.546 Y-16.800 E0.0041
G1 X33.546 Y-16.234 E0.0179
G1 X33.454 Y-16.326 E0.0041
G1 X33.454 Y-15.761 E0.0179
G1 X33.546 Y-15.669 E0.0041
G1 X33.546 Y-15.103 E0.0179
G1 X33.454 Y-15.195 E0.0041
G1 X33.454 Y-14.629 E0.0179
G1 X33.546 Y-14.537 E0.0041
G1 X33.546 Y-13.972 E0.0179
G1 X33.454 Y-14.064 E0.0041
G1 X33.454 Y-13.498 E0.0179
G1 X33.546 Y-13.406 E0.0041
G1 X33.546 Y-12.840 E0.0179
G1 X33.454 Y-12.932 E0.0041
G1 X33.454 Y-12.367 E0.0179
G1 X33.546 Y-12.275 E0.0041
G1 X33.546 Y-11.709 E0.0179
G1 X33.454 Y-11.801 E0.0041
G1 X33.454 Y-11.235 E0.0179
G1 X33.546 Y-11.143 E0.0041
G1 X33.546 Y-10.577 E0.0179
G1 X33.454 Y-10.669 E0.0041
G1 X33.454 Y-10.104 E0.0179
G1 X33.546 Y-10.012 E0.0041
G1 X33.546 Y-9.446 E0.0179
G1 X33.454 Y-9.538 E0.0041
G1 X33.454 Y-8.972 E0.0179
G1 X33.546 Y-8.880 E0.0041
G1 X33.546 Y-8.315 E0.0179
G1 X33.454 Y-8.407 E0.0041
G1 X33.454 Y-7.841 E0.0179
G1 X33.546 Y-7.749 E0.0041
G1 X33.546 Y-7.183 E0.0179
G1 X33.454 Y-7.275 E0.0041
G1 X33.454 Y-6.710 E0.0179
G1 X33.546 Y-6.618 E0.0041
G1 X33.546 Y-6.052 E0.0179
G1 X33.454 Y-6.144 E0.0041
G1 X33.454 Y-5.578 E0.0179
G1 X33.546 Y-5.486 E0.0041
G1 X33.546 Y-4.921 E0.0179
G1 X33.454 Y-5.013 E0.0041
G1 X33.454 Y-4.447 E0.0179
G1 X33.546 Y-4.355 E0.0041
G1 X33.546 Y-3.789 E0.0179
G1 X33.454 Y-3.881 E0.0041
G1 X33.454 Y-3.316 E0.0179
G1 X33.546 Y-3.224 E0.0041
G1 X33.546 Y-2.658 E0.0179
G1 X33.454 Y-2.750 E0.0041
G1 X33.454 Y-2.184 E0.0179
G1 X33.546 Y-2.092 E0.0041
G1 X33.546 Y-1.527 E0.0179
G1 X33.454 Y-1.619 E0.0041
G1 X33.454 Y-1.053 E0.0179
G1 X33.546 Y-0.961 E0.0041
G1 X33.546 Y-0.395 E0.0179
G1 X33.454 Y-0.487 E0.0041
G1 X33.454 Y0.079 E0.0179
G1 X33.546 Y0.171 E0.0041
G1 X33.546 Y0.736 E0.0179
G1 X33.454 Y0.644 E0.0041
G1 X33.454 Y1.210 E0.0179
G1 X33.546 Y1.302 E0.0041
G1 X33.546 Y1.868 E0.0179
G1 X33.454 Y1.776 E0.0041
G1 X33.454 Y2.341 E0.0179
G1 X33.546 Y2.433 E0.0041
G1 X33.546 Y2.999 E0.0179
G1 X33.454 Y2.907 E0.0041
G1 X33.454 Y3.473 E0.0179
G1 X33.546 Y3.565 E0.0041
G1 X33.546 Y4.130 E0.0179
G1 X33.454 Y4.038 E0.0041
G1 X33.454 Y4.604 E0.0179
G1 X33.546 Y4.696 E0.0041
G1 X33.546 Y5.262 E0.0179
G1 X33.454 Y5.170 E0.0041
G1 X33.454 Y5.735 E0.0179
G1 X33.546 Y5.827 E0.0041
G1 X33.546 Y6.393 E0.0179
G1 X33.454 Y6.301 E0.0041
G1 X33.454 Y6.867 E0.0179
G1 X33.546 Y6.959 E0.0041
G1 X33.546 Y7.524 E0.0179
G1 X33.454 Y7.432 E0.0041
G1 X33.454 Y7.998 E0.0179
G1 X33.546 Y8.090 E0.0041
G1 X33.546 Y8.656 E0.0179
G1 X33.454 Y8.564 E0.0041
G1 X33.454 Y9.130 E0.0179
G1 X33.546 Y9.222 E0.0041
G1 X33.546 Y9.787 E0.0179
G1 X33.454 Y9.695 E0.0041
G1 X33.454 Y10.261 E0.0179
G1 X33.546 Y10.353 E0.0041
G1 X33.546 Y10.919 E0.0179
G1 X33.454 Y10.827 E0.0041
G1 X33.454 Y10.954 E0.0040
G1 X33.016 Y10.954 E0.0138
G1 X33.108 Y11.046 E0.0041
G1 X32.542 Y11.046 E0.0179
G1 X32.450 Y10.954 E0.0041
G1 X31.884 Y10.954 E0.0179
G1 X31.976 Y11.046 E0.0041
G1 X31.411 Y11.046 E0.0179
G1 X31.319 Y10.954 E0.0041
G1 X30.753 Y10.954 E0.0179
G1 X30.845 Y11.046 E0.0041
G1 X30.279 Y11.046 E0.0179
G1 X30.187 Y10.954 E0.0041
G1 X29.622 Y10.954 E0.0179
G1 X29.714 Y11.046 E0.0041
G1 X29.148 Y11.046 E0.0179
G1 X29.056 Y10.954 E0.0041
G1 X28.490 Y10.954 E0.0179
G1 X28.582 Y11.046 E0.0041
G1 X28.017 Y11.046 E0.0179
G1 X27.925 Y10.954 E0.0041
G1 X27.359 Y10.954 E0.0179
G1 X27.451 Y11.046 E0.0041
G1 X26.885 Y11.046 E0.0179
G1 X26.793 Y10.954 E0.0041
G1 X26.228 Y10.954 E0.0179
G1 X26.320 Y11.046 E0.0041
G1 X25.754 Y11.046 E0.0179
G1 X25.662 Y10.954 E0.0041
G1 X25.096 Y10.954 E0.0179
G1 X25.188 Y11.046 E0.0041
G1 X24.622 Y11.046 E0.0179
G1 X24.530 Y10.954 E0.0041
G1 X23.965 Y10.954 E0.0179
G1 X24.057 Y11.046 E0.0041
G1 X23.491 Y11.046 E0.0179
G1 X23.399 Y10.954 E0.0041
G1 X22.833 Y10.954 E0.0179
G1 X22.925 Y11.046 E0.0041
G1 X22.360 Y11.046 E0.0179
G1 X22.268 Y10.954 E0.0041
G1 X21.702 Y10.954 E0.0179
G1 X21.794 Y11.046 E0.0041
G1 X21.228 Y11.046 E0.0179
G1 X21.136 Y10.954 E0.0041
G1 X20.571 Y10.954 E0.0179
G1 X20.663 Y11.046 E0.0041
G1 X20.097 Y11.046 E0.0179
G1 X20.005 Y10.954 E0.0041
G1 X19.439 Y10.954 E0.0179
G1 X19.531 Y11.046 E0.0041
G1 X18.966 Y11.046 E0.0179
G1 X18.874 Y10.954 E0.0041
G1 X18.308 Y10.954 E0.0179
G1 X18.400 Y11.046 E0.0041
G1 X17.834 Y11.046 E0.0179
G1 X17.742 Y10.954 E0.0041
G1 X17.177 Y10.954 E0.0179
G1 X17.269 Y11.046 E0.0041
G1 X16.703 Y11.046 E0.0179
G1 X16.611 Y10.954 E0.0041
G1 X16.045 Y10.954 E0.0179
G1 X16.137 Y11.046 E0.0041
G1 X15.571 Y11.046 E0.0179
G1 X15.479 Y10.954 E0.0041
G1 X14.914 Y10.954 E0.0179
G1 X15.006 Y11.046 E0.0041
G1 X14.440 Y11.046 E0.0179
G1 X14.348 Y10.954 E0.0041
G1 X13.782 Y10.954 E0.0179
G1 X13.874 Y11.046 E0.0041
G1 X13.309 Y11.046 E0.0179
G1 X13.217 Y10.954 E0.0041
G1 X12.651 Y10.954 E0.0179
G1 X12.743 Y11.046 E0.0041
G1 X12.177 Y11.046 E0.0179
