; G-Code generated by Simplify3D(R) Version 4.1.2
; Feb 23, 2021 at 2:47:09 PM
; Settings Summary
;   processName,High Quality ABS
;   applyToModels,arm_and_frame
;   profileName,FlashForge Creator Pro - Octoprint (modified)
;   profileVersion,2021-02-07 11:52:42
;   baseProfile,FlashForge Creator Pro(2) (modified)
;   printMaterial,ABS
;   printQuality,High
;   printExtruders,Left Extruder Only
;   extruderName,Right Extruder,Left Extruder
;   extruderToolheadNumber,0,1
;   extruderDiameter,0.4,0.4
;   extruderAutoWidth,0,0
;   extruderWidth,0.4,0.4
;   extrusionMultiplier,1,0.95
;   extruderUseRetract,1,1
;   extruderRetractionDistance,1.2,1
;   extruderExtraRestartDistance,0,0
;   extruderRetractionZLift,0,0
;   extruderRetractionSpeed,1500,1200
;   extruderUseCoasting,0,0
;   extruderCoastingDistance,0.2,0.2
;   extruderUseWipe,0,0
;   extruderWipeDistance,5,5
;   primaryExtruder,1
;   layerHeight,0.1
;   topSolidLayers,5
;   bottomSolidLayers,3
;   perimeterOutlines,6
;   printPerimetersInsideOut,1
;   startPointOption,2
;   startPointOriginX,0
;   startPointOriginY,0
;   sequentialIslands,0
;   spiralVaseMode,0
;   firstLayerHeightPercentage,200
;   firstLayerWidthPercentage,225
;   firstLayerUnderspeed,0.5
;   useRaft,0
;   raftExtruder,1
;   raftTopLayers,3
;   raftBaseLayers,2
;   raftOffset,3
;   raftSeparationDistance,0.14
;   raftTopInfill,100
;   aboveRaftSpeedMultiplier,0.3
;   useSkirt,1
;   skirtExtruder,1
;   skirtLayers,1
;   skirtOutlines,4
;   skirtOffset,3
;   usePrimePillar,0
;   primePillarExtruder,999
;   primePillarWidth,12
;   primePillarLocation,7
;   primePillarSpeedMultiplier,1
;   useOozeShield,0
;   oozeShieldExtruder,999
;   oozeShieldOffset,3
;   oozeShieldOutlines,2
;   oozeShieldSidewallShape,0
;   oozeShieldSidewallAngle,30
;   oozeShieldSpeedMultiplier,1
;   infillExtruder,1
;   internalInfillPattern,Triangular
;   externalInfillPattern,Rectilinear
;   infillPercentage,40
;   outlineOverlapPercentage,15
;   infillExtrusionWidthPercentage,100
;   minInfillLength,5
;   infillLayerInterval,1
;   internalInfillAngles,0,60,-60
;   overlapInternalInfillAngles,1
;   externalInfillAngles,45,-45
;   generateSupport,0
;   supportExtruder,1
;   supportInfillPercentage,90
;   supportExtraInflation,0
;   supportBaseLayers,0
;   denseSupportExtruder,1
;   denseSupportLayers,0
;   denseSupportInfillPercentage,70
;   supportLayerInterval,1
;   supportHorizontalPartOffset,0.3
;   supportUpperSeparationLayers,1
;   supportLowerSeparationLayers,1
;   supportType,0
;   supportGridSpacing,4
;   maxOverhangAngle,45
;   supportAngles,0
;   temperatureName,Right Extruder,Left Extruder,Heated Build Platform
;   temperatureNumber,0,1,0
;   temperatureSetpointCount,1,1,1
;   temperatureSetpointLayers,1,1,1
;   temperatureSetpointTemperatures,0,240,110
;   temperatureStabilizeAtStartup,0,0,0
;   temperatureHeatedBed,0,0,1
;   fanLayers,1
;   fanSpeeds,0
;   blipFanToFullPower,0
;   adjustSpeedForCooling,1
;   minSpeedLayerTime,15
;   minCoolingSpeedSlowdown,20
;   increaseFanForCooling,0
;   minFanLayerTime,45
;   maxCoolingFanSpeed,100
;   increaseFanForBridging,1
;   bridgingFanSpeed,100
;   use5D,1
;   relativeEdistances,1
;   allowEaxisZeroing,0
;   independentExtruderAxes,1
;   includeM10123,0
;   stickySupport,1
;   applyToolheadOffsets,0
;   gcodeXoffset,0
;   gcodeYoffset,0
;   gcodeZoffset,0
;   overrideMachineDefinition,1
;   machineTypeOverride,0
;   strokeXoverride,225
;   strokeYoverride,145
;   strokeZoverride,150
;   originOffsetXoverride,112.5
;   originOffsetYoverride,72.5
;   originOffsetZoverride,0
;   homeXdirOverride,1
;   homeYdirOverride,1
;   homeZdirOverride,-1
;   flipXoverride,1
;   flipYoverride,-1
;   flipZoverride,1
;   toolheadOffsets,0,0|34,0|0,0|0,0|0,0|0,0
;   overrideFirmwareConfiguration,1
;   firmwareTypeOverride,MakerBot/Sailfish Firmware
;   GPXconfigOverride,r1d
;   baudRateOverride,115200
;   overridePrinterModels,1
;   printerModelsOverride,FlashForge_CreatorPro.stl
;   startingGcode,; **** Replicator 1 dual start.gcode ****,M73 P0 ; enable build progress,G162 X Y F3000 ; home XY maximum,G161 Z F1200 ; home Z minimum,G92 Z-5 ; set Z to -5,G1 Z0 ; move Z to 0,G161 Z F100 ; home Z slowly,M132 X Y Z A B ; recall home offsets,M135 T0 ; load right extruder offsets,G1 X-110 Y-70 Z30 F9000 ; move to wait position left hand side of the table,G130 X20 Y20 Z20 A20 B20 ; lower stepper Vrefs while heating,M126 S[fan_speed_pwm],M140 S[bed0_temperature] T0,M134 T0 ; stabilize bed temperature,M104 S[extruder1_temperature] T1,M133 T1 ; stabilize left extruder temperature,G130 X127 Y127 Z40 A127 B127 ; default stepper Vrefs,G92 A0 B0 ; zero extruders,G1 Z0.4 ; position nozzle,M135 T1 ; left tool,G1 X-140 Y-70 F9000 ; reposition nozzle,G1 X-100 Y-70 E25 F300 ; purge nozzle,G1 X-110 Y-70 Z0.15 F1200 ; slow wipe,G1 X-100 Y-70 Z0.5 F1200 ; lift,G92 A0 B0 ; zero extruders,M73 P1 ;@body (notify GPX body has started),; **** end of start.gcode ****
;   layerChangeGcode,
;   retractionGcode,
;   toolChangeGcode,
;   endingGcode,; **** Replicator 1 dual end.gcode ****,M73 P100 ; end build progress,G1 Z150 F1000 ; send Z axis to bottom of machine,M140 S0 T0 ; cool down HBP,M104 S0 T0 ; cool down right extruder,M104 S0 T1 ; cool down left extruder,M127 ; stop blower fan,G162 X Y F3000 ; home XY maximum,M18 ; disable stepper,M72 P1 ; play Ta-Da song,; **** end of end.gcode ****
;   exportFileFormat,gcode
;   celebration,0
;   celebrationSong,Random Song
;   postProcessing,curl -k -H "X-Api-Key: 27C03DAE77BD475FAFE33C1E0B3A564D" -F "select=false" -F "print=false" -F "file=@[output_filepath]" "http://rpi42/api/files/local" {STRIP "; postProcessing"}
;   defaultSpeed,2400
;   outlineUnderspeed,0.5
;   solidInfillUnderspeed,0.8
;   supportUnderspeed,0.8
;   rapidXYspeed,4200
;   rapidZspeed,1200
;   minBridgingArea,5
;   bridgingExtraInflation,0
;   bridgingExtrusionMultiplier,0.95
;   bridgingSpeedMultiplier,1
;   useFixedBridgingAngle,0
;   fixedBridgingAngle,0
;   applyBridgingToPerimeters,1
;   filamentDiameters,1.75|1.75|1.75|1.75|1.75|1.75
;   filamentPricesPerKg,46|46|46|46|46|46
;   filamentDensities,1.25|1.25|1.25|1.25|1.25|1.25
;   useMinPrintHeight,0
;   minPrintHeight,0
;   useMaxPrintHeight,0
;   maxPrintHeight,0
;   useDiaphragm,0
;   diaphragmLayerInterval,20
;   robustSlicing,1
;   mergeAllIntoSolid,0
;   onlyRetractWhenCrossingOutline,1
;   retractBetweenLayers,1
;   useRetractionMinTravel,0
;   retractionMinTravel,3
;   retractWhileWiping,0
;   onlyWipeOutlines,1
;   avoidCrossingOutline,0
;   maxMovementDetourFactor,3
;   toolChangeRetractionDistance,12
;   toolChangeExtraRestartDistance,-0.5
;   toolChangeRetractionSpeed,600
;   externalThinWallType,0
;   internalThinWallType,2
;   thinWallAllowedOverlapPercentage,10
;   singleExtrusionMinLength,1
;   singleExtrusionMinPrintingWidthPercentage,50
;   singleExtrusionMaxPrintingWidthPercentage,200
;   singleExtrusionEndpointExtension,0.2
;   horizontalSizeCompensation,0
G90
M83
; **** Replicator 1 dual start.gcode ****
M73 P0 ; enable build progress
G162 X Y F3000 ; home XY maximum
G161 Z F1200 ; home Z minimum
G92 Z-5 ; set Z to -5
G1 Z0 ; move Z to 0
G161 Z F100 ; home Z slowly
M132 X Y Z A B ; recall home offsets
M135 T0 ; load right extruder offsets
G1 X-110 Y-70 Z30 F9000 ; move to wait position left hand side of the table
G130 X20 Y20 Z20 A20 B20 ; lower stepper Vrefs while heating
M127
M140 S110 T0
M134 T0 ; stabilize bed temperature
M104 S240 T1
M133 T1 ; stabilize left extruder temperature
G130 X127 Y127 Z40 A127 B127 ; default stepper Vrefs
G92 A0 B0 ; zero extruders
G1 Z0.4 ; position nozzle
M135 T1 ; left tool
G1 X-140 Y-70 F9000 ; reposition nozzle
G1 X-100 Y-70 E25 F300 ; purge nozzle
G1 X-110 Y-70 Z0.15 F1200 ; slow wipe
G1 X-100 Y-70 Z0.5 F1200 ; lift
G92 A0 B0 ; zero extruders
M73 P1 ;@body (notify GPX body has started)
; **** end of start.gcode ****
; process High Quality ABS
; layer 1, Z = 0.200
M135 T1
G1 E-1.0000 F1200
; feature skirt
; tool H0.200 W0.900
G1 Z0.200 F1200
G1 X-48.390 Y-9.650 F4200
G1 E1.0000 F1200
G1 X93.498 Y-9.650 E10.0873 F1200
G1 X97.100 Y-6.047 E0.3622
G1 X97.100 Y17.047 E1.6419
G1 X93.498 Y20.650 E0.3622
G1 X-50.804 Y20.650 E10.2589
G1 X-51.046 Y20.915 E0.0255
G1 X-51.336 Y21.194 E0.0286
G1 X-51.949 Y21.710 E0.0570
G1 X-52.269 Y21.947 E0.0283
G1 X-52.942 Y22.379 E0.0569
G1 X-53.287 Y22.571 E0.0281
G1 X-54.009 Y22.913 E0.0568
G1 X-54.372 Y23.058 E0.0278
G1 X-55.130 Y23.305 E0.0567
G1 X-55.507 Y23.402 E0.0277
G1 X-56.289 Y23.551 E0.0566
G1 X-56.673 Y23.600 E0.0276
G1 X-57.370 Y23.644 E0.0497
G1 X-57.564 Y23.650 E0.0138
G1 X-87.926 Y23.650 E2.1586
G1 X-88.119 Y23.644 E0.0138
G1 X-88.817 Y23.600 E0.0497
G1 X-89.201 Y23.551 E0.0276
G1 X-89.983 Y23.402 E0.0566
G1 X-90.360 Y23.305 E0.0277
G1 X-91.118 Y23.058 E0.0567
G1 X-91.481 Y22.913 E0.0278
G1 X-92.203 Y22.571 E0.0568
G1 X-92.548 Y22.379 E0.0281
G1 X-93.220 Y21.947 E0.0569
G1 X-93.541 Y21.711 E0.0283
G1 X-94.154 Y21.194 E0.0570
G1 X-94.444 Y20.915 E0.0286
G1 X-94.986 Y20.321 E0.0571
G1 X-95.239 Y20.003 E0.0289
G1 X-95.699 Y19.342 E0.0573
G1 X-95.910 Y18.990 E0.0292
G1 X-96.279 Y18.271 E0.0574
G1 X-96.443 Y17.891 E0.0294
G1 X-96.712 Y17.128 E0.0575
G1 X-96.824 Y16.727 E0.0296
G1 X-96.988 Y15.933 E0.0576
G1 X-97.045 Y15.519 E0.0297
G1 X-97.093 Y14.814 E0.0502
G1 X-97.100 Y14.605 E0.0149
G1 X-97.100 Y-16.201 E2.1901
G1 X-97.074 Y-16.603 E0.0286
G1 X-96.944 Y-17.591 E0.0708
G1 X-96.735 Y-18.369 E0.0573
G1 X-96.277 Y-19.476 E0.0852
G1 X-95.874 Y-20.174 E0.0573
G1 X-95.145 Y-21.124 E0.0852
G1 X-94.575 Y-21.694 E0.0573
G1 X-93.624 Y-22.424 E0.0852
G1 X-92.926 Y-22.827 E0.0573
G1 X-91.820 Y-23.285 E0.0852
G1 X-91.041 Y-23.494 E0.0573
G1 X-90.053 Y-23.624 E0.0708
G1 X-89.651 Y-23.650 E0.0286
G1 X-55.838 Y-23.650 E2.4039
G1 X-55.437 Y-23.624 E0.0286
G1 X-54.449 Y-23.494 E0.0708
G1 X-53.670 Y-23.285 E0.0573
G1 X-52.564 Y-22.827 E0.0852
G1 X-51.866 Y-22.424 E0.0573
G1 X-50.915 Y-21.694 E0.0852
G1 X-50.345 Y-21.124 E0.0573
G1 X-49.616 Y-20.174 E0.0852
G1 X-49.213 Y-19.476 E0.0573
G1 X-48.755 Y-18.369 E0.0852
G1 X-48.546 Y-17.591 E0.0573
G1 X-48.416 Y-16.603 E0.0708
G1 X-48.390 Y-16.201 E0.0286
G1 X-48.390 Y-9.650 E0.4658
G1 E-1.0000 F1200
G1 X-49.290 Y-8.750 F4200
G1 E1.0000 F1200
G1 X93.125 Y-8.750 E10.1248 F1200
G1 X96.200 Y-5.675 E0.3092
G1 X96.200 Y16.675 E1.5889
G1 X93.125 Y19.750 E0.3092
G1 X-51.202 Y19.750 E10.2607
G1 X-51.691 Y20.287 E0.0516
G1 X-51.939 Y20.525 E0.0244
G1 X-52.507 Y21.004 E0.0528
G1 X-52.780 Y21.205 E0.0242
G1 X-53.405 Y21.606 E0.0527
G1 X-53.699 Y21.770 E0.0240
G1 X-54.368 Y22.087 E0.0527
G1 X-54.679 Y22.211 E0.0238
G1 X-55.382 Y22.440 E0.0526
G1 X-55.704 Y22.523 E0.0236
G1 X-56.430 Y22.662 E0.0525
G1 X-56.758 Y22.703 E0.0235
G1 X-57.413 Y22.745 E0.0466
G1 X-57.578 Y22.750 E0.0117
G1 X-87.912 Y22.750 E2.1566
G1 X-88.077 Y22.745 E0.0117
G1 X-88.732 Y22.704 E0.0467
G1 X-89.060 Y22.662 E0.0235
G1 X-89.786 Y22.523 E0.0526
G1 X-90.108 Y22.440 E0.0236
G1 X-90.811 Y22.211 E0.0526
G1 X-91.122 Y22.087 E0.0238
G1 X-91.791 Y21.770 E0.0527
G1 X-92.085 Y21.606 E0.0239
G1 X-92.710 Y21.206 E0.0527
G1 X-92.983 Y21.004 E0.0242
G1 X-93.551 Y20.525 E0.0528
G1 X-93.799 Y20.287 E0.0244
G1 X-94.301 Y19.736 E0.0529
G1 X-94.517 Y19.465 E0.0247
G1 X-94.943 Y18.853 E0.0530
G1 X-95.123 Y18.552 E0.0249
G1 X-95.465 Y17.887 E0.0531
G1 X-95.604 Y17.563 E0.0251
G1 X-95.854 Y16.857 E0.0532
G1 X-95.949 Y16.514 E0.0253
G1 X-96.101 Y15.781 E0.0533
G1 X-96.149 Y15.427 E0.0254
G1 X-96.194 Y14.768 E0.0469
G1 X-96.200 Y14.589 E0.0127
G1 X-96.200 Y-16.172 E2.1869
G1 X-96.178 Y-16.515 E0.0244
G1 X-96.059 Y-17.415 E0.0645
G1 X-95.881 Y-18.079 E0.0489
G1 X-95.468 Y-19.077 E0.0768
G1 X-95.124 Y-19.673 E0.0489
G1 X-94.467 Y-20.530 E0.0768
G1 X-93.980 Y-21.016 E0.0489
G1 X-93.123 Y-21.674 E0.0768
G1 X-92.527 Y-22.018 E0.0489
G1 X-91.530 Y-22.431 E0.0768
G1 X-90.865 Y-22.609 E0.0489
G1 X-89.965 Y-22.727 E0.0645
G1 X-89.622 Y-22.750 E0.0244
G1 X-55.868 Y-22.750 E2.3997
G1 X-55.525 Y-22.728 E0.0244
G1 X-54.625 Y-22.609 E0.0645
G1 X-53.960 Y-22.431 E0.0489
G1 X-52.963 Y-22.018 E0.0768
G1 X-52.367 Y-21.674 E0.0489
G1 X-51.510 Y-21.016 E0.0768
G1 X-51.023 Y-20.530 E0.0489
G1 X-50.366 Y-19.673 E0.0768
G1 X-50.022 Y-19.077 E0.0489
G1 X-49.609 Y-18.079 E0.0768
G1 X-49.431 Y-17.415 E0.0489
G1 X-49.312 Y-16.515 E0.0645
G1 X-49.290 Y-16.172 E0.0244
G1 X-49.290 Y-8.750 E0.5276
G1 E-1.0000 F1200
G1 X-50.190 Y-7.850 F4200
G1 E1.0000 F1200
G1 X92.752 Y-7.850 E10.1622 F1200
G1 X95.300 Y-5.302 E0.2562
G1 X95.300 Y16.302 E1.5359
G1 X92.752 Y18.850 E0.2562
G1 X-51.641 Y18.850 E10.2654
G1 X-51.695 Y18.927 E0.0067
G1 X-51.874 Y19.152 E0.0204
G1 X-52.336 Y19.658 E0.0487
G1 X-52.541 Y19.855 E0.0202
G1 X-53.065 Y20.297 E0.0487
G1 X-53.291 Y20.464 E0.0200
G1 X-53.867 Y20.833 E0.0486
G1 X-54.111 Y20.969 E0.0198
G1 X-54.728 Y21.262 E0.0486
G1 X-54.985 Y21.364 E0.0197
G1 X-55.634 Y21.576 E0.0485
G1 X-55.901 Y21.644 E0.0196
G1 X-56.571 Y21.773 E0.0485
G1 X-56.843 Y21.807 E0.0195
G1 X-57.455 Y21.846 E0.0436
G1 X-57.592 Y21.850 E0.0097
G1 X-87.898 Y21.850 E2.1545
G1 X-88.035 Y21.846 E0.0097
G1 X-88.647 Y21.807 E0.0436
G1 X-88.919 Y21.773 E0.0195
G1 X-89.589 Y21.645 E0.0485
G1 X-89.856 Y21.576 E0.0196
G1 X-90.505 Y21.364 E0.0485
G1 X-90.762 Y21.262 E0.0197
G1 X-91.379 Y20.969 E0.0486
G1 X-91.623 Y20.834 E0.0198
G1 X-92.199 Y20.464 E0.0486
G1 X-92.425 Y20.297 E0.0200
G1 X-92.949 Y19.856 E0.0487
G1 X-93.154 Y19.658 E0.0202
G1 X-93.616 Y19.152 E0.0487
G1 X-93.795 Y18.927 E0.0204
G1 X-94.187 Y18.364 E0.0488
G1 X-94.336 Y18.115 E0.0206
G1 X-94.650 Y17.503 E0.0489
G1 X-94.766 Y17.235 E0.0208
G1 X-94.995 Y16.586 E0.0489
G1 X-95.074 Y16.302 E0.0209
G1 X-95.213 Y15.628 E0.0489
G1 X-95.253 Y15.335 E0.0210
G1 X-95.295 Y14.722 E0.0437
G1 X-95.300 Y14.574 E0.0105
G1 X-95.300 Y-16.142 E2.1837
G1 X-95.282 Y-16.427 E0.0202
G1 X-95.175 Y-17.239 E0.0582
G1 X-95.027 Y-17.789 E0.0405
G1 X-94.659 Y-18.678 E0.0684
G1 X-94.374 Y-19.172 E0.0405
G1 X-93.789 Y-19.935 E0.0684
G1 X-93.385 Y-20.338 E0.0405
G1 X-92.622 Y-20.924 E0.0684
G1 X-92.128 Y-21.209 E0.0405
G1 X-91.240 Y-21.577 E0.0684
G1 X-90.689 Y-21.724 E0.0405
G1 X-89.877 Y-21.831 E0.0582
G1 X-89.593 Y-21.850 E0.0202
G1 X-55.897 Y-21.850 E2.3955
G1 X-55.613 Y-21.831 E0.0202
G1 X-54.801 Y-21.725 E0.0582
G1 X-54.250 Y-21.577 E0.0405
G1 X-53.362 Y-21.209 E0.0684
G1 X-52.868 Y-20.924 E0.0405
G1 X-52.105 Y-20.338 E0.0684
G1 X-51.701 Y-19.935 E0.0405
G1 X-51.116 Y-19.172 E0.0684
G1 X-50.831 Y-18.678 E0.0405
G1 X-50.463 Y-17.790 E0.0684
G1 X-50.315 Y-17.239 E0.0405
G1 X-50.208 Y-16.427 E0.0582
G1 X-50.190 Y-16.142 E0.0202
G1 X-50.190 Y-7.850 E0.5895
G1 E-1.0000 F1200
G1 X-51.090 Y-6.950 F4200
G1 E1.0000 F1200
G1 X92.379 Y-6.950 E10.1997 F1200
G1 X94.400 Y-4.929 E0.2032
G1 X94.400 Y15.929 E1.4829
G1 X92.379 Y17.950 E0.2032
G1 X-52.112 Y17.950 E10.2724
G1 X-52.417 Y18.389 E0.0380
G1 X-52.559 Y18.567 E0.0162
G1 X-52.981 Y19.030 E0.0445
G1 X-53.144 Y19.186 E0.0160
G1 X-53.622 Y19.590 E0.0445
G1 X-53.802 Y19.722 E0.0159
G1 X-54.329 Y20.061 E0.0445
G1 X-54.522 Y20.168 E0.0157
G1 X-55.088 Y20.436 E0.0445
G1 X-55.292 Y20.517 E0.0156
G1 X-55.886 Y20.711 E0.0445
G1 X-56.098 Y20.766 E0.0155
G1 X-56.712 Y20.883 E0.0445
G1 X-56.928 Y20.911 E0.0155
G1 X-57.498 Y20.947 E0.0406
G1 X-57.606 Y20.950 E0.0077
G1 X-87.884 Y20.950 E2.1525
G1 X-87.992 Y20.947 E0.0077
G1 X-88.562 Y20.911 E0.0406
G1 X-88.778 Y20.883 E0.0155
G1 X-89.392 Y20.766 E0.0445
G1 X-89.604 Y20.711 E0.0155
G1 X-90.198 Y20.517 E0.0445
G1 X-90.402 Y20.436 E0.0156
G1 X-90.968 Y20.168 E0.0445
G1 X-91.161 Y20.061 E0.0157
G1 X-91.688 Y19.723 E0.0445
G1 X-91.867 Y19.590 E0.0159
G1 X-92.346 Y19.186 E0.0445
G1 X-92.509 Y19.030 E0.0161
G1 X-92.931 Y18.567 E0.0445
G1 X-93.073 Y18.389 E0.0162
G1 X-93.431 Y17.875 E0.0445
G1 X-93.549 Y17.677 E0.0164
G1 X-93.835 Y17.120 E0.0446
G1 X-93.927 Y16.906 E0.0165
G1 X-94.136 Y16.315 E0.0446
G1 X-94.199 Y16.090 E0.0166
G1 X-94.326 Y15.476 E0.0446
G1 X-94.358 Y15.243 E0.0167
G1 X-94.396 Y14.676 E0.0404
G1 X-94.400 Y14.559 E0.0084
G1 X-94.400 Y-16.113 E2.1806
G1 X-94.385 Y-16.338 E0.0161
