; G-Code generated by Simplify3D(R) Version 4.1.2
; Feb 19, 2021 at 10:31:43 PM
; Settings Summary
;   processName,High Quality ABS
;   applyToModels,arm_and_frame
;   profileName,FlashForge Creator Pro - Octoprint (modified)
;   profileVersion,2021-02-07 11:52:42
;   baseProfile,FlashForge Creator Pro(2) (modified)
;   printMaterial,ABS
;   printQuality,High
;   printExtruders,Right Extruder Only
;   extruderName,Right Extruder,Left Extruder
;   extruderToolheadNumber,0,1
;   extruderDiameter,0.4,0.4
;   extruderAutoWidth,0,0
;   extruderWidth,0.4,0.4
;   extrusionMultiplier,0.95,1
;   extruderUseRetract,1,1
;   extruderRetractionDistance,1.2,1
;   extruderExtraRestartDistance,0,0
;   extruderRetractionZLift,0,0
;   extruderRetractionSpeed,1500,1200
;   extruderUseCoasting,0,0
;   extruderCoastingDistance,0.2,0.2
;   extruderUseWipe,0,0
;   extruderWipeDistance,5,5
;   primaryExtruder,0
;   layerHeight,0.1
;   topSolidLayers,6
;   bottomSolidLayers,6
;   perimeterOutlines,6
;   printPerimetersInsideOut,1
;   startPointOption,2
;   startPointOriginX,0
;   startPointOriginY,0
;   sequentialIslands,0
;   spiralVaseMode,0
;   firstLayerHeightPercentage,170
;   firstLayerWidthPercentage,130
;   firstLayerUnderspeed,0.5
;   useRaft,0
;   raftExtruder,0
;   raftTopLayers,3
;   raftBaseLayers,2
;   raftOffset,3
;   raftSeparationDistance,0.14
;   raftTopInfill,100
;   aboveRaftSpeedMultiplier,0.3
;   useSkirt,1
;   skirtExtruder,0
;   skirtLayers,1
;   skirtOutlines,4
;   skirtOffset,3
;   usePrimePillar,0
;   primePillarExtruder,999
;   primePillarWidth,12
;   primePillarLocation,7
;   primePillarSpeedMultiplier,1
;   useOozeShield,0
;   oozeShieldExtruder,999
;   oozeShieldOffset,3
;   oozeShieldOutlines,2
;   oozeShieldSidewallShape,0
;   oozeShieldSidewallAngle,30
;   oozeShieldSpeedMultiplier,1
;   infillExtruder,0
;   internalInfillPattern,Full Honeycomb
;   externalInfillPattern,Rectilinear
;   infillPercentage,20
;   outlineOverlapPercentage,30
;   infillExtrusionWidthPercentage,100
;   minInfillLength,5
;   infillLayerInterval,1
;   internalInfillAngles,0,120,-120
;   overlapInternalInfillAngles,0
;   externalInfillAngles,45,-45
;   generateSupport,0
;   supportExtruder,1
;   supportInfillPercentage,90
;   supportExtraInflation,0
;   supportBaseLayers,0
;   denseSupportExtruder,0
;   denseSupportLayers,0
;   denseSupportInfillPercentage,70
;   supportLayerInterval,1
;   supportHorizontalPartOffset,0.3
;   supportUpperSeparationLayers,1
;   supportLowerSeparationLayers,1
;   supportType,0
;   supportGridSpacing,4
;   maxOverhangAngle,45
;   supportAngles,0
;   temperatureName,Right Extruder,Left Extruder,Heated Build Platform
;   temperatureNumber,0,1,0
;   temperatureSetpointCount,1,1,2
;   temperatureSetpointLayers,1,1,1,2
;   temperatureSetpointTemperatures,230,0,100,95
;   temperatureStabilizeAtStartup,1,0,0
;   temperatureHeatedBed,0,0,1
;   fanLayers,1
;   fanSpeeds,0
;   blipFanToFullPower,0
;   adjustSpeedForCooling,1
;   minSpeedLayerTime,15
;   minCoolingSpeedSlowdown,20
;   increaseFanForCooling,0
;   minFanLayerTime,45
;   maxCoolingFanSpeed,100
;   increaseFanForBridging,1
;   bridgingFanSpeed,100
;   use5D,1
;   relativeEdistances,1
;   allowEaxisZeroing,0
;   independentExtruderAxes,1
;   includeM10123,0
;   stickySupport,1
;   applyToolheadOffsets,0
;   gcodeXoffset,0
;   gcodeYoffset,0
;   gcodeZoffset,0
;   overrideMachineDefinition,1
;   machineTypeOverride,0
;   strokeXoverride,225
;   strokeYoverride,145
;   strokeZoverride,150
;   originOffsetXoverride,112.5
;   originOffsetYoverride,72.5
;   originOffsetZoverride,0
;   homeXdirOverride,1
;   homeYdirOverride,1
;   homeZdirOverride,-1
;   flipXoverride,1
;   flipYoverride,-1
;   flipZoverride,1
;   toolheadOffsets,0,0|34,0|0,0|0,0|0,0|0,0
;   overrideFirmwareConfiguration,1
;   firmwareTypeOverride,MakerBot/Sailfish Firmware
;   GPXconfigOverride,r1d
;   baudRateOverride,115200
;   overridePrinterModels,1
;   printerModelsOverride,FlashForge_CreatorPro.stl
;   startingGcode,; **** Replicator 1 dual start.gcode ****,M73 P0 ; enable build progress,G162 X Y F3000 ; home XY maximum,G161 Z F1200 ; home Z minimum,G92 Z-5 ; set Z to -5,G1 Z0 ; move Z to 0,G161 Z F100 ; home Z slowly,M132 X Y Z A B ; recall home offsets,M135 T0 ; load right extruder offsets,G1 X150 Y-70 Z30 F9000 ; move to wait position right hand side of the table,G130 X20 Y20 Z20 A20 B20 ; lower stepper Vrefs while heating,M126 S[fan_speed_pwm],M140 S[bed0_temperature] T0,M134 T0 ; stabilize bed temperature,M104 S[extruder0_temperature] T0,M133 T0 ; stabilize right extruder temperature,G130 X127 Y127 Z40 A127 B127 ; default stepper Vrefs,G92 A0 B0 ; zero extruders,G1 Z0.4 ; position nozzle,G1 X110 Y-70 E25 F300 ; purge nozzle,G1 X120 Y-70 Z0.15 F1200 ; slow wipe,G1 X110 Y-70 Z0.5 F1200 ; lift,G92 A0 B0 ; zero extruders,M73 P1 ;@body (notify GPX body has started),; **** end of start.gcode ****
;   layerChangeGcode,
;   retractionGcode,
;   toolChangeGcode,
;   endingGcode,; **** Replicator 1 dual end.gcode ****,M73 P100 ; end build progress,G1 Z150 F1000 ; send Z axis to bottom of machine,M140 S0 T0 ; cool down HBP,M104 S0 T0 ; cool down right extruder,M104 S0 T1 ; cool down left extruder,M127 ; stop blower fan,G162 X Y F3000 ; home XY maximum,M18 ; disable stepper,M72 P1 ; play Ta-Da song,; **** end of end.gcode ****
;   exportFileFormat,gcode
;   celebration,0
;   celebrationSong,Random Song
;   postProcessing,curl -k -H "X-Api-Key: 27C03DAE77BD475FAFE33C1E0B3A564D" -F "select=false" -F "print=false" -F "file=@[output_filepath]" "http://rpi42/api/files/local" {STRIP "; postProcessing"}
;   defaultSpeed,2700
;   outlineUnderspeed,0.5
;   solidInfillUnderspeed,0.8
;   supportUnderspeed,0.8
;   rapidXYspeed,4200
;   rapidZspeed,1200
;   minBridgingArea,5
;   bridgingExtraInflation,0
;   bridgingExtrusionMultiplier,0.95
;   bridgingSpeedMultiplier,0.8
;   useFixedBridgingAngle,0
;   fixedBridgingAngle,0
;   applyBridgingToPerimeters,1
;   filamentDiameters,1.75|1.75|1.75|1.75|1.75|1.75
;   filamentPricesPerKg,46|46|46|46|46|46
;   filamentDensities,1.25|1.25|1.25|1.25|1.25|1.25
;   useMinPrintHeight,0
;   minPrintHeight,0
;   useMaxPrintHeight,0
;   maxPrintHeight,0
;   useDiaphragm,0
;   diaphragmLayerInterval,20
;   robustSlicing,1
;   mergeAllIntoSolid,0
;   onlyRetractWhenCrossingOutline,1
;   retractBetweenLayers,1
;   useRetractionMinTravel,0
;   retractionMinTravel,3
;   retractWhileWiping,0
;   onlyWipeOutlines,1
;   avoidCrossingOutline,0
;   maxMovementDetourFactor,3
;   toolChangeRetractionDistance,12
;   toolChangeExtraRestartDistance,-0.5
;   toolChangeRetractionSpeed,600
;   externalThinWallType,0
;   internalThinWallType,2
;   thinWallAllowedOverlapPercentage,10
;   singleExtrusionMinLength,1
;   singleExtrusionMinPrintingWidthPercentage,50
;   singleExtrusionMaxPrintingWidthPercentage,200
;   singleExtrusionEndpointExtension,0.2
;   horizontalSizeCompensation,0
G90
M83
; **** Replicator 1 dual start.gcode ****
M73 P0 ; enable build progress
G162 X Y F3000 ; home XY maximum
G161 Z F1200 ; home Z minimum
G92 Z-5 ; set Z to -5
G1 Z0 ; move Z to 0
G161 Z F100 ; home Z slowly
M132 X Y Z A B ; recall home offsets
M135 T0 ; load right extruder offsets
G1 X150 Y-70 Z30 F9000 ; move to wait position right hand side of the table
G130 X20 Y20 Z20 A20 B20 ; lower stepper Vrefs while heating
M127
M140 S100 T0
M134 T0 ; stabilize bed temperature
M104 S230 T0
M133 T0 ; stabilize right extruder temperature
G130 X127 Y127 Z40 A127 B127 ; default stepper Vrefs
G92 A0 B0 ; zero extruders
G1 Z0.4 ; position nozzle
G1 X110 Y-70 E25 F300 ; purge nozzle
G1 X120 Y-70 Z0.15 F1200 ; slow wipe
G1 X110 Y-70 Z0.5 F1200 ; lift
G92 A0 B0 ; zero extruders
M73 P1 ;@body (notify GPX body has started)
; **** end of start.gcode ****
; process High Quality ABS
; layer 1, Z = 0.170
M135 T0
G1 E-1.2000 F1500
; feature skirt
; tool H0.170 W0.520
G1 Z0.170 F1200
G1 X-47.412 Y-5.820 F4200
G1 E1.2000 F1500
G1 X93.830 Y-5.820 E4.9314 F1350
G1 X96.653 Y-2.996 E0.1394
G1 X96.653 Y18.997 E0.7679
G1 X93.830 Y21.820 E0.1394
G1 X-92.709 Y21.820 E6.5130
G1 X-95.533 Y18.997 E0.1394
G1 X-95.533 Y-18.996 E1.3265
G1 X-92.709 Y-21.820 E0.1394
G1 X-50.236 Y-21.820 E1.4830
G1 X-47.412 Y-18.996 E0.1394
G1 X-47.412 Y-5.820 E0.4601
G1 E-1.2000 F1500
G1 X-47.932 Y-5.300 F4200
G1 E1.2000 F1500
G1 X93.614 Y-5.300 E4.9421 F1350
G1 X96.133 Y-2.781 E0.1244
G1 X96.133 Y18.781 E0.7528
G1 X93.614 Y21.300 E0.1244
G1 X-92.494 Y21.300 E6.4979
G1 X-95.013 Y18.781 E0.1244
G1 X-95.013 Y-18.781 E1.3115
G1 X-92.494 Y-21.300 E0.1244
G1 X-50.451 Y-21.300 E1.4679
G1 X-47.932 Y-18.781 E0.1244
G1 X-47.932 Y-5.300 E0.4707
G1 E-1.2000 F1500
G1 X-48.452 Y-4.780 F4200
G1 E1.2000 F1500
G1 X93.399 Y-4.780 E4.9527 F1350
G1 X95.613 Y-2.565 E0.1093
G1 X95.613 Y18.566 E0.7378
G1 X93.399 Y20.780 E0.1093
G1 X-92.279 Y20.780 E6.4829
G1 X-94.493 Y18.566 E0.1093
G1 X-94.493 Y-18.565 E1.2964
G1 X-92.279 Y-20.780 E0.1093
G1 X-50.666 Y-20.780 E1.4529
G1 X-48.452 Y-18.565 E0.1093
G1 X-48.452 Y-4.780 E0.4813
G1 E-1.2000 F1500
G1 X-48.972 Y-4.260 F4200
G1 E1.2000 F1500
G1 X93.184 Y-4.260 E4.9633 F1350
G1 X95.093 Y-2.350 E0.0943
G1 X95.093 Y18.351 E0.7228
G1 X93.184 Y20.260 E0.0943
G1 X-92.063 Y20.260 E6.4679
G1 X-93.973 Y18.351 E0.0943
G1 X-93.973 Y-18.350 E1.2814
G1 X-92.063 Y-20.260 E0.0943
G1 X-50.882 Y-20.260 E1.4378
G1 X-48.972 Y-18.350 E0.0943
G1 X-48.972 Y-4.260 E0.4920
G1 E-1.2000 F1500
; feature inner perimeter
G1 X-53.532 Y1.860 F4200
G1 E1.2000 F1500
G1 X88.973 Y1.860 E4.9756 F1013
G1 X88.973 Y14.140 E0.4288
G1 X-53.532 Y14.140 E4.9756
G1 X-53.532 Y1.860 E0.4288
G1 X-54.052 Y1.340 F4200
G1 X89.493 Y1.340 E5.0119 F1013
G1 X89.493 Y14.660 E0.4651
G1 X-54.052 Y14.660 E5.0119
G1 X-54.052 Y1.340 E0.4651
G1 X-54.052 Y0.820 F4200
G1 X90.013 Y0.820 E5.0300 F1013
G1 X90.013 Y15.180 E0.5014
G1 X-54.572 Y15.180 E5.0482
G1 X-54.572 Y-15.180 E1.0600
G1 X-54.052 Y-15.180 E0.0182
G1 X-54.052 Y0.820 E0.5586
G1 E-1.2000 F1500
G1 X-88.373 Y15.180 F4200
G1 E1.2000 F1500
G1 X-88.893 Y15.180 E0.0182 F1013
G1 X-88.893 Y-15.180 E1.0600
G1 X-88.373 Y-15.180 E0.0182
G1 X-88.373 Y15.180 E1.0600
G1 X-87.853 Y15.700 F4200
G1 X-89.413 Y15.700 E0.0545 F1013
G1 X-89.413 Y-15.700 E1.0963
G1 X-87.853 Y-15.700 E0.0545
G1 X-87.853 Y15.700 E1.0963
G1 X-55.092 Y15.700 F4200
G1 X-55.092 Y-15.700 E1.0963 F1013
G1 X-53.532 Y-15.700 E0.0545
G1 X-53.532 Y0.300 E0.5586
G1 X90.533 Y0.300 E5.0300
G1 X90.533 Y15.700 E0.5377
G1 X-55.092 Y15.700 E5.0845
G1 X-53.012 Y-0.220 F4200
G1 X91.053 Y-0.220 E5.0300 F1013
G1 X91.053 Y16.220 E0.5740
G1 X-89.933 Y16.220 E6.3191
G1 X-89.933 Y-16.220 E1.1326
G1 X-53.012 Y-16.220 E1.2891
G1 X-53.012 Y-0.220 E0.5586
; feature outer perimeter
G1 X-52.492 Y-0.740 F4200
G1 X91.573 Y-0.740 E5.0300 F675
G1 X91.573 Y16.740 E0.6103
G1 X-90.453 Y16.740 E6.3554
G1 X-90.453 Y-16.740 E1.1689
G1 X-52.492 Y-16.740 E1.3254
G1 X-52.492 Y-0.740 E0.5586
; feature inner perimeter
G1 X-55.612 Y-14.780 F4200
G1 X-87.333 Y-14.780 E1.1075 F1013
G1 X-87.333 Y14.780 E1.0321
G1 X-55.612 Y14.780 E1.1075
G1 X-55.612 Y-14.780 E1.0321
; feature outer perimeter
G1 X-56.132 Y-14.260 F4200
G1 X-86.813 Y-14.260 E1.0712 F675
G1 X-86.813 Y14.260 E0.9958
G1 X-56.132 Y14.260 E1.0712
G1 X-56.132 Y-14.260 E0.9958
; feature gap fill
; tool H0.170 W0.400
G1 X-55.514 Y-15.916 F4200
G1 X-55.401 Y-15.803 E0.0043 F1350
G1 X-55.401 Y-15.238 E0.0152
G1 X-56.079 Y-15.916 E0.0257
G1 X-56.645 Y-15.916 E0.0152
G1 X-55.813 Y-15.084 E0.0316
G1 X-56.379 Y-15.084 E0.0152
G1 X-57.211 Y-15.916 E0.0316
G1 X-57.776 Y-15.916 E0.0152
G1 X-56.944 Y-15.084 E0.0316
G1 X-57.510 Y-15.084 E0.0152
G1 X-58.342 Y-15.916 E0.0316
G1 X-58.908 Y-15.916 E0.0152
G1 X-58.076 Y-15.084 E0.0316
G1 X-58.641 Y-15.084 E0.0152
G1 X-59.473 Y-15.916 E0.0316
G1 X-60.039 Y-15.916 E0.0152
G1 X-59.207 Y-15.084 E0.0316
G1 X-59.773 Y-15.084 E0.0152
G1 X-60.605 Y-15.916 E0.0316
G1 X-61.171 Y-15.916 E0.0152
G1 X-60.339 Y-15.084 E0.0316
G1 X-60.904 Y-15.084 E0.0152
G1 X-61.736 Y-15.916 E0.0316
G1 X-62.302 Y-15.916 E0.0152
G1 X-61.470 Y-15.084 E0.0316
G1 X-62.036 Y-15.084 E0.0152
G1 X-62.868 Y-15.916 E0.0316
G1 X-63.433 Y-15.916 E0.0152
G1 X-62.601 Y-15.084 E0.0316
G1 X-63.167 Y-15.084 E0.0152
G1 X-63.999 Y-15.916 E0.0316
G1 X-64.565 Y-15.916 E0.0152
G1 X-63.733 Y-15.084 E0.0316
G1 X-64.298 Y-15.084 E0.0152
G1 X-65.130 Y-15.916 E0.0316
G1 X-65.696 Y-15.916 E0.0152
G1 X-64.864 Y-15.084 E0.0316
G1 X-65.430 Y-15.084 E0.0152
G1 X-66.262 Y-15.916 E0.0316
G1 X-66.827 Y-15.916 E0.0152
G1 X-65.995 Y-15.084 E0.0316
G1 X-66.561 Y-15.084 E0.0152
G1 X-67.393 Y-15.916 E0.0316
G1 X-67.959 Y-15.916 E0.0152
G1 X-67.127 Y-15.084 E0.0316
G1 X-67.692 Y-15.084 E0.0152
G1 X-68.524 Y-15.916 E0.0316
G1 X-69.090 Y-15.916 E0.0152
G1 X-68.258 Y-15.084 E0.0316
G1 X-68.824 Y-15.084 E0.0152
G1 X-69.656 Y-15.916 E0.0316
G1 X-70.222 Y-15.916 E0.0152
G1 X-69.390 Y-15.084 E0.0316
G1 X-69.955 Y-15.084 E0.0152
G1 X-70.787 Y-15.916 E0.0316
G1 X-71.353 Y-15.916 E0.0152
G1 X-70.521 Y-15.084 E0.0316
G1 X-71.087 Y-15.084 E0.0152
G1 X-71.919 Y-15.916 E0.0316
G1 X-72.484 Y-15.916 E0.0152
G1 X-71.652 Y-15.084 E0.0316
G1 X-72.218 Y-15.084 E0.0152
G1 X-73.050 Y-15.916 E0.0316
G1 X-73.616 Y-15.916 E0.0152
G1 X-72.784 Y-15.084 E0.0316
G1 X-73.349 Y-15.084 E0.0152
G1 X-74.181 Y-15.916 E0.0316
G1 X-74.747 Y-15.916 E0.0152
G1 X-73.915 Y-15.084 E0.0316
G1 X-74.481 Y-15.084 E0.0152
G1 X-75.313 Y-15.916 E0.0316
G1 X-75.878 Y-15.916 E0.0152
G1 X-75.046 Y-15.084 E0.0316
G1 X-75.612 Y-15.084 E0.0152
G1 X-76.444 Y-15.916 E0.0316
G1 X-77.010 Y-15.916 E0.0152
G1 X-76.178 Y-15.084 E0.0316
G1 X-76.743 Y-15.084 E0.0152
G1 X-77.575 Y-15.916 E0.0316
G1 X-78.141 Y-15.916 E0.0152
G1 X-77.309 Y-15.084 E0.0316
G1 X-77.875 Y-15.084 E0.0152
G1 X-78.707 Y-15.916 E0.0316
G1 X-79.272 Y-15.916 E0.0152
G1 X-78.440 Y-15.084 E0.0316
G1 X-79.006 Y-15.084 E0.0152
G1 X-79.838 Y-15.916 E0.0316
G1 X-80.404 Y-15.916 E0.0152
G1 X-79.572 Y-15.084 E0.0316
G1 X-80.138 Y-15.084 E0.0152
G1 X-80.970 Y-15.916 E0.0316
G1 X-81.535 Y-15.916 E0.0152
G1 X-80.703 Y-15.084 E0.0316
G1 X-81.269 Y-15.084 E0.0152
G1 X-82.101 Y-15.916 E0.0316
G1 X-82.667 Y-15.916 E0.0152
G1 X-81.835 Y-15.084 E0.0316
G1 X-82.400 Y-15.084 E0.0152
G1 X-83.232 Y-15.916 E0.0316
G1 X-83.798 Y-15.916 E0.0152
G1 X-82.966 Y-15.084 E0.0316
G1 X-83.532 Y-15.084 E0.0152
G1 X-84.364 Y-15.916 E0.0316
G1 X-84.929 Y-15.916 E0.0152
G1 X-84.097 Y-15.084 E0.0316
G1 X-84.663 Y-15.084 E0.0152
G1 X-85.495 Y-15.916 E0.0316
G1 X-86.061 Y-15.916 E0.0152
G1 X-85.229 Y-15.084 E0.0316
G1 X-85.794 Y-15.084 E0.0152
G1 X-86.626 Y-15.916 E0.0316
G1 X-87.192 Y-15.916 E0.0152
G1 X-86.360 Y-15.084 E0.0316
G1 X-86.926 Y-15.084 E0.0152
G1 X-87.544 Y-15.701 E0.0235
G1 X-87.544 Y-15.136 E0.0152
G1 X-87.491 Y-15.084 E0.0020
G1 X-87.544 Y15.411 F4200
G1 X-87.038 Y15.916 E0.0192 F1350
G1 X-86.473 Y15.916 E0.0152
G1 X-87.305 Y15.084 E0.0316
G1 X-86.739 Y15.084 E0.0152
G1 X-85.907 Y15.916 E0.0316
G1 X-85.341 Y15.916 E0.0152
G1 X-86.173 Y15.084 E0.0316
G1 X-85.608 Y15.084 E0.0152
G1 X-84.776 Y15.916 E0.0316
G1 X-84.210 Y15.916 E0.0152
G1 X-85.042 Y15.084 E0.0316
G1 X-84.476 Y15.084 E0.0152
G1 X-83.644 Y15.916 E0.0316
G1 X-83.079 Y15.916 E0.0152
G1 X-83.911 Y15.084 E0.0316
G1 X-83.345 Y15.084 E0.0152
G1 X-82.513 Y15.916 E0.0316
G1 X-81.947 Y15.916 E0.0152
G1 X-82.779 Y15.084 E0.0316
G1 X-82.214 Y15.084 E0.0152
G1 X-81.382 Y15.916 E0.0316
G1 X-80.816 Y15.916 E0.0152
G1 X-81.648 Y15.084 E0.0316
G1 X-81.082 Y15.084 E0.0152
G1 X-80.250 Y15.916 E0.0316
G1 X-79.685 Y15.916 E0.0152
G1 X-80.517 Y15.084 E0.0316
G1 X-79.951 Y15.084 E0.0152
G1 X-79.119 Y15.916 E0.0316
G1 X-78.553 Y15.916 E0.0152
G1 X-79.385 Y15.084 E0.0316
G1 X-78.820 Y15.084 E0.0152
G1 X-77.988 Y15.916 E0.0316
G1 X-77.422 Y15.916 E0.0152
G1 X-78.254 Y15.084 E0.0316
G1 X-77.688 Y15.084 E0.0152
G1 X-76.856 Y15.916 E0.0316
G1 X-76.290 Y15.916 E0.0152
G1 X-77.122 Y15.084 E0.0316
G1 X-76.557 Y15.084 E0.0152
G1 X-75.725 Y15.916 E0.0316
G1 X-75.159 Y15.916 E0.0152
G1 X-75.991 Y15.084 E0.0316
G1 X-75.425 Y15.084 E0.0152
G1 X-74.593 Y15.916 E0.0316
