; G-Code generated by Simplify3D(R) Version 4.1.2
; Feb 18, 2021 at 10:14:16 PM
; Settings Summary
;   processName,Prototype PLA
;   applyToModels,arm_and_frame
;   profileName,FlashForge Creator Pro(2) (modified)
;   profileVersion,2018-01-19 08:00:00
;   baseProfile,
;   printMaterial,PLA
;   printQuality,Medium
;   printExtruders,Right Extruder Only
;   extruderName,Right Extruder,Left Extruder
;   extruderToolheadNumber,0,1
;   extruderDiameter,0.4,0.4
;   extruderAutoWidth,0,0
;   extruderWidth,0.4,0.4
;   extrusionMultiplier,0.97,0.9
;   extruderUseRetract,1,1
;   extruderRetractionDistance,1.2,1
;   extruderExtraRestartDistance,0,0
;   extruderRetractionZLift,0,0
;   extruderRetractionSpeed,1500,1200
;   extruderUseCoasting,0,0
;   extruderCoastingDistance,0.2,0.2
;   extruderUseWipe,0,0
;   extruderWipeDistance,5,5
;   primaryExtruder,0
;   layerHeight,0.15
;   topSolidLayers,5
;   bottomSolidLayers,5
;   perimeterOutlines,5
;   printPerimetersInsideOut,1
;   startPointOption,2
;   startPointOriginX,0
;   startPointOriginY,0
;   sequentialIslands,0
;   spiralVaseMode,0
;   firstLayerHeightPercentage,200
;   firstLayerWidthPercentage,150
;   firstLayerUnderspeed,0.5
;   useRaft,0
;   raftExtruder,0
;   raftTopLayers,3
;   raftBaseLayers,2
;   raftOffset,3
;   raftSeparationDistance,0.14
;   raftTopInfill,100
;   aboveRaftSpeedMultiplier,0.3
;   useSkirt,1
;   skirtExtruder,0
;   skirtLayers,1
;   skirtOutlines,4
;   skirtOffset,6
;   usePrimePillar,0
;   primePillarExtruder,999
;   primePillarWidth,12
;   primePillarLocation,7
;   primePillarSpeedMultiplier,1
;   useOozeShield,0
;   oozeShieldExtruder,999
;   oozeShieldOffset,3
;   oozeShieldOutlines,2
;   oozeShieldSidewallShape,1
;   oozeShieldSidewallAngle,30
;   oozeShieldSpeedMultiplier,1
;   infillExtruder,0
;   internalInfillPattern,Full Honeycomb
;   externalInfillPattern,Rectilinear
;   infillPercentage,20
;   outlineOverlapPercentage,20
;   infillExtrusionWidthPercentage,100
;   minInfillLength,5
;   infillLayerInterval,1
;   internalInfillAngles,0,120,-120
;   overlapInternalInfillAngles,0
;   externalInfillAngles,45,-45
;   generateSupport,0
;   supportExtruder,1
;   supportInfillPercentage,30
;   supportExtraInflation,0
;   supportBaseLayers,0
;   denseSupportExtruder,0
;   denseSupportLayers,0
;   denseSupportInfillPercentage,70
;   supportLayerInterval,1
;   supportHorizontalPartOffset,0.3
;   supportUpperSeparationLayers,1
;   supportLowerSeparationLayers,1
;   supportType,0
;   supportGridSpacing,4
;   maxOverhangAngle,45
;   supportAngles,0
;   temperatureName,Right Extruder,Left Extruder,Heated Build Platform
;   temperatureNumber,0,1,0
;   temperatureSetpointCount,1,1,1
;   temperatureSetpointLayers,1,1,1
;   temperatureSetpointTemperatures,190,0,55
;   temperatureStabilizeAtStartup,1,0,0
;   temperatureHeatedBed,0,0,1
;   fanLayers,1
;   fanSpeeds,100
;   blipFanToFullPower,0
;   adjustSpeedForCooling,1
;   minSpeedLayerTime,15
;   minCoolingSpeedSlowdown,20
;   increaseFanForCooling,0
;   minFanLayerTime,45
;   maxCoolingFanSpeed,100
;   increaseFanForBridging,1
;   bridgingFanSpeed,100
;   use5D,1
;   relativeEdistances,1
;   allowEaxisZeroing,0
;   independentExtruderAxes,1
;   includeM10123,0
;   stickySupport,1
;   applyToolheadOffsets,0
;   gcodeXoffset,0
;   gcodeYoffset,0
;   gcodeZoffset,0
;   overrideMachineDefinition,1
;   machineTypeOverride,0
;   strokeXoverride,225
;   strokeYoverride,145
;   strokeZoverride,150
;   originOffsetXoverride,112.5
;   originOffsetYoverride,72.5
;   originOffsetZoverride,0
;   homeXdirOverride,1
;   homeYdirOverride,1
;   homeZdirOverride,-1
;   flipXoverride,1
;   flipYoverride,-1
;   flipZoverride,1
;   toolheadOffsets,0,0|34,0|0,0|0,0|0,0|0,0
;   overrideFirmwareConfiguration,1
;   firmwareTypeOverride,MakerBot/Sailfish Firmware
;   GPXconfigOverride,r1d
;   baudRateOverride,115200
;   overridePrinterModels,1
;   printerModelsOverride,FlashForge_CreatorPro.stl
;   startingGcode,; **** Replicator 1 dual start.gcode ****,M73 P0 ; enable build progress,G162 X Y F3000 ; home XY maximum,G161 Z F1200 ; home Z minimum,G92 Z-5 ; set Z to -5,G1 Z0 ; move Z to 0,G161 Z F100 ; home Z slowly,M132 X Y Z A B ; recall home offsets,M135 T0 ; load right extruder offsets,G1 X150 Y-70 Z30 F9000 ; move to wait position right hand side of the table,G130 X20 Y20 Z20 A20 B20 ; lower stepper Vrefs while heating,M126 S[fan_speed_pwm],M140 S[bed0_temperature] T0,M134 T0 ; stabilize bed temperature,M104 S[extruder0_temperature] T0,M133 T0 ; stabilize right extruder temperature,G130 X127 Y127 Z40 A127 B127 ; default stepper Vrefs,G92 A0 B0 ; zero extruders,G1 Z0.4 ; position nozzle,G1 X110 Y-70 E25 F300 ; purge nozzle,G1 X120 Y-70 Z0.15 F1200 ; slow wipe,G1 X110 Y-70 Z0.5 F1200 ; lift,G92 A0 B0 ; zero extruders,M73 P1 ;@body (notify GPX body has started),; **** end of start.gcode ****
;   layerChangeGcode,
;   retractionGcode,
;   toolChangeGcode,
;   endingGcode,; **** Replicator 1 dual end.gcode ****,M73 P100 ; end build progress,G1 Z150 F1000 ; send Z axis to bottom of machine,M140 S0 T0 ; cool down HBP,M104 S0 T0 ; cool down right extruder,M104 S0 T1 ; cool down left extruder,M127 ; stop blower fan,G162 X Y F3000 ; home XY maximum,M18 ; disable stepper,M72 P1 ; play Ta-Da song,; **** end of end.gcode ****
;   exportFileFormat,gcode
;   celebration,0
;   celebrationSong,Random Song
;   postProcessing,curl -k -H "X-Api-Key: 27C03DAE77BD475FAFE33C1E0B3A564D" -F "select=false" -F "print=false" -F "file=@[output_filepath]" "http://rpi42/api/files/local" {STRIP "; postProcessing"}
;   defaultSpeed,3600
;   outlineUnderspeed,0.5
;   solidInfillUnderspeed,0.8
;   supportUnderspeed,0.8
;   rapidXYspeed,4200
;   rapidZspeed,1200
;   minBridgingArea,5
;   bridgingExtraInflation,0
;   bridgingExtrusionMultiplier,1
;   bridgingSpeedMultiplier,0.8
;   useFixedBridgingAngle,0
;   fixedBridgingAngle,0
;   applyBridgingToPerimeters,1
;   filamentDiameters,1.75|1.75|1.75|1.75|1.75|1.75
;   filamentPricesPerKg,46|46|46|46|46|46
;   filamentDensities,1.25|1.25|1.25|1.25|1.25|1.25
;   useMinPrintHeight,0
;   minPrintHeight,0
;   useMaxPrintHeight,0
;   maxPrintHeight,0
;   useDiaphragm,0
;   diaphragmLayerInterval,20
;   robustSlicing,1
;   mergeAllIntoSolid,0
;   onlyRetractWhenCrossingOutline,1
;   retractBetweenLayers,1
;   useRetractionMinTravel,0
;   retractionMinTravel,3
;   retractWhileWiping,0
;   onlyWipeOutlines,1
;   avoidCrossingOutline,0
;   maxMovementDetourFactor,3
;   toolChangeRetractionDistance,12
;   toolChangeExtraRestartDistance,-0.5
;   toolChangeRetractionSpeed,600
;   externalThinWallType,0
;   internalThinWallType,2
;   thinWallAllowedOverlapPercentage,10
;   singleExtrusionMinLength,1
;   singleExtrusionMinPrintingWidthPercentage,50
;   singleExtrusionMaxPrintingWidthPercentage,200
;   singleExtrusionEndpointExtension,0.2
;   horizontalSizeCompensation,0
G90
M83
; **** Replicator 1 dual start.gcode ****
M73 P0 ; enable build progress
G162 X Y F3000 ; home XY maximum
G161 Z F1200 ; home Z minimum
G92 Z-5 ; set Z to -5
G1 Z0 ; move Z to 0
G161 Z F100 ; home Z slowly
M132 X Y Z A B ; recall home offsets
M135 T0 ; load right extruder offsets
G1 X150 Y-70 Z30 F9000 ; move to wait position right hand side of the table
G130 X20 Y20 Z20 A20 B20 ; lower stepper Vrefs while heating
M126 S255
M140 S55 T0
M134 T0 ; stabilize bed temperature
M104 S190 T0
M133 T0 ; stabilize right extruder temperature
G130 X127 Y127 Z40 A127 B127 ; default stepper Vrefs
G92 A0 B0 ; zero extruders
G1 Z0.4 ; position nozzle
G1 X110 Y-70 E25 F300 ; purge nozzle
G1 X120 Y-70 Z0.15 F1200 ; slow wipe
G1 X110 Y-70 Z0.5 F1200 ; lift
G92 A0 B0 ; zero extruders
M73 P1 ;@body (notify GPX body has started)
; **** end of start.gcode ****
; process Prototype PLA
; layer 1, Z = 0.300
M135 T0
G1 E-1.2000 F1500
; feature skirt
; tool H0.300 W0.600
G1 Z0.300 F1200
G1 X-45.401 Y-9.100 F4200
G1 E1.2000 F1500
G1 X96.438 Y-9.100 E10.2961 F1800
G1 X101.183 Y-4.355 E0.4871
G1 X101.183 Y20.355 E1.7937
G1 X96.438 Y25.100 E0.4871
G1 X-95.336 Y25.100 E13.9210
G1 X-100.081 Y20.355 E0.4871
G1 X-100.081 Y-20.355 E2.9552
G1 X-95.336 Y-25.100 E0.4871
G1 X-50.146 Y-25.100 E3.2804
G1 X-45.401 Y-20.355 E0.4871
G1 X-45.401 Y-9.100 E0.8170
G1 E-1.2000 F1500
G1 X-46.001 Y-8.500 F4200
G1 E1.2000 F1500
G1 X96.190 Y-8.500 E10.3217 F1800
G1 X100.583 Y-4.107 E0.4510
G1 X100.583 Y20.107 E1.7576
G1 X96.190 Y24.500 E0.4510
G1 X-95.088 Y24.500 E13.8849
G1 X-99.481 Y20.107 E0.4510
G1 X-99.481 Y-20.107 E2.9191
G1 X-95.088 Y-24.500 E0.4510
G1 X-50.394 Y-24.500 E3.2443
G1 X-46.001 Y-20.107 E0.4510
G1 X-46.001 Y-8.500 E0.8425
G1 E-1.2000 F1500
G1 X-46.601 Y-7.900 F4200
G1 E1.2000 F1500
G1 X95.941 Y-7.900 E10.3472 F1800
G1 X99.983 Y-3.858 E0.4149
G1 X99.983 Y19.858 E1.7216
G1 X95.941 Y23.900 E0.4149
G1 X-94.839 Y23.900 E13.8488
G1 X-98.881 Y19.858 E0.4149
G1 X-98.881 Y-19.858 E2.8830
G1 X-94.839 Y-23.900 E0.4149
G1 X-50.643 Y-23.900 E3.2083
G1 X-46.601 Y-19.858 E0.4149
G1 X-46.601 Y-7.900 E0.8680
G1 E-1.2000 F1500
G1 X-47.201 Y-7.300 F4200
G1 E1.2000 F1500
G1 X95.693 Y-7.300 E10.3727 F1800
G1 X99.383 Y-3.610 E0.3789
G1 X99.383 Y19.610 E1.6855
G1 X95.693 Y23.300 E0.3789
G1 X-94.591 Y23.300 E13.8127
G1 X-98.281 Y19.610 E0.3789
G1 X-98.281 Y-19.610 E2.8469
G1 X-94.591 Y-23.300 E0.3789
G1 X-50.891 Y-23.300 E3.1722
G1 X-47.201 Y-19.610 E0.3789
G1 X-47.201 Y-7.300 E0.8936
G1 E-1.2000 F1500
; feature inner perimeter
G1 X-54.961 Y1.700 F4200
G1 E1.2000 F1500
G1 X90.383 Y1.700 E10.5506 F1350
G1 X90.383 Y14.300 E0.9146
G1 X-54.961 Y14.300 E10.5506
G1 X-54.961 Y1.700 E0.9146
G1 X-55.561 Y1.100 F4200
G1 X90.983 Y1.100 E10.6377 F1350
G1 X90.983 Y14.900 E1.0017
G1 X-55.561 Y14.900 E10.6377
G1 X-55.561 Y1.100 E1.0017
G1 X-55.001 Y0.500 F4200
G1 X91.583 Y0.500 E10.6406 F1350
G1 X91.583 Y15.500 E1.0889
G1 X-56.161 Y15.500 E10.7248
G1 X-56.161 Y-15.500 E2.2503
G1 X-55.001 Y-15.500 E0.0842
G1 X-55.001 Y0.500 E1.1614
G1 E-1.2000 F1500
G1 X-89.321 Y15.500 F4200
G1 E1.2000 F1500
G1 X-90.481 Y15.500 E0.0842 F1350
G1 X-90.481 Y-15.500 E2.2503
G1 X-89.321 Y-15.500 E0.0842
G1 X-89.321 Y15.500 E2.2503
G1 X-91.081 Y16.100 F4200
G1 X-91.081 Y-16.100 E2.3374 F1350
G1 X-54.401 Y-16.100 E2.6627
G1 X-54.401 Y-0.100 E1.1614
G1 X92.183 Y-0.100 E10.6406
G1 X92.183 Y16.100 E1.1760
G1 X-91.081 Y16.100 E13.3032
; feature outer perimeter
G1 X-91.681 Y16.700 F4200
G1 X-91.681 Y-16.700 E2.4245 F900
G1 X-53.801 Y-16.700 E2.7498
G1 X-53.801 Y-0.700 E1.1614
G1 X92.783 Y-0.700 E10.6406
G1 X92.783 Y16.700 E1.2631
G1 X-91.681 Y16.700 E13.3903
; feature inner perimeter
G1 X-88.721 Y14.900 F4200
G1 X-56.761 Y14.900 E2.3200 F1350
G1 X-56.761 Y-14.900 E2.1632
G1 X-88.721 Y-14.900 E2.3200
G1 X-88.721 Y14.900 E2.1632
; feature outer perimeter
G1 X-88.121 Y14.300 F4200
G1 X-57.361 Y14.300 E2.2329 F900
G1 X-57.361 Y-14.300 E2.0761
G1 X-88.121 Y-14.300 E2.2329
G1 X-88.121 Y14.300 E2.0761
; feature gap fill
; tool H0.300 W0.400
G1 X-88.932 Y15.720 F4200
G1 X-88.935 Y15.280 E0.0214 F1800
G1 X-88.806 Y15.280 E0.0063
G1 X-88.366 Y15.720 E0.0301
G1 X-87.800 Y15.720 E0.0274
G1 X-88.240 Y15.280 E0.0301
G1 X-87.675 Y15.280 E0.0274
G1 X-87.235 Y15.720 E0.0301
G1 X-86.669 Y15.720 E0.0274
G1 X-87.109 Y15.280 E0.0301
G1 X-86.543 Y15.280 E0.0274
G1 X-86.103 Y15.720 E0.0301
G1 X-85.538 Y15.720 E0.0274
G1 X-85.978 Y15.280 E0.0301
G1 X-85.412 Y15.280 E0.0274
G1 X-84.972 Y15.720 E0.0301
G1 X-84.406 Y15.720 E0.0274
G1 X-84.846 Y15.280 E0.0301
G1 X-84.281 Y15.280 E0.0274
G1 X-83.841 Y15.720 E0.0301
G1 X-83.275 Y15.720 E0.0274
G1 X-83.715 Y15.280 E0.0301
G1 X-83.149 Y15.280 E0.0274
G1 X-82.709 Y15.720 E0.0301
G1 X-82.144 Y15.720 E0.0274
G1 X-82.584 Y15.280 E0.0301
G1 X-82.018 Y15.280 E0.0274
G1 X-81.578 Y15.720 E0.0301
G1 X-81.012 Y15.720 E0.0274
G1 X-81.452 Y15.280 E0.0301
G1 X-80.887 Y15.280 E0.0274
G1 X-80.447 Y15.720 E0.0301
G1 X-79.881 Y15.720 E0.0274
G1 X-80.321 Y15.280 E0.0301
G1 X-79.755 Y15.280 E0.0274
G1 X-79.315 Y15.720 E0.0301
G1 X-78.749 Y15.720 E0.0274
G1 X-79.189 Y15.280 E0.0301
G1 X-78.624 Y15.280 E0.0274
G1 X-78.184 Y15.720 E0.0301
G1 X-77.618 Y15.720 E0.0274
G1 X-78.058 Y15.280 E0.0301
G1 X-77.492 Y15.280 E0.0274
G1 X-77.052 Y15.720 E0.0301
G1 X-76.487 Y15.720 E0.0274
G1 X-76.927 Y15.280 E0.0301
G1 X-76.361 Y15.280 E0.0274
G1 X-75.921 Y15.720 E0.0301
G1 X-75.355 Y15.720 E0.0274
G1 X-75.795 Y15.280 E0.0301
G1 X-75.230 Y15.280 E0.0274
G1 X-74.790 Y15.720 E0.0301
G1 X-74.224 Y15.720 E0.0274
G1 X-74.664 Y15.280 E0.0301
G1 X-74.098 Y15.280 E0.0274
G1 X-73.658 Y15.720 E0.0301
G1 X-73.093 Y15.720 E0.0274
G1 X-73.533 Y15.280 E0.0301
G1 X-72.967 Y15.280 E0.0274
G1 X-72.527 Y15.720 E0.0301
G1 X-71.961 Y15.720 E0.0274
G1 X-72.401 Y15.280 E0.0301
G1 X-71.836 Y15.280 E0.0274
G1 X-71.396 Y15.720 E0.0301
G1 X-70.830 Y15.720 E0.0274
G1 X-71.270 Y15.280 E0.0301
G1 X-70.704 Y15.280 E0.0274
G1 X-70.264 Y15.720 E0.0301
G1 X-69.698 Y15.720 E0.0274
G1 X-70.138 Y15.280 E0.0301
G1 X-69.573 Y15.280 E0.0274
G1 X-69.133 Y15.720 E0.0301
G1 X-68.567 Y15.720 E0.0274
G1 X-69.007 Y15.280 E0.0301
G1 X-68.441 Y15.280 E0.0274
G1 X-68.001 Y15.720 E0.0301
G1 X-67.436 Y15.720 E0.0274
G1 X-67.876 Y15.280 E0.0301
G1 X-67.310 Y15.280 E0.0274
G1 X-66.870 Y15.720 E0.0301
G1 X-66.304 Y15.720 E0.0274
G1 X-66.744 Y15.280 E0.0301
G1 X-66.179 Y15.280 E0.0274
G1 X-65.739 Y15.720 E0.0301
G1 X-65.173 Y15.720 E0.0274
G1 X-65.613 Y15.280 E0.0301
G1 X-65.047 Y15.280 E0.0274
G1 X-64.607 Y15.720 E0.0301
G1 X-64.042 Y15.720 E0.0274
G1 X-64.482 Y15.280 E0.0301
G1 X-63.916 Y15.280 E0.0274
G1 X-63.476 Y15.720 E0.0301
G1 X-62.910 Y15.720 E0.0274
G1 X-63.350 Y15.280 E0.0301
G1 X-62.785 Y15.280 E0.0274
G1 X-62.345 Y15.720 E0.0301
G1 X-61.779 Y15.720 E0.0274
G1 X-62.219 Y15.280 E0.0301
G1 X-61.653 Y15.280 E0.0274
G1 X-61.213 Y15.720 E0.0301
G1 X-60.648 Y15.720 E0.0274
G1 X-61.088 Y15.280 E0.0301
G1 X-60.522 Y15.280 E0.0274
G1 X-60.082 Y15.720 E0.0301
G1 X-59.516 Y15.720 E0.0274
G1 X-59.956 Y15.280 E0.0301
G1 X-59.390 Y15.280 E0.0274
G1 X-58.950 Y15.720 E0.0301
G1 X-58.385 Y15.720 E0.0274
G1 X-58.825 Y15.280 E0.0301
G1 X-58.259 Y15.280 E0.0274
G1 X-57.819 Y15.720 E0.0301
G1 X-57.253 Y15.720 E0.0274
G1 X-57.693 Y15.280 E0.0301
G1 X-57.128 Y15.280 E0.0274
G1 X-56.688 Y15.720 E0.0301
G1 X-56.547 Y15.720 E0.0068
G1 X-56.547 Y15.295 E0.0206
G1 X-56.562 Y15.280 E0.0010
G1 X-55.781 Y0.222 F4200
G1 X-55.381 Y0.622 E0.0274 F1800
G1 X-55.381 Y0.056 E0.0274
G1 X-55.781 Y-0.344 E0.0274
G1 X-55.781 Y-0.909 E0.0274
G1 X-55.381 Y-0.509 E0.0274
G1 X-55.381 Y-1.075 E0.0274
G1 X-55.781 Y-1.475 E0.0274
G1 X-55.781 Y-2.041 E0.0274
G1 X-55.381 Y-1.641 E0.0274
G1 X-55.381 Y-2.206 E0.0274
G1 X-55.781 Y-2.606 E0.0274
G1 X-55.781 Y-3.172 E0.0274
G1 X-55.381 Y-2.772 E0.0274
G1 X-55.381 Y-3.338 E0.0274
G1 X-55.781 Y-3.738 E0.0274
G1 X-55.781 Y-4.303 E0.0274
G1 X-55.381 Y-3.903 E0.0274
G1 X-55.381 Y-4.469 E0.0274
G1 X-55.781 Y-4.869 E0.0274
G1 X-55.781 Y-5.435 E0.0274
G1 X-55.381 Y-5.035 E0.0274
G1 X-55.381 Y-5.600 E0.0274
G1 X-55.781 Y-6.001 E0.0274
G1 X-55.781 Y-6.566 E0.0274
G1 X-55.381 Y-6.166 E0.0274
G1 X-55.381 Y-6.732 E0.0274
G1 X-55.781 Y-7.132 E0.0274
G1 X-55.781 Y-7.698 E0.0274
G1 X-55.381 Y-7.298 E0.0274
G1 X-55.381 Y-7.863 E0.0274
G1 X-55.781 Y-8.263 E0.0274
G1 X-55.781 Y-8.829 E0.0274
G1 X-55.381 Y-8.429 E0.0274
G1 X-55.381 Y-8.995 E0.0274
G1 X-55.781 Y-9.395 E0.0274
G1 X-55.781 Y-9.960 E0.0274
G1 X-55.381 Y-9.560 E0.0274
G1 X-55.381 Y-10.126 E0.0274
G1 X-55.781 Y-10.526 E0.0274
G1 X-55.781 Y-11.092 E0.0274
G1 X-55.381 Y-10.692 E0.0274
G1 X-55.381 Y-11.257 E0.0274
G1 X-55.781 Y-11.657 E0.0274
G1 X-55.781 Y-12.223 E0.0274
G1 X-55.381 Y-11.823 E0.0274
G1 X-55.381 Y-12.389 E0.0274
G1 X-55.781 Y-12.789 E0.0274
G1 X-55.781 Y-13.354 E0.0274
G1 X-55.381 Y-12.954 E0.0274
G1 X-55.381 Y-13.520 E0.0274
G1 X-55.781 Y-13.920 E0.0274
G1 X-55.781 Y-14.486 E0.0274
G1 X-55.381 Y-14.086 E0.0274
G1 X-55.381 Y-14.651 E0.0274
G1 X-55.781 Y-15.051 E0.0274
G1 X-57.015 Y-15.720 F4200
G1 X-56.575 Y-15.280 E0.0301 F1800
G1 X-57.141 Y-15.280 E0.0274
G1 X-57.581 Y-15.720 E0.0301
G1 X-58.146 Y-15.720 E0.0274
