; G-Code generated by Simplify3D(R) Version 4.1.2
; Feb 28, 2021 at 9:54:22 AM
; Settings Summary
;   processName,High Quality ABS
;   applyToModels,arm_and_frame
;   profileName,FlashForge Creator Pro - Octoprint (modified)
;   profileVersion,2021-02-07 11:52:42
;   baseProfile,FlashForge Creator Pro(2) (modified)
;   printMaterial,ABS
;   printQuality,High
;   printExtruders,Left Extruder Only
;   extruderName,Right Extruder,Left Extruder
;   extruderToolheadNumber,0,1
;   extruderDiameter,0.4,0.4
;   extruderAutoWidth,0,0
;   extruderWidth,0.4,0.4
;   extrusionMultiplier,0.95,0.95
;   extruderUseRetract,1,1
;   extruderRetractionDistance,2,2
;   extruderExtraRestartDistance,0,0
;   extruderRetractionZLift,0,0
;   extruderRetractionSpeed,1500,1500
;   extruderUseCoasting,0,0
;   extruderCoastingDistance,0.2,0.2
;   extruderUseWipe,0,0
;   extruderWipeDistance,5,5
;   primaryExtruder,1
;   layerHeight,0.1
;   topSolidLayers,8
;   bottomSolidLayers,3
;   perimeterOutlines,5
;   printPerimetersInsideOut,1
;   startPointOption,2
;   startPointOriginX,0
;   startPointOriginY,0
;   sequentialIslands,0
;   spiralVaseMode,0
;   firstLayerHeightPercentage,200
;   firstLayerWidthPercentage,100
;   firstLayerUnderspeed,0.4
;   useRaft,0
;   raftExtruder,1
;   raftTopLayers,3
;   raftBaseLayers,2
;   raftOffset,3
;   raftSeparationDistance,0.14
;   raftTopInfill,100
;   aboveRaftSpeedMultiplier,0.3
;   useSkirt,1
;   skirtExtruder,1
;   skirtLayers,1
;   skirtOutlines,4
;   skirtOffset,3
;   usePrimePillar,0
;   primePillarExtruder,999
;   primePillarWidth,12
;   primePillarLocation,7
;   primePillarSpeedMultiplier,1
;   useOozeShield,0
;   oozeShieldExtruder,999
;   oozeShieldOffset,3
;   oozeShieldOutlines,2
;   oozeShieldSidewallShape,0
;   oozeShieldSidewallAngle,30
;   oozeShieldSpeedMultiplier,1
;   infillExtruder,1
;   internalInfillPattern,Triangular
;   externalInfillPattern,Rectilinear
;   infillPercentage,30
;   outlineOverlapPercentage,15
;   infillExtrusionWidthPercentage,100
;   minInfillLength,5
;   infillLayerInterval,1
;   internalInfillAngles,0,60,-60
;   overlapInternalInfillAngles,1
;   externalInfillAngles,45,-45
;   generateSupport,0
;   supportExtruder,1
;   supportInfillPercentage,90
;   supportExtraInflation,0
;   supportBaseLayers,0
;   denseSupportExtruder,1
;   denseSupportLayers,0
;   denseSupportInfillPercentage,70
;   supportLayerInterval,1
;   supportHorizontalPartOffset,0.3
;   supportUpperSeparationLayers,1
;   supportLowerSeparationLayers,1
;   supportType,0
;   supportGridSpacing,4
;   maxOverhangAngle,45
;   supportAngles,0
;   temperatureName,Right Extruder,Left Extruder,Heated Build Platform
;   temperatureNumber,0,1,0
;   temperatureSetpointCount,1,1,1
;   temperatureSetpointLayers,1,1,1
;   temperatureSetpointTemperatures,0,235,110
;   temperatureStabilizeAtStartup,0,1,0
;   temperatureHeatedBed,0,0,1
;   fanLayers,1
;   fanSpeeds,0
;   blipFanToFullPower,0
;   adjustSpeedForCooling,1
;   minSpeedLayerTime,15
;   minCoolingSpeedSlowdown,20
;   increaseFanForCooling,0
;   minFanLayerTime,45
;   maxCoolingFanSpeed,100
;   increaseFanForBridging,1
;   bridgingFanSpeed,100
;   use5D,1
;   relativeEdistances,1
;   allowEaxisZeroing,0
;   independentExtruderAxes,1
;   includeM10123,0
;   stickySupport,1
;   applyToolheadOffsets,0
;   gcodeXoffset,0
;   gcodeYoffset,0
;   gcodeZoffset,0
;   overrideMachineDefinition,1
;   machineTypeOverride,0
;   strokeXoverride,225
;   strokeYoverride,145
;   strokeZoverride,150
;   originOffsetXoverride,112.5
;   originOffsetYoverride,72.5
;   originOffsetZoverride,0
;   homeXdirOverride,1
;   homeYdirOverride,1
;   homeZdirOverride,-1
;   flipXoverride,1
;   flipYoverride,-1
;   flipZoverride,1
;   toolheadOffsets,0,0|34,0|0,0|0,0|0,0|0,0
;   overrideFirmwareConfiguration,1
;   firmwareTypeOverride,MakerBot/Sailfish Firmware
;   GPXconfigOverride,r1d
;   baudRateOverride,115200
;   overridePrinterModels,1
;   printerModelsOverride,FlashForge_CreatorPro.stl
;   startingGcode,; **** Replicator 1 dual start.gcode ****,M73 P0 ; enable build progress,G162 X Y F3000 ; home XY maximum,G161 Z F1200 ; home Z minimum,G92 Z-5 ; set Z to -5,G1 Z0 ; move Z to 0,G161 Z F100 ; home Z slowly,M132 X Y Z A B ; recall home offsets,M135 T0 ; load right extruder offsets,G1 X-110 Y-70 Z30 F9000 ; move to wait position left hand side of the table,G130 X20 Y20 Z20 A20 B20 ; lower stepper Vrefs while heating,M126 S[fan_speed_pwm],M140 S[bed0_temperature] T0,M134 T0 ; stabilize bed temperature,M104 S[extruder1_temperature] T1,M133 T1 ; stabilize left extruder temperature,G130 X127 Y127 Z40 A127 B127 ; default stepper Vrefs,G92 A0 B0 ; zero extruders,G1 Z0.4 ; position nozzle,M135 T1 ; left tool,G1 X-140 Y-70 F9000 ; reposition nozzle,G1 X-100 Y-70 E25 F300 ; purge nozzle,G1 X-110 Y-70 Z0.15 F1200 ; slow wipe,G1 X-100 Y-70 Z0.5 F1200 ; lift,G92 A0 B0 ; zero extruders,M73 P1 ;@body (notify GPX body has started),; **** end of start.gcode ****
;   layerChangeGcode,
;   retractionGcode,
;   toolChangeGcode,
;   endingGcode,; **** Replicator 1 dual end.gcode ****,M73 P100 ; end build progress,G1 Z150 F1000 ; send Z axis to bottom of machine,M140 S0 T0 ; cool down HBP,M104 S0 T0 ; cool down right extruder,M104 S0 T1 ; cool down left extruder,M127 ; stop blower fan,G162 X Y F3000 ; home XY maximum,M18 ; disable stepper,M72 P1 ; play Ta-Da song,; **** end of end.gcode ****
;   exportFileFormat,gcode
;   celebration,0
;   celebrationSong,Random Song
;   postProcessing,curl -k -H "X-Api-Key: 27C03DAE77BD475FAFE33C1E0B3A564D" -F "select=false" -F "print=false" -F "file=@[output_filepath]" "http://rpi42/api/files/local" {STRIP "; postProcessing"}
;   defaultSpeed,2400
;   outlineUnderspeed,0.5
;   solidInfillUnderspeed,0.8
;   supportUnderspeed,0.8
;   rapidXYspeed,4200
;   rapidZspeed,1200
;   minBridgingArea,5
;   bridgingExtraInflation,0
;   bridgingExtrusionMultiplier,0.95
;   bridgingSpeedMultiplier,0.65
;   useFixedBridgingAngle,0
;   fixedBridgingAngle,0
;   applyBridgingToPerimeters,1
;   filamentDiameters,1.75|1.75|1.75|1.75|1.75|1.75
;   filamentPricesPerKg,46|46|46|46|46|46
;   filamentDensities,1.25|1.25|1.25|1.25|1.25|1.25
;   useMinPrintHeight,0
;   minPrintHeight,0
;   useMaxPrintHeight,0
;   maxPrintHeight,0
;   useDiaphragm,0
;   diaphragmLayerInterval,20
;   robustSlicing,1
;   mergeAllIntoSolid,0
;   onlyRetractWhenCrossingOutline,1
;   retractBetweenLayers,1
;   useRetractionMinTravel,0
;   retractionMinTravel,3
;   retractWhileWiping,0
;   onlyWipeOutlines,1
;   avoidCrossingOutline,0
;   maxMovementDetourFactor,3
;   toolChangeRetractionDistance,12
;   toolChangeExtraRestartDistance,-0.5
;   toolChangeRetractionSpeed,600
;   externalThinWallType,0
;   internalThinWallType,2
;   thinWallAllowedOverlapPercentage,10
;   singleExtrusionMinLength,1
;   singleExtrusionMinPrintingWidthPercentage,50
;   singleExtrusionMaxPrintingWidthPercentage,200
;   singleExtrusionEndpointExtension,0.2
;   horizontalSizeCompensation,0
G90
M83
; **** Replicator 1 dual start.gcode ****
M73 P0 ; enable build progress
G162 X Y F3000 ; home XY maximum
G161 Z F1200 ; home Z minimum
G92 Z-5 ; set Z to -5
G1 Z0 ; move Z to 0
G161 Z F100 ; home Z slowly
M132 X Y Z A B ; recall home offsets
M135 T0 ; load right extruder offsets
G1 X-110 Y-70 Z30 F9000 ; move to wait position left hand side of the table
G130 X20 Y20 Z20 A20 B20 ; lower stepper Vrefs while heating
M127
M140 S110 T0
M134 T0 ; stabilize bed temperature
M104 S235 T1
M133 T1 ; stabilize left extruder temperature
G130 X127 Y127 Z40 A127 B127 ; default stepper Vrefs
G92 A0 B0 ; zero extruders
G1 Z0.4 ; position nozzle
M135 T1 ; left tool
G1 X-140 Y-70 F9000 ; reposition nozzle
G1 X-100 Y-70 E25 F300 ; purge nozzle
G1 X-110 Y-70 Z0.15 F1200 ; slow wipe
G1 X-100 Y-70 Z0.5 F1200 ; lift
G92 A0 B0 ; zero extruders
M73 P1 ;@body (notify GPX body has started)
; **** end of start.gcode ****
; process High Quality ABS
; layer 1, Z = 0.200
M135 T1
G1 E-2.0000 F1500
; feature skirt
; tool H0.200 W0.400
G1 Z0.200 F1200
G1 X-50.140 Y-7.900 F4200
G1 E2.0000 F1500
G1 X92.773 Y-7.900 E4.5156 F960
G1 X95.350 Y-5.323 E0.1152
G1 X95.350 Y16.323 E0.6839
G1 X92.773 Y18.900 E0.1152
G1 X-51.615 Y18.900 E4.5622
G1 X-51.655 Y18.957 E0.0022
G1 X-51.836 Y19.184 E0.0092
G1 X-52.300 Y19.693 E0.0218
G1 X-52.508 Y19.893 E0.0091
G1 X-53.034 Y20.336 E0.0217
G1 X-53.263 Y20.505 E0.0090
G1 X-53.841 Y20.876 E0.0217
G1 X-54.088 Y21.013 E0.0089
G1 X-54.708 Y21.307 E0.0217
G1 X-54.968 Y21.411 E0.0088
G1 X-55.620 Y21.624 E0.0217
G1 X-55.890 Y21.693 E0.0088
G1 X-56.563 Y21.822 E0.0217
G1 X-56.838 Y21.857 E0.0088
G1 X-57.453 Y21.896 E0.0195
G1 X-57.591 Y21.900 E0.0044
G1 X-87.912 Y21.899 E0.9581
G1 X-88.050 Y21.895 E0.0044
G1 X-88.652 Y21.857 E0.0190
G1 X-88.927 Y21.822 E0.0088
G1 X-89.600 Y21.693 E0.0217
G1 X-89.870 Y21.624 E0.0088
G1 X-90.522 Y21.411 E0.0217
G1 X-90.782 Y21.308 E0.0088
G1 X-91.402 Y21.014 E0.0217
G1 X-91.649 Y20.877 E0.0089
G1 X-92.227 Y20.505 E0.0217
G1 X-92.456 Y20.336 E0.0090
G1 X-92.982 Y19.893 E0.0217
G1 X-93.190 Y19.693 E0.0091
G1 X-93.654 Y19.184 E0.0218
G1 X-93.835 Y18.957 E0.0092
G1 X-94.229 Y18.391 E0.0218
G1 X-94.380 Y18.139 E0.0093
G1 X-94.695 Y17.525 E0.0218
G1 X-94.812 Y17.253 E0.0094
G1 X-95.042 Y16.601 E0.0218
G1 X-95.122 Y16.314 E0.0094
G1 X-95.263 Y15.637 E0.0219
G1 X-95.303 Y15.340 E0.0095
G1 X-95.345 Y14.725 E0.0195
G1 X-95.350 Y14.575 E0.0047
G1 X-95.350 Y-19.322 E1.0711
G1 X-92.773 Y-21.900 E0.1152
G1 X-52.717 Y-21.900 E1.2656
G1 X-50.140 Y-19.323 E0.1152
G1 X-50.140 Y-7.900 E0.3609
G1 E-2.0000 F1500
G1 X-50.540 Y-7.500 F4200
G1 E2.0000 F1500
G1 X92.607 Y-7.500 E4.5230 F960
G1 X94.950 Y-5.157 E0.1047
G1 X94.950 Y16.157 E0.6735
G1 X92.607 Y18.500 E0.1047
G1 X-51.824 Y18.500 E4.5636
G1 X-51.976 Y18.718 E0.0084
G1 X-52.141 Y18.924 E0.0084
G1 X-52.587 Y19.414 E0.0209
G1 X-52.776 Y19.595 E0.0083
G1 X-53.282 Y20.022 E0.0209
G1 X-53.490 Y20.176 E0.0082
G1 X-54.046 Y20.533 E0.0209
G1 X-54.271 Y20.658 E0.0081
G1 X-54.868 Y20.941 E0.0209
G1 X-55.104 Y21.035 E0.0080
G1 X-55.732 Y21.240 E0.0209
G1 X-55.977 Y21.303 E0.0080
G1 X-56.626 Y21.427 E0.0209
G1 X-56.876 Y21.458 E0.0080
G1 X-57.472 Y21.496 E0.0189
G1 X-57.598 Y21.500 E0.0040
G1 X-87.906 Y21.499 E0.9577
G1 X-88.032 Y21.495 E0.0040
G1 X-88.614 Y21.459 E0.0184
G1 X-88.864 Y21.427 E0.0080
G1 X-89.513 Y21.303 E0.0209
G1 X-89.758 Y21.240 E0.0080
G1 X-90.386 Y21.035 E0.0209
G1 X-90.622 Y20.941 E0.0080
G1 X-91.219 Y20.658 E0.0209
G1 X-91.444 Y20.533 E0.0081
G1 X-92.000 Y20.176 E0.0209
G1 X-92.208 Y20.022 E0.0082
G1 X-92.714 Y19.595 E0.0209
G1 X-92.903 Y19.414 E0.0083
G1 X-93.349 Y18.925 E0.0209
G1 X-93.514 Y18.718 E0.0084
G1 X-93.893 Y18.174 E0.0210
G1 X-94.030 Y17.945 E0.0084
G1 X-94.333 Y17.354 E0.0210
G1 X-94.440 Y17.107 E0.0085
G1 X-94.661 Y16.481 E0.0210
G1 X-94.734 Y16.220 E0.0086
G1 X-94.868 Y15.569 E0.0210
G1 X-94.905 Y15.300 E0.0086
G1 X-94.946 Y14.704 E0.0189
G1 X-94.950 Y14.568 E0.0043
G1 X-94.950 Y-19.157 E1.0656
G1 X-92.607 Y-21.500 E0.1047
G1 X-52.883 Y-21.500 E1.2552
G1 X-50.540 Y-19.157 E0.1047
G1 X-50.540 Y-7.500 E0.3683
G1 E-2.0000 F1500
G1 X-50.940 Y-7.100 F4200
G1 E2.0000 F1500
G1 X92.441 Y-7.100 E4.5304 F960
G1 X94.550 Y-4.991 E0.0942
G1 X94.550 Y15.991 E0.6630
G1 X92.441 Y18.100 E0.0942
G1 X-52.033 Y18.100 E4.5650
G1 X-52.296 Y18.479 E0.0146
G1 X-52.445 Y18.665 E0.0075
G1 X-52.874 Y19.135 E0.0201
G1 X-53.043 Y19.298 E0.0074
G1 X-53.530 Y19.708 E0.0201
G1 X-53.717 Y19.846 E0.0074
G1 X-54.252 Y20.189 E0.0201
G1 X-54.454 Y20.302 E0.0073
G1 X-55.028 Y20.574 E0.0201
G1 X-55.241 Y20.658 E0.0072
G1 X-55.844 Y20.855 E0.0201
G1 X-56.065 Y20.912 E0.0072
G1 X-56.689 Y21.032 E0.0201
G1 X-56.914 Y21.060 E0.0072
G1 X-57.491 Y21.096 E0.0183
G1 X-57.604 Y21.100 E0.0036
G1 X-87.900 Y21.099 E0.9573
G1 X-88.013 Y21.096 E0.0036
G1 X-88.576 Y21.060 E0.0178
G1 X-88.801 Y21.032 E0.0072
G1 X-89.425 Y20.912 E0.0201
G1 X-89.646 Y20.856 E0.0072
G1 X-90.249 Y20.659 E0.0201
G1 X-90.462 Y20.574 E0.0072
G1 X-91.036 Y20.302 E0.0201
G1 X-91.238 Y20.190 E0.0073
G1 X-91.773 Y19.846 E0.0201
G1 X-91.960 Y19.708 E0.0074
G1 X-92.446 Y19.298 E0.0201
G1 X-92.616 Y19.135 E0.0074
G1 X-93.045 Y18.665 E0.0201
G1 X-93.193 Y18.479 E0.0075
G1 X-93.557 Y17.956 E0.0201
G1 X-93.680 Y17.750 E0.0076
G1 X-93.971 Y17.184 E0.0201
G1 X-94.067 Y16.961 E0.0077
G1 X-94.279 Y16.360 E0.0201
G1 X-94.345 Y16.125 E0.0077
G1 X-94.474 Y15.501 E0.0201
G1 X-94.507 Y15.259 E0.0077
G1 X-94.546 Y14.684 E0.0182
G1 X-94.550 Y14.561 E0.0039
G1 X-94.550 Y-18.991 E1.0602
G1 X-92.441 Y-21.100 E0.0942
G1 X-53.049 Y-21.100 E1.2447
G1 X-50.940 Y-18.991 E0.0942
G1 X-50.940 Y-7.100 E0.3757
G1 E-2.0000 F1500
G1 X-51.340 Y-6.700 F4200
G1 E2.0000 F1500
G1 X92.276 Y-6.700 E4.5378 F960
G1 X94.150 Y-4.826 E0.0838
G1 X94.150 Y15.825 E0.6525
G1 X92.276 Y17.700 E0.0838
G1 X-52.246 Y17.700 E4.5665
G1 X-52.269 Y17.739 E0.0014
G1 X-52.617 Y18.240 E0.0193
G1 X-52.749 Y18.405 E0.0067
G1 X-53.160 Y18.855 E0.0193
G1 X-53.311 Y19.000 E0.0066
G1 X-53.777 Y19.393 E0.0193
G1 X-53.944 Y19.516 E0.0065
G1 X-54.457 Y19.846 E0.0193
G1 X-54.637 Y19.946 E0.0065
G1 X-55.188 Y20.207 E0.0193
G1 X-55.377 Y20.282 E0.0064
G1 X-55.956 Y20.471 E0.0193
G1 X-56.152 Y20.522 E0.0064
G1 X-56.751 Y20.636 E0.0193
G1 X-56.951 Y20.662 E0.0064
G1 X-57.510 Y20.697 E0.0177
G1 X-57.610 Y20.700 E0.0032
G1 X-87.893 Y20.699 E0.9569
G1 X-87.994 Y20.696 E0.0032
G1 X-88.539 Y20.662 E0.0172
G1 X-88.739 Y20.636 E0.0064
G1 X-89.338 Y20.522 E0.0193
G1 X-89.534 Y20.471 E0.0064
G1 X-90.113 Y20.282 E0.0193
G1 X-90.302 Y20.207 E0.0064
G1 X-90.853 Y19.946 E0.0193
G1 X-91.033 Y19.846 E0.0065
G1 X-91.546 Y19.517 E0.0193
G1 X-91.713 Y19.394 E0.0065
G1 X-92.179 Y19.001 E0.0193
G1 X-92.330 Y18.855 E0.0066
G1 X-92.741 Y18.405 E0.0193
G1 X-92.873 Y18.240 E0.0067
G1 X-93.221 Y17.739 E0.0193
G1 X-93.331 Y17.556 E0.0068
G1 X-93.609 Y17.013 E0.0193
G1 X-93.694 Y16.815 E0.0068
G1 X-93.897 Y16.240 E0.0193
G1 X-93.956 Y16.031 E0.0068
G1 X-94.079 Y15.434 E0.0193
G1 X-94.109 Y15.218 E0.0069
G1 X-94.147 Y14.663 E0.0176
G1 X-94.150 Y14.555 E0.0034
G1 X-94.150 Y-18.825 E1.0547
G1 X-92.276 Y-20.700 E0.0838
G1 X-53.214 Y-20.700 E1.2342
G1 X-51.340 Y-18.826 E0.0838
G1 X-51.340 Y-6.700 E0.3831
G1 E-2.0000 F1500
; feature inner perimeter
G1 X-52.740 Y-1.700 F4200
G1 E2.0000 F1500
G1 X89.150 Y-1.700 E4.4833 F720
G1 X89.150 Y12.700 E0.4550
G1 X-52.740 Y12.700 E4.4833
G1 X-52.740 Y-1.700 E0.4550
G1 X-53.140 Y-2.100 F4200
G1 X89.550 Y-2.100 E4.5086 F720
G1 X89.550 Y13.100 E0.4803
G1 X-53.140 Y13.100 E4.5086
G1 X-53.140 Y-2.100 E0.4803
G1 X-53.540 Y-2.500 F4200
G1 X89.950 Y-2.500 E4.5339 F720
G1 X89.950 Y13.500 E0.5056
G1 X-53.540 Y13.500 E4.5339
G1 X-53.540 Y-2.500 E0.5056
G1 X-53.940 Y-2.900 F4200
G1 X90.350 Y-2.900 E4.5591 F720
G1 X90.350 Y13.900 E0.5308
G1 X-53.940 Y13.900 E4.5591
G1 X-53.940 Y-2.900 E0.5308
; feature outer perimeter
G1 X-54.340 Y-3.300 F4200
G1 X90.750 Y-3.300 E4.5844 F480
G1 X90.750 Y14.300 E0.5561
G1 X-54.340 Y14.300 E4.5844
G1 X-54.340 Y-3.300 E0.5561
; feature solid layer
G1 X-52.400 Y12.088 F4200
G1 X-52.128 Y12.360 E0.0121 F768
G1 X-51.562 Y12.360 E0.0179
G1 X-52.400 Y11.523 E0.0374
G1 X-52.400 Y10.957 E0.0179
G1 X-50.997 Y12.360 E0.0627
G1 X-50.431 Y12.360 E0.0179
G1 X-52.400 Y10.391 E0.0880
G1 X-52.400 Y9.826 E0.0179
G1 X-49.865 Y12.360 E0.1132
G1 X-49.300 Y12.360 E0.0179
G1 X-52.400 Y9.260 E0.1385
G1 X-52.400 Y8.694 E0.0179
G1 X-48.734 Y12.360 E0.1638
G1 X-48.168 Y12.360 E0.0179
G1 X-52.400 Y8.129 E0.1891
G1 X-52.400 Y7.563 E0.0179
G1 X-47.603 Y12.360 E0.2144
G1 X-47.037 Y12.360 E0.0179
G1 X-52.400 Y6.997 E0.2396
G1 X-52.400 Y6.432 E0.0179
G1 X-46.471 Y12.360 E0.2649
G1 X-45.906 Y12.360 E0.0179
G1 X-52.400 Y5.866 E0.2902
G1 X-52.400 Y5.300 E0.0179
G1 X-45.340 Y12.360 E0.3155
G1 X-44.774 Y12.360 E0.0179
G1 X-52.400 Y4.735 E0.3407
G1 X-52.400 Y4.169 E0.0179
G1 X-44.209 Y12.360 E0.3660
G1 X-43.643 Y12.360 E0.0179
G1 X-52.400 Y3.603 E0.3913
G1 X-52.400 Y3.037 E0.0179
G1 X-43.077 Y12.360 E0.4166
G1 X-42.512 Y12.360 E0.0179
G1 X-52.400 Y2.472 E0.4419
G1 X-52.400 Y1.906 E0.0179
G1 X-41.946 Y12.360 E0.4671
