; G-Code generated by Simplify3D(R) Version 4.1.2
; Feb 20, 2021 at 12:01:46 PM
; Settings Summary
;   processName,High Quality ABS
;   applyToModels,base
;   profileName,FlashForge Creator Pro - Octoprint (modified)
;   profileVersion,2021-02-07 11:52:42
;   baseProfile,FlashForge Creator Pro(2) (modified)
;   printMaterial,ABS
;   printQuality,High
;   printExtruders,Right Extruder Only
;   extruderName,Right Extruder,Left Extruder
;   extruderToolheadNumber,0,1
;   extruderDiameter,0.4,0.4
;   extruderAutoWidth,0,0
;   extruderWidth,0.4,0.4
;   extrusionMultiplier,0.96,1
;   extruderUseRetract,1,1
;   extruderRetractionDistance,1.2,1
;   extruderExtraRestartDistance,0,0
;   extruderRetractionZLift,0,0
;   extruderRetractionSpeed,1500,1200
;   extruderUseCoasting,0,0
;   extruderCoastingDistance,0.2,0.2
;   extruderUseWipe,0,0
;   extruderWipeDistance,5,5
;   primaryExtruder,0
;   layerHeight,0.1
;   topSolidLayers,5
;   bottomSolidLayers,3
;   perimeterOutlines,4
;   printPerimetersInsideOut,1
;   startPointOption,2
;   startPointOriginX,0
;   startPointOriginY,0
;   sequentialIslands,0
;   spiralVaseMode,0
;   firstLayerHeightPercentage,200
;   firstLayerWidthPercentage,150
;   firstLayerUnderspeed,0.5
;   useRaft,0
;   raftExtruder,0
;   raftTopLayers,3
;   raftBaseLayers,2
;   raftOffset,3
;   raftSeparationDistance,0.14
;   raftTopInfill,100
;   aboveRaftSpeedMultiplier,0.3
;   useSkirt,1
;   skirtExtruder,0
;   skirtLayers,1
;   skirtOutlines,4
;   skirtOffset,3
;   usePrimePillar,0
;   primePillarExtruder,999
;   primePillarWidth,12
;   primePillarLocation,7
;   primePillarSpeedMultiplier,1
;   useOozeShield,0
;   oozeShieldExtruder,999
;   oozeShieldOffset,3
;   oozeShieldOutlines,2
;   oozeShieldSidewallShape,0
;   oozeShieldSidewallAngle,30
;   oozeShieldSpeedMultiplier,1
;   infillExtruder,0
;   internalInfillPattern,Triangular
;   externalInfillPattern,Rectilinear
;   infillPercentage,20
;   outlineOverlapPercentage,30
;   infillExtrusionWidthPercentage,100
;   minInfillLength,5
;   infillLayerInterval,1
;   internalInfillAngles,0,60,-60
;   overlapInternalInfillAngles,1
;   externalInfillAngles,45,-45
;   generateSupport,0
;   supportExtruder,1
;   supportInfillPercentage,90
;   supportExtraInflation,0
;   supportBaseLayers,0
;   denseSupportExtruder,0
;   denseSupportLayers,0
;   denseSupportInfillPercentage,70
;   supportLayerInterval,1
;   supportHorizontalPartOffset,0.3
;   supportUpperSeparationLayers,1
;   supportLowerSeparationLayers,1
;   supportType,0
;   supportGridSpacing,4
;   maxOverhangAngle,45
;   supportAngles,0
;   temperatureName,Right Extruder,Left Extruder,Heated Build Platform
;   temperatureNumber,0,1,0
;   temperatureSetpointCount,1,1,1
;   temperatureSetpointLayers,1,1,1
;   temperatureSetpointTemperatures,220,0,90
;   temperatureStabilizeAtStartup,1,0,0
;   temperatureHeatedBed,0,0,1
;   fanLayers,1
;   fanSpeeds,0
;   blipFanToFullPower,0
;   adjustSpeedForCooling,1
;   minSpeedLayerTime,15
;   minCoolingSpeedSlowdown,20
;   increaseFanForCooling,0
;   minFanLayerTime,45
;   maxCoolingFanSpeed,100
;   increaseFanForBridging,1
;   bridgingFanSpeed,100
;   use5D,1
;   relativeEdistances,1
;   allowEaxisZeroing,0
;   independentExtruderAxes,1
;   includeM10123,0
;   stickySupport,1
;   applyToolheadOffsets,0
;   gcodeXoffset,0
;   gcodeYoffset,0
;   gcodeZoffset,0
;   overrideMachineDefinition,1
;   machineTypeOverride,0
;   strokeXoverride,225
;   strokeYoverride,145
;   strokeZoverride,150
;   originOffsetXoverride,112.5
;   originOffsetYoverride,72.5
;   originOffsetZoverride,0
;   homeXdirOverride,1
;   homeYdirOverride,1
;   homeZdirOverride,-1
;   flipXoverride,1
;   flipYoverride,-1
;   flipZoverride,1
;   toolheadOffsets,0,0|34,0|0,0|0,0|0,0|0,0
;   overrideFirmwareConfiguration,1
;   firmwareTypeOverride,MakerBot/Sailfish Firmware
;   GPXconfigOverride,r1d
;   baudRateOverride,115200
;   overridePrinterModels,1
;   printerModelsOverride,FlashForge_CreatorPro.stl
;   startingGcode,; **** Replicator 1 dual start.gcode ****,M73 P0 ; enable build progress,G162 X Y F3000 ; home XY maximum,G161 Z F1200 ; home Z minimum,G92 Z-5 ; set Z to -5,G1 Z0 ; move Z to 0,G161 Z F100 ; home Z slowly,M132 X Y Z A B ; recall home offsets,M135 T0 ; load right extruder offsets,G1 X150 Y-70 Z30 F9000 ; move to wait position right hand side of the table,G130 X20 Y20 Z20 A20 B20 ; lower stepper Vrefs while heating,M126 S[fan_speed_pwm],M140 S[bed0_temperature] T0,M134 T0 ; stabilize bed temperature,M104 S[extruder0_temperature] T0,M133 T0 ; stabilize right extruder temperature,G130 X127 Y127 Z40 A127 B127 ; default stepper Vrefs,G92 A0 B0 ; zero extruders,G1 Z0.4 ; position nozzle,G1 X110 Y-70 E25 F300 ; purge nozzle,G1 X120 Y-70 Z0.15 F1200 ; slow wipe,G1 X110 Y-70 Z0.5 F1200 ; lift,G92 A0 B0 ; zero extruders,M73 P1 ;@body (notify GPX body has started),; **** end of start.gcode ****
;   layerChangeGcode,
;   retractionGcode,
;   toolChangeGcode,
;   endingGcode,; **** Replicator 1 dual end.gcode ****,M73 P100 ; end build progress,G1 Z150 F1000 ; send Z axis to bottom of machine,M140 S0 T0 ; cool down HBP,M104 S0 T0 ; cool down right extruder,M104 S0 T1 ; cool down left extruder,M127 ; stop blower fan,G162 X Y F3000 ; home XY maximum,M18 ; disable stepper,M72 P1 ; play Ta-Da song,; **** end of end.gcode ****
;   exportFileFormat,gcode
;   celebration,0
;   celebrationSong,Random Song
;   postProcessing,curl -k -H "X-Api-Key: 27C03DAE77BD475FAFE33C1E0B3A564D" -F "select=false" -F "print=false" -F "file=@[output_filepath]" "http://rpi42/api/files/local" {STRIP "; postProcessing"}
;   defaultSpeed,2700
;   outlineUnderspeed,0.5
;   solidInfillUnderspeed,0.8
;   supportUnderspeed,0.8
;   rapidXYspeed,4200
;   rapidZspeed,1200
;   minBridgingArea,5
;   bridgingExtraInflation,0
;   bridgingExtrusionMultiplier,0.95
;   bridgingSpeedMultiplier,1
;   useFixedBridgingAngle,0
;   fixedBridgingAngle,0
;   applyBridgingToPerimeters,1
;   filamentDiameters,1.75|1.75|1.75|1.75|1.75|1.75
;   filamentPricesPerKg,46|46|46|46|46|46
;   filamentDensities,1.25|1.25|1.25|1.25|1.25|1.25
;   useMinPrintHeight,0
;   minPrintHeight,0
;   useMaxPrintHeight,0
;   maxPrintHeight,0
;   useDiaphragm,0
;   diaphragmLayerInterval,20
;   robustSlicing,1
;   mergeAllIntoSolid,0
;   onlyRetractWhenCrossingOutline,1
;   retractBetweenLayers,1
;   useRetractionMinTravel,0
;   retractionMinTravel,3
;   retractWhileWiping,0
;   onlyWipeOutlines,1
;   avoidCrossingOutline,0
;   maxMovementDetourFactor,3
;   toolChangeRetractionDistance,12
;   toolChangeExtraRestartDistance,-0.5
;   toolChangeRetractionSpeed,600
;   externalThinWallType,0
;   internalThinWallType,2
;   thinWallAllowedOverlapPercentage,10
;   singleExtrusionMinLength,1
;   singleExtrusionMinPrintingWidthPercentage,50
;   singleExtrusionMaxPrintingWidthPercentage,200
;   singleExtrusionEndpointExtension,0.2
;   horizontalSizeCompensation,0
G90
M83
; **** Replicator 1 dual start.gcode ****
M73 P0 ; enable build progress
G162 X Y F3000 ; home XY maximum
G161 Z F1200 ; home Z minimum
G92 Z-5 ; set Z to -5
G1 Z0 ; move Z to 0
G161 Z F100 ; home Z slowly
M132 X Y Z A B ; recall home offsets
M135 T0 ; load right extruder offsets
G1 X150 Y-70 Z30 F9000 ; move to wait position right hand side of the table
G130 X20 Y20 Z20 A20 B20 ; lower stepper Vrefs while heating
M127
M140 S90 T0
M134 T0 ; stabilize bed temperature
M104 S220 T0
M133 T0 ; stabilize right extruder temperature
G130 X127 Y127 Z40 A127 B127 ; default stepper Vrefs
G92 A0 B0 ; zero extruders
G1 Z0.4 ; position nozzle
G1 X110 Y-70 E25 F300 ; purge nozzle
G1 X120 Y-70 Z0.15 F1200 ; slow wipe
G1 X110 Y-70 Z0.5 F1200 ; lift
G92 A0 B0 ; zero extruders
M73 P1 ;@body (notify GPX body has started)
; **** end of start.gcode ****
; process High Quality ABS
; layer 1, Z = 0.200
M135 T0
G1 E-1.2000 F1500
; feature skirt
; tool H0.200 W0.600
G1 Z0.200 F1200
G1 X19.238 Y-20.600 F4200
G1 E1.2000 F1500
G1 X22.225 Y-17.612 E0.2024 F1350
G1 X22.225 Y20.612 E1.8308
G1 X19.238 Y23.600 E0.2024
G1 X-21.987 Y23.600 E1.9745
G1 X-24.975 Y20.612 E0.2024
G1 X-24.975 Y-17.612 E1.8308
G1 X-21.987 Y-20.600 E0.2024
G1 X19.238 Y-20.600 E1.9745
G1 E-1.2000 F1500
G1 X18.989 Y-20.000 F4200
G1 E1.2000 F1500
G1 X21.625 Y-17.364 E0.1785 F1350
G1 X21.625 Y20.364 E1.8070
G1 X18.989 Y23.000 E0.1785
G1 X-21.738 Y23.000 E1.9506
G1 X-24.375 Y20.364 E0.1785
G1 X-24.375 Y-17.364 E1.8070
G1 X-21.738 Y-20.000 E0.1785
G1 X18.989 Y-20.000 E1.9506
G1 E-1.2000 F1500
G1 X18.741 Y-19.400 F4200
G1 E1.2000 F1500
G1 X21.025 Y-17.115 E0.1547 F1350
G1 X21.025 Y20.115 E1.7832
G1 X18.741 Y22.400 E0.1547
G1 X-21.490 Y22.400 E1.9268
G1 X-23.775 Y20.115 E0.1547
G1 X-23.775 Y-17.115 E1.7832
G1 X-21.490 Y-19.400 E0.1547
G1 X18.741 Y-19.400 E1.9268
G1 E-1.2000 F1500
G1 X18.492 Y-18.800 F4200
G1 E1.2000 F1500
G1 X20.425 Y-16.867 E0.1309 F1350
G1 X20.425 Y19.867 E1.7594
G1 X18.492 Y21.800 E0.1309
G1 X-21.241 Y21.800 E1.9030
G1 X-23.175 Y19.867 E0.1309
G1 X-23.175 Y-16.867 E1.7594
G1 X-21.241 Y-18.800 E0.1309
G1 X18.492 Y-18.800 E1.9030
G1 E-1.2000 F1500
; feature inner perimeter
G1 X15.025 Y-13.400 F4200
G1 E1.2000 F1500
G1 X15.025 Y16.400 E1.4273 F1013
G1 X-17.775 Y16.400 E1.5709
G1 X-17.775 Y-13.400 E1.4273
G1 X15.025 Y-13.400 E1.5709
G1 X15.625 Y-14.000 F4200
G1 X15.625 Y17.000 E1.4847 F1013
G1 X-18.375 Y17.000 E1.6284
G1 X-18.375 Y-14.000 E1.4847
G1 X15.625 Y-14.000 E1.6284
G1 X16.225 Y-14.600 F4200
G1 X16.225 Y17.600 E1.5422 F1013
G1 X-18.975 Y17.600 E1.6859
G1 X-18.975 Y-14.600 E1.5422
G1 X16.225 Y-14.600 E1.6859
; feature outer perimeter
G1 X16.825 Y-15.200 F4200
G1 X16.825 Y18.200 E1.5997 F675
G1 X-19.575 Y18.200 E1.7434
G1 X-19.575 Y-15.200 E1.5997
G1 X16.825 Y-15.200 E1.7434
; feature inner perimeter
G1 X10.883 Y-10.434 F4200
G1 X10.322 Y-10.823 E0.0327 F1013
G1 X9.681 Y-11.053 E0.0327
G1 X9.001 Y-11.110 E0.0327
G1 X8.329 Y-10.989 E0.0327
G1 X7.713 Y-10.698 E0.0327
G1 X7.192 Y-10.257 E0.0327
G1 X6.803 Y-9.697 E0.0327
G1 X6.572 Y-9.055 E0.0327
G1 X6.515 Y-8.375 E0.0327
G1 X6.637 Y-7.704 E0.0327
G1 X6.928 Y-7.087 E0.0327
G1 X7.368 Y-6.566 E0.0327
G1 X7.928 Y-6.177 E0.0327
G1 X8.579 Y-5.943 E0.0331
G1 X9.274 Y-5.894 E0.0333
G1 X9.921 Y-6.011 E0.0315
G1 X10.538 Y-6.302 E0.0327
G1 X11.059 Y-6.743 E0.0327
G1 X11.448 Y-7.303 E0.0327
G1 X11.679 Y-7.945 E0.0327
G1 X11.735 Y-8.625 E0.0327
G1 X11.614 Y-9.296 E0.0327
G1 X11.323 Y-9.913 E0.0327
G1 X10.883 Y-10.434 E0.0327
G1 X10.476 Y-9.986 F4200
G1 X10.045 Y-10.285 E0.0251 F1013
G1 X9.552 Y-10.462 E0.0251
G1 X9.030 Y-10.505 E0.0251
G1 X8.514 Y-10.412 E0.0251
G1 X8.040 Y-10.189 E0.0251
G1 X7.640 Y-9.850 E0.0251
G1 X7.341 Y-9.420 E0.0251
G1 X7.164 Y-8.927 E0.0251
G1 X7.120 Y-8.404 E0.0251
G1 X7.213 Y-7.888 E0.0251
G1 X7.437 Y-7.414 E0.0251
G1 X7.775 Y-7.014 E0.0251
G1 X8.206 Y-6.715 E0.0251
G1 X8.704 Y-6.536 E0.0254
G1 X9.241 Y-6.498 E0.0258
G1 X9.737 Y-6.588 E0.0241
G1 X10.211 Y-6.811 E0.0251
G1 X10.611 Y-7.150 E0.0251
G1 X10.910 Y-7.580 E0.0251
G1 X11.087 Y-8.073 E0.0251
G1 X11.131 Y-8.596 E0.0251
G1 X11.038 Y-9.112 E0.0251
G1 X10.814 Y-9.586 E0.0251
G1 X10.476 Y-9.986 E0.0251
; feature outer perimeter
G1 X10.069 Y-9.538 F4200
G1 X9.768 Y-9.747 E0.0175 F675
G1 X9.423 Y-9.871 E0.0175
G1 X9.059 Y-9.901 E0.0175
G1 X8.698 Y-9.836 E0.0175
G1 X8.367 Y-9.680 E0.0175
G1 X8.087 Y-9.443 E0.0175
G1 X7.879 Y-9.143 E0.0175
G1 X7.755 Y-8.798 E0.0175
G1 X7.724 Y-8.433 E0.0175
G1 X7.790 Y-8.073 E0.0175
G1 X7.946 Y-7.742 E0.0175
G1 X8.182 Y-7.462 E0.0175
G1 X8.483 Y-7.253 E0.0175
G1 X8.829 Y-7.129 E0.0176
G1 X9.208 Y-7.102 E0.0182
G1 X9.553 Y-7.164 E0.0168
G1 X9.884 Y-7.320 E0.0175
G1 X10.163 Y-7.557 E0.0175
G1 X10.372 Y-7.857 E0.0175
G1 X10.496 Y-8.202 E0.0175
G1 X10.526 Y-8.567 E0.0175
G1 X10.461 Y-8.927 E0.0175
G1 X10.305 Y-9.258 E0.0175
G1 X10.069 Y-9.538 E0.0175
; feature inner perimeter
G1 X11.290 Y-10.882 F4200
G1 X10.600 Y-11.361 E0.0402 F1013
G1 X9.809 Y-11.645 E0.0402
G1 X8.972 Y-11.714 E0.0402
G1 X8.145 Y-11.565 E0.0402
G1 X7.385 Y-11.207 E0.0402
G1 X6.744 Y-10.664 E0.0402
G1 X6.265 Y-9.974 E0.0402
G1 X5.981 Y-9.184 E0.0402
G1 X5.911 Y-8.346 E0.0402
G1 X5.941 Y-8.178 E0.0082
G1 X5.586 Y-7.995 E0.0191
G1 X5.037 Y-8.558 E0.0376
G1 X4.445 Y-9.070 E0.0375
G1 X3.812 Y-9.532 E0.0375
G1 X3.143 Y-9.938 E0.0375
G1 X2.442 Y-10.288 E0.0375
G1 X1.714 Y-10.577 E0.0375
G1 X0.965 Y-10.805 E0.0375
G1 X0.199 Y-10.969 E0.0375
G1 X-0.578 Y-11.068 E0.0375
G1 X-1.361 Y-11.102 E0.0375
G1 X-2.143 Y-11.070 E0.0375
G1 X-2.920 Y-10.973 E0.0375
G1 X-3.687 Y-10.811 E0.0375
G1 X-4.437 Y-10.586 E0.0375
G1 X-5.166 Y-10.299 E0.0375
G1 X-5.868 Y-9.952 E0.0375
G1 X-6.538 Y-9.547 E0.0375
G1 X-7.173 Y-9.088 E0.0375
G1 X-7.766 Y-8.577 E0.0375
G1 X-8.353 Y-7.979 E0.0401
G1 X-8.703 Y-8.150 E0.0186
G1 X-8.656 Y-8.500 E0.0169
G1 X-8.766 Y-9.333 E0.0402
G1 X-9.088 Y-10.109 E0.0402
G1 X-9.599 Y-10.776 E0.0402
G1 X-10.265 Y-11.287 E0.0402
G1 X-11.042 Y-11.608 E0.0402
G1 X-11.875 Y-11.718 E0.0402
G1 X-12.707 Y-11.608 E0.0402
G1 X-13.484 Y-11.287 E0.0402
G1 X-14.150 Y-10.776 E0.0402
G1 X-14.662 Y-10.109 E0.0402
G1 X-14.983 Y-9.333 E0.0402
G1 X-15.093 Y-8.500 E0.0402
G1 X-14.983 Y-7.667 E0.0402
G1 X-14.662 Y-6.891 E0.0402
G1 X-14.150 Y-6.224 E0.0402
G1 X-13.484 Y-5.713 E0.0402
G1 X-12.707 Y-5.392 E0.0402
G1 X-11.861 Y-5.280 E0.0409
G1 X-11.016 Y-5.402 E0.0409
G1 X-9.796 Y-5.908 E0.0633
G1 X-10.264 Y-4.653 E0.0641
G1 X-10.476 Y-3.899 E0.0375
G1 X-10.624 Y-3.130 E0.0375
G1 X-10.707 Y-2.351 E0.0375
G1 X-10.725 Y-1.568 E0.0375
G1 X-10.677 Y-0.786 E0.0375
G1 X-10.563 Y-0.011 E0.0375
G1 X-10.386 Y0.752 E0.0375
G1 X-10.145 Y1.497 E0.0375
G1 X-9.757 Y2.424 E0.0481
G1 X-11.042 Y1.892 E0.0666
G1 X-11.875 Y1.782 E0.0402
G1 X-12.707 Y1.892 E0.0402
G1 X-13.484 Y2.213 E0.0402
G1 X-14.150 Y2.724 E0.0402
G1 X-14.662 Y3.391 E0.0402
G1 X-14.983 Y4.167 E0.0402
G1 X-15.093 Y5.000 E0.0402
G1 X-14.983 Y5.833 E0.0402
G1 X-14.662 Y6.609 E0.0402
G1 X-14.150 Y7.276 E0.0402
G1 X-13.484 Y7.787 E0.0402
G1 X-12.707 Y8.108 E0.0402
G1 X-11.875 Y8.218 E0.0402
G1 X-11.042 Y8.108 E0.0402
G1 X-10.265 Y7.787 E0.0402
G1 X-9.599 Y7.276 E0.0402
G1 X-9.104 Y6.631 E0.0389
G1 X-8.768 Y5.846 E0.0409
G1 X-8.656 Y5.000 E0.0409
G1 X-8.704 Y4.642 E0.0173
G1 X-8.342 Y4.476 E0.0191
G1 X-8.066 Y4.783 E0.0198
G1 X-7.496 Y5.320 E0.0375
G1 X-6.883 Y5.808 E0.0375
G1 X-6.231 Y6.242 E0.0375
G1 X-5.545 Y6.620 E0.0375
G1 X-4.830 Y6.940 E0.0375
G1 X-4.091 Y7.199 E0.0375
G1 X-3.332 Y7.395 E0.0375
G1 X-2.560 Y7.526 E0.0375
G1 X-1.780 Y7.593 E0.0375
G1 X-0.997 Y7.594 E0.0375
G1 X-0.216 Y7.530 E0.0375
G1 X0.556 Y7.400 E0.0375
G1 X1.315 Y7.207 E0.0375
G1 X2.055 Y6.950 E0.0375
G1 X2.771 Y6.633 E0.0375
G1 X3.458 Y6.256 E0.0375
G1 X4.111 Y5.824 E0.0375
G1 X4.726 Y5.338 E0.0375
G1 X5.297 Y4.803 E0.0375
G1 X5.594 Y4.474 E0.0212
G1 X5.953 Y4.636 E0.0189
G1 X5.912 Y5.000 E0.0175
G1 X5.993 Y5.715 E0.0345
G1 X6.230 Y6.394 E0.0345
G1 X6.613 Y7.003 E0.0345
G1 X7.122 Y7.512 E0.0345
G1 X7.731 Y7.895 E0.0345
G1 X8.410 Y8.133 E0.0345
G1 X9.125 Y8.213 E0.0345
G1 X9.840 Y8.133 E0.0345
G1 X10.520 Y7.895 E0.0345
G1 X11.129 Y7.512 E0.0345
G1 X11.638 Y7.003 E0.0345
G1 X12.021 Y6.394 E0.0345
G1 X12.258 Y5.715 E0.0345
G1 X12.339 Y5.000 E0.0345
G1 X12.258 Y4.285 E0.0345
G1 X12.021 Y3.606 E0.0345
G1 X11.638 Y2.997 E0.0345
G1 X11.129 Y2.488 E0.0345
G1 X10.520 Y2.105 E0.0345
G1 X9.840 Y1.867 E0.0345
G1 X9.125 Y1.787 E0.0345
G1 X8.410 Y1.867 E0.0345
G1 X7.731 Y2.105 E0.0345
G1 X7.485 Y2.260 E0.0139
G1 X7.183 Y2.003 E0.0190
G1 X7.386 Y1.523 E0.0250
G1 X7.629 Y0.778 E0.0375
G1 X7.809 Y0.016 E0.0375
G1 X7.925 Y-0.759 E0.0375
G1 X7.975 Y-1.540 E0.0375
G1 X7.960 Y-2.323 E0.0375
G1 X7.879 Y-3.102 E0.0375
G1 X7.733 Y-3.872 E0.0375
G1 X7.524 Y-4.627 E0.0375
G1 X7.072 Y-5.848 E0.0624
G1 X8.454 Y-5.351 E0.0704
G1 X9.306 Y-5.290 E0.0409
G1 X10.106 Y-5.435 E0.0389
G1 X10.866 Y-5.793 E0.0402
G1 X11.507 Y-6.336 E0.0402
G1 X11.986 Y-7.026 E0.0402
G1 X12.270 Y-7.816 E0.0402
G1 X12.340 Y-8.654 E0.0402
G1 X12.191 Y-9.480 E0.0402
G1 X11.832 Y-10.240 E0.0402
G1 X11.290 Y-10.882 E0.0402
G1 E-1.2000 F1500
G1 X5.604 Y-7.031 F4200
G1 E1.2000 F1500
