; G-Code generated by Simplify3D(R) Version 4.1.2
; Feb 23, 2021 at 7:35:05 PM
; Settings Summary
;   processName,High Quality ABS
;   applyToModels,box
;   profileName,FlashForge Creator Pro - Octoprint (modified)
;   profileVersion,2021-02-07 11:52:42
;   baseProfile,FlashForge Creator Pro(2) (modified)
;   printMaterial,ABS
;   printQuality,High
;   printExtruders,Left Extruder Only
;   extruderName,Right Extruder,Left Extruder
;   extruderToolheadNumber,0,1
;   extruderDiameter,0.4,0.4
;   extruderAutoWidth,0,0
;   extruderWidth,0.4,0.4
;   extrusionMultiplier,1,0.95
;   extruderUseRetract,1,1
;   extruderRetractionDistance,1.2,2
;   extruderExtraRestartDistance,0,0
;   extruderRetractionZLift,0,0
;   extruderRetractionSpeed,1500,1500
;   extruderUseCoasting,0,0
;   extruderCoastingDistance,0.2,0.2
;   extruderUseWipe,0,0
;   extruderWipeDistance,5,5
;   primaryExtruder,1
;   layerHeight,0.1
;   topSolidLayers,6
;   bottomSolidLayers,3
;   perimeterOutlines,6
;   printPerimetersInsideOut,1
;   startPointOption,2
;   startPointOriginX,0
;   startPointOriginY,0
;   sequentialIslands,0
;   spiralVaseMode,0
;   firstLayerHeightPercentage,200
;   firstLayerWidthPercentage,200
;   firstLayerUnderspeed,0.4
;   useRaft,0
;   raftExtruder,1
;   raftTopLayers,3
;   raftBaseLayers,2
;   raftOffset,3
;   raftSeparationDistance,0.14
;   raftTopInfill,100
;   aboveRaftSpeedMultiplier,0.3
;   useSkirt,1
;   skirtExtruder,1
;   skirtLayers,1
;   skirtOutlines,4
;   skirtOffset,3
;   usePrimePillar,0
;   primePillarExtruder,999
;   primePillarWidth,12
;   primePillarLocation,7
;   primePillarSpeedMultiplier,1
;   useOozeShield,0
;   oozeShieldExtruder,999
;   oozeShieldOffset,3
;   oozeShieldOutlines,2
;   oozeShieldSidewallShape,0
;   oozeShieldSidewallAngle,30
;   oozeShieldSpeedMultiplier,1
;   infillExtruder,1
;   internalInfillPattern,Triangular
;   externalInfillPattern,Rectilinear
;   infillPercentage,35
;   outlineOverlapPercentage,15
;   infillExtrusionWidthPercentage,100
;   minInfillLength,5
;   infillLayerInterval,1
;   internalInfillAngles,0,60,-60
;   overlapInternalInfillAngles,1
;   externalInfillAngles,45,-45
;   generateSupport,0
;   supportExtruder,1
;   supportInfillPercentage,90
;   supportExtraInflation,0
;   supportBaseLayers,0
;   denseSupportExtruder,1
;   denseSupportLayers,0
;   denseSupportInfillPercentage,70
;   supportLayerInterval,1
;   supportHorizontalPartOffset,0.3
;   supportUpperSeparationLayers,1
;   supportLowerSeparationLayers,1
;   supportType,0
;   supportGridSpacing,4
;   maxOverhangAngle,45
;   supportAngles,0
;   temperatureName,Right Extruder,Left Extruder,Heated Build Platform
;   temperatureNumber,0,1,0
;   temperatureSetpointCount,1,1,1
;   temperatureSetpointLayers,1,1,1
;   temperatureSetpointTemperatures,0,235,110
;   temperatureStabilizeAtStartup,0,1,0
;   temperatureHeatedBed,0,0,1
;   fanLayers,1
;   fanSpeeds,0
;   blipFanToFullPower,0
;   adjustSpeedForCooling,1
;   minSpeedLayerTime,15
;   minCoolingSpeedSlowdown,20
;   increaseFanForCooling,0
;   minFanLayerTime,45
;   maxCoolingFanSpeed,100
;   increaseFanForBridging,0
;   bridgingFanSpeed,100
;   use5D,1
;   relativeEdistances,1
;   allowEaxisZeroing,0
;   independentExtruderAxes,1
;   includeM10123,0
;   stickySupport,1
;   applyToolheadOffsets,0
;   gcodeXoffset,0
;   gcodeYoffset,0
;   gcodeZoffset,0
;   overrideMachineDefinition,1
;   machineTypeOverride,0
;   strokeXoverride,225
;   strokeYoverride,145
;   strokeZoverride,150
;   originOffsetXoverride,112.5
;   originOffsetYoverride,72.5
;   originOffsetZoverride,0
;   homeXdirOverride,1
;   homeYdirOverride,1
;   homeZdirOverride,-1
;   flipXoverride,1
;   flipYoverride,-1
;   flipZoverride,1
;   toolheadOffsets,0,0|34,0|0,0|0,0|0,0|0,0
;   overrideFirmwareConfiguration,1
;   firmwareTypeOverride,MakerBot/Sailfish Firmware
;   GPXconfigOverride,r1d
;   baudRateOverride,115200
;   overridePrinterModels,1
;   printerModelsOverride,FlashForge_CreatorPro.stl
;   startingGcode,; **** Replicator 1 dual start.gcode ****,M73 P0 ; enable build progress,G162 X Y F3000 ; home XY maximum,G161 Z F1200 ; home Z minimum,G92 Z-5 ; set Z to -5,G1 Z0 ; move Z to 0,G161 Z F100 ; home Z slowly,M132 X Y Z A B ; recall home offsets,M135 T0 ; load right extruder offsets,G1 X-110 Y-70 Z30 F9000 ; move to wait position left hand side of the table,G130 X20 Y20 Z20 A20 B20 ; lower stepper Vrefs while heating,M126 S[fan_speed_pwm],M140 S[bed0_temperature] T0,M134 T0 ; stabilize bed temperature,M104 S[extruder1_temperature] T1,M133 T1 ; stabilize left extruder temperature,G130 X127 Y127 Z40 A127 B127 ; default stepper Vrefs,G92 A0 B0 ; zero extruders,G1 Z0.4 ; position nozzle,M135 T1 ; left tool,G1 X-140 Y-70 F9000 ; reposition nozzle,G1 X-100 Y-70 E25 F300 ; purge nozzle,G1 X-110 Y-70 Z0.15 F1200 ; slow wipe,G1 X-100 Y-70 Z0.5 F1200 ; lift,G92 A0 B0 ; zero extruders,M73 P1 ;@body (notify GPX body has started),; **** end of start.gcode ****
;   layerChangeGcode,
;   retractionGcode,
;   toolChangeGcode,
;   endingGcode,; **** Replicator 1 dual end.gcode ****,M73 P100 ; end build progress,G1 Z150 F1000 ; send Z axis to bottom of machine,M140 S0 T0 ; cool down HBP,M104 S0 T0 ; cool down right extruder,M104 S0 T1 ; cool down left extruder,M127 ; stop blower fan,G162 X Y F3000 ; home XY maximum,M18 ; disable stepper,M72 P1 ; play Ta-Da song,; **** end of end.gcode ****
;   exportFileFormat,gcode
;   celebration,0
;   celebrationSong,Random Song
;   postProcessing,curl -k -H "X-Api-Key: 27C03DAE77BD475FAFE33C1E0B3A564D" -F "select=false" -F "print=false" -F "file=@[output_filepath]" "http://rpi42/api/files/local" {STRIP "; postProcessing"}
;   defaultSpeed,2400
;   outlineUnderspeed,0.5
;   solidInfillUnderspeed,0.8
;   supportUnderspeed,0.8
;   rapidXYspeed,4200
;   rapidZspeed,1200
;   minBridgingArea,5
;   bridgingExtraInflation,0
;   bridgingExtrusionMultiplier,0.95
;   bridgingSpeedMultiplier,1
;   useFixedBridgingAngle,0
;   fixedBridgingAngle,0
;   applyBridgingToPerimeters,1
;   filamentDiameters,1.75|1.75|1.75|1.75|1.75|1.75
;   filamentPricesPerKg,46|46|46|46|46|46
;   filamentDensities,1.25|1.25|1.25|1.25|1.25|1.25
;   useMinPrintHeight,0
;   minPrintHeight,0
;   useMaxPrintHeight,0
;   maxPrintHeight,0
;   useDiaphragm,0
;   diaphragmLayerInterval,20
;   robustSlicing,1
;   mergeAllIntoSolid,0
;   onlyRetractWhenCrossingOutline,1
;   retractBetweenLayers,1
;   useRetractionMinTravel,0
;   retractionMinTravel,3
;   retractWhileWiping,0
;   onlyWipeOutlines,1
;   avoidCrossingOutline,0
;   maxMovementDetourFactor,3
;   toolChangeRetractionDistance,12
;   toolChangeExtraRestartDistance,-0.5
;   toolChangeRetractionSpeed,600
;   externalThinWallType,0
;   internalThinWallType,2
;   thinWallAllowedOverlapPercentage,10
;   singleExtrusionMinLength,1
;   singleExtrusionMinPrintingWidthPercentage,50
;   singleExtrusionMaxPrintingWidthPercentage,200
;   singleExtrusionEndpointExtension,0.2
;   horizontalSizeCompensation,0
G90
M83
; **** Replicator 1 dual start.gcode ****
M73 P0 ; enable build progress
G162 X Y F3000 ; home XY maximum
G161 Z F1200 ; home Z minimum
G92 Z-5 ; set Z to -5
G1 Z0 ; move Z to 0
G161 Z F100 ; home Z slowly
M132 X Y Z A B ; recall home offsets
M135 T0 ; load right extruder offsets
G1 X-110 Y-70 Z30 F9000 ; move to wait position left hand side of the table
G130 X20 Y20 Z20 A20 B20 ; lower stepper Vrefs while heating
M127
M140 S110 T0
M134 T0 ; stabilize bed temperature
M104 S235 T1
M133 T1 ; stabilize left extruder temperature
G130 X127 Y127 Z40 A127 B127 ; default stepper Vrefs
G92 A0 B0 ; zero extruders
G1 Z0.4 ; position nozzle
M135 T1 ; left tool
G1 X-140 Y-70 F9000 ; reposition nozzle
G1 X-100 Y-70 E25 F300 ; purge nozzle
G1 X-110 Y-70 Z0.15 F1200 ; slow wipe
G1 X-100 Y-70 Z0.5 F1200 ; lift
G92 A0 B0 ; zero extruders
M73 P1 ;@body (notify GPX body has started)
; **** end of start.gcode ****
; process High Quality ABS
; layer 1, Z = 0.200
M135 T1
G1 E-2.0000 F1500
; feature skirt
; tool H0.200 W0.800
G1 Z0.200 F1200
G1 X21.922 Y16.095 F4200
G1 E2.0000 F1500
G1 X21.916 Y16.285 E0.0120 F960
G1 X21.871 Y16.960 E0.0428
G1 X21.822 Y17.337 E0.0240
G1 X21.671 Y18.094 E0.0488
G1 X21.573 Y18.461 E0.0240
G1 X21.325 Y19.192 E0.0488
G1 X21.179 Y19.543 E0.0240
G1 X20.838 Y20.235 E0.0488
G1 X20.648 Y20.564 E0.0240
G1 X20.219 Y21.206 E0.0488
G1 X19.988 Y21.508 E0.0240
G1 X19.479 Y22.088 E0.0488
G1 X19.210 Y22.357 E0.0240
G1 X18.628 Y22.867 E0.0489
G1 X18.325 Y23.100 E0.0242
G1 X17.679 Y23.530 E0.0490
G1 X17.353 Y23.718 E0.0238
G1 X16.665 Y24.057 E0.0485
G1 X16.314 Y24.203 E0.0240
G1 X15.583 Y24.451 E0.0488
G1 X15.216 Y24.549 E0.0240
G1 X14.459 Y24.700 E0.0488
G1 X14.082 Y24.749 E0.0240
G1 X13.407 Y24.794 E0.0428
G1 X13.217 Y24.800 E0.0120
G1 X-15.973 Y24.800 E1.8446
G1 X-16.163 Y24.794 E0.0120
G1 X-16.838 Y24.749 E0.0428
G1 X-17.215 Y24.700 E0.0240
G1 X-17.972 Y24.549 E0.0488
G1 X-18.339 Y24.451 E0.0240
G1 X-19.070 Y24.203 E0.0488
G1 X-19.421 Y24.057 E0.0240
G1 X-20.114 Y23.716 E0.0488
G1 X-20.443 Y23.526 E0.0240
G1 X-21.084 Y23.097 E0.0488
G1 X-21.386 Y22.866 E0.0240
G1 X-21.966 Y22.357 E0.0488
G1 X-22.235 Y22.088 E0.0240
G1 X-22.744 Y21.508 E0.0488
G1 X-22.975 Y21.206 E0.0240
G1 X-23.404 Y20.564 E0.0488
G1 X-23.594 Y20.236 E0.0240
G1 X-23.935 Y19.543 E0.0488
G1 X-24.081 Y19.192 E0.0240
G1 X-24.329 Y18.461 E0.0488
G1 X-24.427 Y18.094 E0.0240
G1 X-24.578 Y17.337 E0.0488
G1 X-24.628 Y16.960 E0.0240
G1 X-24.672 Y16.285 E0.0428
G1 X-24.678 Y16.095 E0.0120
G1 X-24.678 Y-16.095 E2.0342
G1 X-24.672 Y-16.285 E0.0120
G1 X-24.628 Y-16.961 E0.0428
G1 X-24.578 Y-17.337 E0.0240
G1 X-24.427 Y-18.094 E0.0488
G1 X-24.329 Y-18.461 E0.0240
G1 X-24.081 Y-19.192 E0.0488
G1 X-23.935 Y-19.543 E0.0240
G1 X-23.594 Y-20.236 E0.0488
G1 X-23.404 Y-20.564 E0.0240
G1 X-22.975 Y-21.206 E0.0488
G1 X-22.744 Y-21.508 E0.0240
G1 X-22.235 Y-22.088 E0.0488
G1 X-21.966 Y-22.357 E0.0240
G1 X-21.386 Y-22.866 E0.0488
G1 X-21.084 Y-23.097 E0.0240
G1 X-20.442 Y-23.526 E0.0488
G1 X-20.114 Y-23.716 E0.0240
G1 X-19.421 Y-24.058 E0.0488
G1 X-19.070 Y-24.203 E0.0240
G1 X-18.338 Y-24.451 E0.0488
G1 X-17.970 Y-24.550 E0.0241
G1 X-17.210 Y-24.701 E0.0489
G1 X-16.836 Y-24.750 E0.0239
G1 X-16.163 Y-24.794 E0.0426
G1 X-15.973 Y-24.800 E0.0120
G1 X13.219 Y-24.800 E1.8447
G1 X13.412 Y-24.794 E0.0122
G1 X14.091 Y-24.748 E0.0430
G1 X14.464 Y-24.699 E0.0238
G1 X15.216 Y-24.549 E0.0485
G1 X15.583 Y-24.451 E0.0240
G1 X16.314 Y-24.203 E0.0488
G1 X16.665 Y-24.058 E0.0240
G1 X17.358 Y-23.716 E0.0488
G1 X17.686 Y-23.526 E0.0240
G1 X18.328 Y-23.097 E0.0488
G1 X18.630 Y-22.866 E0.0240
G1 X19.210 Y-22.357 E0.0488
G1 X19.479 Y-22.088 E0.0240
G1 X19.988 Y-21.508 E0.0488
G1 X20.219 Y-21.207 E0.0240
G1 X20.648 Y-20.565 E0.0488
G1 X20.838 Y-20.236 E0.0240
G1 X21.179 Y-19.543 E0.0488
G1 X21.325 Y-19.192 E0.0240
G1 X21.573 Y-18.461 E0.0488
G1 X21.671 Y-18.095 E0.0240
G1 X21.822 Y-17.337 E0.0488
G1 X21.871 Y-16.960 E0.0240
G1 X21.916 Y-16.285 E0.0428
G1 X21.922 Y-16.095 E0.0120
G1 X21.922 Y16.095 E2.0342
G1 E-2.0000 F1500
G1 X21.122 Y16.082 F4200
G1 E2.0000 F1500
G1 X21.117 Y16.245 E0.0103 F960
G1 X21.075 Y16.882 E0.0403
G1 X21.032 Y17.207 E0.0207
G1 X20.892 Y17.913 E0.0455
G1 X20.807 Y18.229 E0.0207
G1 X20.576 Y18.910 E0.0455
G1 X20.450 Y19.213 E0.0207
G1 X20.132 Y19.858 E0.0455
G1 X19.968 Y20.142 E0.0207
G1 X19.568 Y20.740 E0.0455
G1 X19.369 Y21.000 E0.0207
G1 X18.895 Y21.541 E0.0455
G1 X18.663 Y21.773 E0.0207
G1 X18.121 Y22.248 E0.0456
G1 X17.859 Y22.449 E0.0209
G1 X17.257 Y22.850 E0.0457
G1 X16.976 Y23.012 E0.0205
G1 X16.335 Y23.328 E0.0452
G1 X16.032 Y23.454 E0.0207
G1 X15.351 Y23.685 E0.0455
G1 X15.034 Y23.770 E0.0207
G1 X14.328 Y23.910 E0.0455
G1 X14.004 Y23.953 E0.0207
G1 X13.367 Y23.995 E0.0403
G1 X13.204 Y24.000 E0.0103
G1 X-15.960 Y24.000 E1.8430
G1 X-16.123 Y23.995 E0.0103
G1 X-16.760 Y23.953 E0.0403
G1 X-17.085 Y23.910 E0.0207
G1 X-17.791 Y23.770 E0.0455
G1 X-18.107 Y23.685 E0.0207
G1 X-18.788 Y23.454 E0.0455
G1 X-19.091 Y23.328 E0.0207
G1 X-19.736 Y23.010 E0.0455
G1 X-20.020 Y22.846 E0.0207
G1 X-20.618 Y22.446 E0.0455
G1 X-20.878 Y22.247 E0.0207
G1 X-21.419 Y21.773 E0.0455
G1 X-21.651 Y21.541 E0.0207
G1 X-22.125 Y21.000 E0.0455
G1 X-22.325 Y20.740 E0.0207
G1 X-22.724 Y20.142 E0.0455
G1 X-22.888 Y19.858 E0.0207
G1 X-23.206 Y19.213 E0.0455
G1 X-23.332 Y18.910 E0.0207
G1 X-23.563 Y18.228 E0.0455
G1 X-23.648 Y17.912 E0.0207
G1 X-23.788 Y17.206 E0.0455
G1 X-23.831 Y16.882 E0.0207
G1 X-23.873 Y16.245 E0.0403
G1 X-23.878 Y16.082 E0.0103
G1 X-23.878 Y-16.082 E2.0326
G1 X-23.873 Y-16.245 E0.0103
G1 X-23.831 Y-16.882 E0.0403
G1 X-23.788 Y-17.207 E0.0207
G1 X-23.648 Y-17.913 E0.0455
G1 X-23.563 Y-18.229 E0.0207
G1 X-23.332 Y-18.910 E0.0455
G1 X-23.206 Y-19.213 E0.0207
G1 X-22.888 Y-19.858 E0.0455
G1 X-22.724 Y-20.142 E0.0207
G1 X-22.325 Y-20.740 E0.0455
G1 X-22.125 Y-21.000 E0.0207
G1 X-21.651 Y-21.541 E0.0455
G1 X-21.419 Y-21.773 E0.0207
G1 X-20.878 Y-22.247 E0.0455
G1 X-20.618 Y-22.447 E0.0207
G1 X-20.020 Y-22.846 E0.0455
G1 X-19.736 Y-23.010 E0.0207
G1 X-19.091 Y-23.328 E0.0455
G1 X-18.788 Y-23.454 E0.0207
G1 X-18.106 Y-23.685 E0.0455
G1 X-17.788 Y-23.770 E0.0208
G1 X-17.080 Y-23.911 E0.0456
G1 X-16.757 Y-23.953 E0.0206
G1 X-16.123 Y-23.995 E0.0401
G1 X-15.960 Y-24.000 E0.0103
G1 X13.205 Y-24.000 E1.8431
G1 X13.372 Y-23.995 E0.0105
G1 X14.011 Y-23.952 E0.0405
G1 X14.333 Y-23.909 E0.0205
G1 X15.034 Y-23.770 E0.0452
G1 X15.351 Y-23.685 E0.0207
G1 X16.032 Y-23.454 E0.0455
G1 X16.335 Y-23.328 E0.0207
G1 X16.980 Y-23.010 E0.0455
G1 X17.264 Y-22.846 E0.0207
G1 X17.862 Y-22.447 E0.0455
G1 X18.122 Y-22.247 E0.0207
G1 X18.663 Y-21.773 E0.0455
G1 X18.895 Y-21.541 E0.0207
G1 X19.369 Y-21.000 E0.0455
G1 X19.568 Y-20.740 E0.0207
G1 X19.968 Y-20.142 E0.0455
G1 X20.132 Y-19.858 E0.0207
G1 X20.450 Y-19.213 E0.0455
G1 X20.576 Y-18.910 E0.0207
G1 X20.807 Y-18.229 E0.0455
G1 X20.892 Y-17.913 E0.0207
G1 X21.032 Y-17.207 E0.0455
G1 X21.075 Y-16.882 E0.0207
G1 X21.117 Y-16.245 E0.0403
G1 X21.122 Y-16.082 E0.0103
G1 X21.122 Y16.082 E2.0326
G1 E-2.0000 F1500
G1 X20.322 Y16.069 F4200
G1 E2.0000 F1500
G1 X20.317 Y16.206 E0.0087 F960
G1 X20.278 Y16.803 E0.0378
G1 X20.242 Y17.076 E0.0174
G1 X20.112 Y17.731 E0.0422
G1 X20.041 Y17.996 E0.0174
G1 X19.827 Y18.628 E0.0422
G1 X19.721 Y18.882 E0.0174
G1 X19.426 Y19.481 E0.0422
G1 X19.289 Y19.719 E0.0174
G1 X18.918 Y20.274 E0.0422
G1 X18.750 Y20.492 E0.0174
G1 X18.310 Y20.994 E0.0422
G1 X18.116 Y21.188 E0.0174
G1 X17.613 Y21.629 E0.0422
G1 X17.393 Y21.798 E0.0175
G1 X16.835 Y22.170 E0.0424
G1 X16.599 Y22.306 E0.0172
G1 X16.004 Y22.599 E0.0419
G1 X15.750 Y22.704 E0.0174
G1 X15.118 Y22.919 E0.0422
G1 X14.853 Y22.990 E0.0174
G1 X14.198 Y23.120 E0.0422
G1 X13.925 Y23.156 E0.0174
G1 X13.328 Y23.195 E0.0378
G1 X13.191 Y23.200 E0.0087
G1 X-15.947 Y23.200 E1.8413
G1 X-16.084 Y23.195 E0.0087
G1 X-16.681 Y23.156 E0.0378
G1 X-16.954 Y23.120 E0.0174
G1 X-17.609 Y22.990 E0.0422
G1 X-17.874 Y22.919 E0.0174
G1 X-18.506 Y22.704 E0.0422
G1 X-18.760 Y22.599 E0.0174
G1 X-19.359 Y22.304 E0.0422
G1 X-19.597 Y22.167 E0.0174
G1 X-20.152 Y21.796 E0.0422
G1 X-20.370 Y21.628 E0.0174
G1 X-20.872 Y21.188 E0.0422
G1 X-21.066 Y20.994 E0.0174
G1 X-21.506 Y20.492 E0.0422
G1 X-21.674 Y20.274 E0.0174
G1 X-22.045 Y19.719 E0.0422
G1 X-22.182 Y19.481 E0.0174
G1 X-22.477 Y18.882 E0.0422
G1 X-22.583 Y18.628 E0.0174
G1 X-22.797 Y17.996 E0.0422
G1 X-22.868 Y17.731 E0.0174
G1 X-22.998 Y17.076 E0.0422
G1 X-23.034 Y16.803 E0.0174
G1 X-23.074 Y16.206 E0.0378
G1 X-23.078 Y16.069 E0.0087
G1 X-23.078 Y-16.069 E2.0309
G1 X-23.074 Y-16.206 E0.0087
G1 X-23.034 Y-16.804 E0.0378
G1 X-22.998 Y-17.076 E0.0174
G1 X-22.868 Y-17.731 E0.0422
G1 X-22.797 Y-17.996 E0.0174
G1 X-22.583 Y-18.628 E0.0422
G1 X-22.477 Y-18.882 E0.0174
G1 X-22.182 Y-19.481 E0.0422
G1 X-22.045 Y-19.719 E0.0174
G1 X-21.674 Y-20.274 E0.0422
G1 X-21.506 Y-20.492 E0.0174
G1 X-21.066 Y-20.994 E0.0422
G1 X-20.872 Y-21.188 E0.0174
G1 X-20.370 Y-21.629 E0.0422
G1 X-20.152 Y-21.796 E0.0174
G1 X-19.597 Y-22.167 E0.0422
G1 X-19.359 Y-22.304 E0.0174
G1 X-18.760 Y-22.599 E0.0422
