; G-Code generated by Simplify3D(R) Version 4.1.2
; Feb 28, 2021 at 9:36:24 PM
; Settings Summary
;   processName,High Quality ABS
;   applyToModels,box
;   profileName,FlashForge Creator Pro - Octoprint (modified)
;   profileVersion,2021-02-07 11:52:42
;   baseProfile,FlashForge Creator Pro(2) (modified)
;   printMaterial,ABS
;   printQuality,High
;   printExtruders,Left Extruder Only
;   extruderName,Right Extruder,Left Extruder
;   extruderToolheadNumber,0,1
;   extruderDiameter,0.4,0.4
;   extruderAutoWidth,0,0
;   extruderWidth,0.4,0.4
;   extrusionMultiplier,0.95,0.95
;   extruderUseRetract,1,1
;   extruderRetractionDistance,2,2
;   extruderExtraRestartDistance,0,0
;   extruderRetractionZLift,0,0
;   extruderRetractionSpeed,1500,1500
;   extruderUseCoasting,0,0
;   extruderCoastingDistance,0.2,0.2
;   extruderUseWipe,0,0
;   extruderWipeDistance,5,5
;   primaryExtruder,1
;   layerHeight,0.1
;   topSolidLayers,8
;   bottomSolidLayers,3
;   perimeterOutlines,4
;   printPerimetersInsideOut,1
;   startPointOption,2
;   startPointOriginX,0
;   startPointOriginY,0
;   sequentialIslands,0
;   spiralVaseMode,0
;   firstLayerHeightPercentage,200
;   firstLayerWidthPercentage,105
;   firstLayerUnderspeed,0.4
;   useRaft,0
;   raftExtruder,1
;   raftTopLayers,3
;   raftBaseLayers,2
;   raftOffset,3
;   raftSeparationDistance,0.14
;   raftTopInfill,100
;   aboveRaftSpeedMultiplier,0.3
;   useSkirt,1
;   skirtExtruder,1
;   skirtLayers,1
;   skirtOutlines,4
;   skirtOffset,3
;   usePrimePillar,0
;   primePillarExtruder,999
;   primePillarWidth,12
;   primePillarLocation,7
;   primePillarSpeedMultiplier,1
;   useOozeShield,0
;   oozeShieldExtruder,999
;   oozeShieldOffset,3
;   oozeShieldOutlines,2
;   oozeShieldSidewallShape,0
;   oozeShieldSidewallAngle,30
;   oozeShieldSpeedMultiplier,1
;   infillExtruder,1
;   internalInfillPattern,Triangular
;   externalInfillPattern,Rectilinear
;   infillPercentage,30
;   outlineOverlapPercentage,15
;   infillExtrusionWidthPercentage,100
;   minInfillLength,5
;   infillLayerInterval,1
;   internalInfillAngles,0,60,-60
;   overlapInternalInfillAngles,1
;   externalInfillAngles,45,-45
;   generateSupport,0
;   supportExtruder,1
;   supportInfillPercentage,90
;   supportExtraInflation,0
;   supportBaseLayers,0
;   denseSupportExtruder,1
;   denseSupportLayers,0
;   denseSupportInfillPercentage,70
;   supportLayerInterval,1
;   supportHorizontalPartOffset,0.3
;   supportUpperSeparationLayers,1
;   supportLowerSeparationLayers,1
;   supportType,0
;   supportGridSpacing,4
;   maxOverhangAngle,45
;   supportAngles,0
;   temperatureName,Right Extruder,Left Extruder,Heated Build Platform
;   temperatureNumber,0,1,0
;   temperatureSetpointCount,1,1,1
;   temperatureSetpointLayers,1,1,1
;   temperatureSetpointTemperatures,0,235,110
;   temperatureStabilizeAtStartup,0,1,0
;   temperatureHeatedBed,0,0,1
;   fanLayers,1
;   fanSpeeds,0
;   blipFanToFullPower,0
;   adjustSpeedForCooling,1
;   minSpeedLayerTime,15
;   minCoolingSpeedSlowdown,20
;   increaseFanForCooling,0
;   minFanLayerTime,45
;   maxCoolingFanSpeed,100
;   increaseFanForBridging,1
;   bridgingFanSpeed,100
;   use5D,1
;   relativeEdistances,1
;   allowEaxisZeroing,0
;   independentExtruderAxes,1
;   includeM10123,0
;   stickySupport,1
;   applyToolheadOffsets,0
;   gcodeXoffset,0
;   gcodeYoffset,0
;   gcodeZoffset,0
;   overrideMachineDefinition,1
;   machineTypeOverride,0
;   strokeXoverride,225
;   strokeYoverride,145
;   strokeZoverride,150
;   originOffsetXoverride,112.5
;   originOffsetYoverride,72.5
;   originOffsetZoverride,0
;   homeXdirOverride,1
;   homeYdirOverride,1
;   homeZdirOverride,-1
;   flipXoverride,1
;   flipYoverride,-1
;   flipZoverride,1
;   toolheadOffsets,0,0|34,0|0,0|0,0|0,0|0,0
;   overrideFirmwareConfiguration,1
;   firmwareTypeOverride,MakerBot/Sailfish Firmware
;   GPXconfigOverride,r1d
;   baudRateOverride,115200
;   overridePrinterModels,1
;   printerModelsOverride,FlashForge_CreatorPro.stl
;   startingGcode,; **** Replicator 1 dual start.gcode ****,M73 P0 ; enable build progress,G162 X Y F3000 ; home XY maximum,G161 Z F1200 ; home Z minimum,G92 Z-5 ; set Z to -5,G1 Z0 ; move Z to 0,G161 Z F100 ; home Z slowly,M132 X Y Z A B ; recall home offsets,M135 T0 ; load right extruder offsets,G1 X-110 Y-70 Z30 F9000 ; move to wait position left hand side of the table,G130 X20 Y20 Z20 A20 B20 ; lower stepper Vrefs while heating,M126 S[fan_speed_pwm],M140 S[bed0_temperature] T0,M134 T0 ; stabilize bed temperature,M104 S[extruder1_temperature] T1,M133 T1 ; stabilize left extruder temperature,G130 X127 Y127 Z40 A127 B127 ; default stepper Vrefs,G92 A0 B0 ; zero extruders,G1 Z0.4 ; position nozzle,M135 T1 ; left tool,G1 X-140 Y-70 F9000 ; reposition nozzle,G1 X-100 Y-70 E25 F300 ; purge nozzle,G1 X-110 Y-70 Z0.15 F1200 ; slow wipe,G1 X-100 Y-70 Z0.5 F1200 ; lift,G92 A0 B0 ; zero extruders,M73 P1 ;@body (notify GPX body has started),; **** end of start.gcode ****
;   layerChangeGcode,
;   retractionGcode,
;   toolChangeGcode,
;   endingGcode,; **** Replicator 1 dual end.gcode ****,M73 P100 ; end build progress,G1 Z150 F1000 ; send Z axis to bottom of machine,M140 S0 T0 ; cool down HBP,M104 S0 T0 ; cool down right extruder,M104 S0 T1 ; cool down left extruder,M127 ; stop blower fan,G162 X Y F3000 ; home XY maximum,M18 ; disable stepper,M72 P1 ; play Ta-Da song,; **** end of end.gcode ****
;   exportFileFormat,gcode
;   celebration,0
;   celebrationSong,Random Song
;   postProcessing,curl -k -H "X-Api-Key: 27C03DAE77BD475FAFE33C1E0B3A564D" -F "select=false" -F "print=false" -F "file=@[output_filepath]" "http://rpi42/api/files/local" {STRIP "; postProcessing"}
;   defaultSpeed,2400
;   outlineUnderspeed,0.5
;   solidInfillUnderspeed,0.8
;   supportUnderspeed,0.8
;   rapidXYspeed,4200
;   rapidZspeed,1200
;   minBridgingArea,5
;   bridgingExtraInflation,0
;   bridgingExtrusionMultiplier,0.95
;   bridgingSpeedMultiplier,0.65
;   useFixedBridgingAngle,0
;   fixedBridgingAngle,0
;   applyBridgingToPerimeters,1
;   filamentDiameters,1.75|1.75|1.75|1.75|1.75|1.75
;   filamentPricesPerKg,46|46|46|46|46|46
;   filamentDensities,1.25|1.25|1.25|1.25|1.25|1.25
;   useMinPrintHeight,0
;   minPrintHeight,0
;   useMaxPrintHeight,0
;   maxPrintHeight,0
;   useDiaphragm,0
;   diaphragmLayerInterval,20
;   robustSlicing,1
;   mergeAllIntoSolid,0
;   onlyRetractWhenCrossingOutline,1
;   retractBetweenLayers,1
;   useRetractionMinTravel,0
;   retractionMinTravel,3
;   retractWhileWiping,0
;   onlyWipeOutlines,1
;   avoidCrossingOutline,0
;   maxMovementDetourFactor,3
;   toolChangeRetractionDistance,12
;   toolChangeExtraRestartDistance,-0.5
;   toolChangeRetractionSpeed,600
;   externalThinWallType,0
;   internalThinWallType,2
;   thinWallAllowedOverlapPercentage,10
;   singleExtrusionMinLength,1
;   singleExtrusionMinPrintingWidthPercentage,50
;   singleExtrusionMaxPrintingWidthPercentage,200
;   singleExtrusionEndpointExtension,0.2
;   horizontalSizeCompensation,0
G90
M83
; **** Replicator 1 dual start.gcode ****
M73 P0 ; enable build progress
G162 X Y F3000 ; home XY maximum
G161 Z F1200 ; home Z minimum
G92 Z-5 ; set Z to -5
G1 Z0 ; move Z to 0
G161 Z F100 ; home Z slowly
M132 X Y Z A B ; recall home offsets
M135 T0 ; load right extruder offsets
G1 X-110 Y-70 Z30 F9000 ; move to wait position left hand side of the table
G130 X20 Y20 Z20 A20 B20 ; lower stepper Vrefs while heating
M127
M140 S110 T0
M134 T0 ; stabilize bed temperature
M104 S235 T1
M133 T1 ; stabilize left extruder temperature
G130 X127 Y127 Z40 A127 B127 ; default stepper Vrefs
G92 A0 B0 ; zero extruders
G1 Z0.4 ; position nozzle
M135 T1 ; left tool
G1 X-140 Y-70 F9000 ; reposition nozzle
G1 X-100 Y-70 E25 F300 ; purge nozzle
G1 X-110 Y-70 Z0.15 F1200 ; slow wipe
G1 X-100 Y-70 Z0.5 F1200 ; lift
G92 A0 B0 ; zero extruders
M73 P1 ;@body (notify GPX body has started)
; **** end of start.gcode ****
; process High Quality ABS
; layer 1, Z = 0.200
M135 T1
G1 E-2.0000 F1500
; feature skirt
; tool H0.200 W0.420
G1 Z0.200 F1200
G1 X-20.592 Y-16.073 F4200
G1 E2.0000 F1500
G1 X-20.587 Y-16.219 E0.0049 F960
G1 X-20.547 Y-16.830 E0.0203
G1 X-20.509 Y-17.120 E0.0097
G1 X-20.375 Y-17.792 E0.0227
G1 X-20.300 Y-18.074 E0.0097
G1 X-20.079 Y-18.723 E0.0227
G1 X-19.967 Y-18.994 E0.0097
G1 X-19.664 Y-19.608 E0.0227
G1 X-19.518 Y-19.862 E0.0097
G1 X-19.137 Y-20.431 E0.0227
G1 X-18.959 Y-20.663 E0.0097
G1 X-18.508 Y-21.178 E0.0227
G1 X-18.301 Y-21.385 E0.0097
G1 X-17.785 Y-21.837 E0.0227
G1 X-17.553 Y-22.015 E0.0097
G1 X-16.984 Y-22.396 E0.0227
G1 X-16.730 Y-22.542 E0.0097
G1 X-16.116 Y-22.845 E0.0227
G1 X-15.845 Y-22.957 E0.0097
G1 X-15.197 Y-23.177 E0.0227
G1 X-14.914 Y-23.253 E0.0097
G1 X-14.242 Y-23.387 E0.0227
G1 X-13.952 Y-23.425 E0.0097
G1 X-13.341 Y-23.465 E0.0203
G1 X-13.195 Y-23.470 E0.0049
G1 X15.951 Y-23.470 E0.9670
G1 X16.097 Y-23.465 E0.0049
G1 X16.708 Y-23.425 E0.0203
G1 X16.998 Y-23.387 E0.0097
G1 X17.670 Y-23.253 E0.0227
G1 X17.953 Y-23.177 E0.0097
G1 X18.602 Y-22.957 E0.0227
G1 X18.872 Y-22.845 E0.0097
G1 X19.486 Y-22.542 E0.0227
G1 X19.740 Y-22.396 E0.0097
G1 X20.309 Y-22.015 E0.0227
G1 X20.542 Y-21.837 E0.0097
G1 X21.057 Y-21.385 E0.0227
G1 X21.264 Y-21.179 E0.0097
G1 X21.715 Y-20.663 E0.0227
G1 X21.893 Y-20.431 E0.0097
G1 X22.274 Y-19.862 E0.0227
G1 X22.420 Y-19.608 E0.0097
G1 X22.723 Y-18.994 E0.0227
G1 X22.835 Y-18.723 E0.0097
G1 X23.056 Y-18.075 E0.0227
G1 X23.131 Y-17.792 E0.0097
G1 X23.265 Y-17.120 E0.0227
G1 X23.303 Y-16.830 E0.0097
G1 X23.343 Y-16.219 E0.0203
G1 X23.348 Y-16.073 E0.0049
G1 X23.348 Y16.073 E1.0665
G1 X23.343 Y16.220 E0.0049
G1 X23.303 Y16.830 E0.0203
G1 X23.265 Y17.120 E0.0097
G1 X23.131 Y17.792 E0.0227
G1 X23.056 Y18.075 E0.0097
G1 X22.835 Y18.724 E0.0228
G1 X22.723 Y18.996 E0.0098
G1 X22.418 Y19.612 E0.0228
G1 X22.273 Y19.864 E0.0097
G1 X21.893 Y20.431 E0.0226
G1 X21.715 Y20.664 E0.0097
G1 X21.263 Y21.179 E0.0228
G1 X21.055 Y21.387 E0.0098
G1 X20.539 Y21.840 E0.0228
G1 X20.307 Y22.017 E0.0097
G1 X19.740 Y22.396 E0.0226
G1 X19.486 Y22.542 E0.0097
G1 X18.872 Y22.845 E0.0227
G1 X18.601 Y22.957 E0.0097
G1 X17.953 Y23.178 E0.0227
G1 X17.670 Y23.253 E0.0097
G1 X16.998 Y23.387 E0.0227
G1 X16.708 Y23.425 E0.0097
G1 X16.097 Y23.465 E0.0203
G1 X15.951 Y23.470 E0.0049
G1 X-13.196 Y23.470 E0.9670
G1 X-13.345 Y23.465 E0.0049
G1 X-13.958 Y23.424 E0.0204
G1 X-14.246 Y23.386 E0.0096
G1 X-14.914 Y23.253 E0.0226
G1 X-15.197 Y23.178 E0.0097
G1 X-15.845 Y22.957 E0.0227
G1 X-16.116 Y22.845 E0.0097
G1 X-16.730 Y22.543 E0.0227
G1 X-16.984 Y22.396 E0.0097
G1 X-17.553 Y22.016 E0.0227
G1 X-17.786 Y21.837 E0.0097
G1 X-18.301 Y21.386 E0.0227
G1 X-18.508 Y21.179 E0.0097
G1 X-18.959 Y20.664 E0.0227
G1 X-19.137 Y20.431 E0.0097
G1 X-19.518 Y19.862 E0.0227
G1 X-19.664 Y19.608 E0.0097
G1 X-19.967 Y18.994 E0.0227
G1 X-20.079 Y18.723 E0.0097
G1 X-20.300 Y18.075 E0.0227
G1 X-20.375 Y17.792 E0.0097
G1 X-20.509 Y17.120 E0.0227
G1 X-20.547 Y16.830 E0.0097
G1 X-20.587 Y16.220 E0.0203
G1 X-20.592 Y16.073 E0.0049
G1 X-20.592 Y-16.073 E1.0665
G1 E-2.0000 F1500
G1 X-20.172 Y-16.066 F4200
G1 E2.0000 F1500
G1 X-20.168 Y-16.199 E0.0044 F960
G1 X-20.129 Y-16.789 E0.0196
G1 X-20.094 Y-17.052 E0.0088
G1 X-19.966 Y-17.697 E0.0218
G1 X-19.897 Y-17.952 E0.0088
G1 X-19.686 Y-18.575 E0.0218
G1 X-19.585 Y-18.820 E0.0088
G1 X-19.294 Y-19.410 E0.0218
G1 X-19.161 Y-19.640 E0.0088
G1 X-18.796 Y-20.187 E0.0218
G1 X-18.634 Y-20.397 E0.0088
G1 X-18.201 Y-20.891 E0.0218
G1 X-18.013 Y-21.079 E0.0088
G1 X-17.519 Y-21.512 E0.0218
G1 X-17.309 Y-21.674 E0.0088
G1 X-16.762 Y-22.039 E0.0218
G1 X-16.532 Y-22.172 E0.0088
G1 X-15.942 Y-22.463 E0.0218
G1 X-15.697 Y-22.564 E0.0088
G1 X-15.075 Y-22.775 E0.0218
G1 X-14.819 Y-22.844 E0.0088
G1 X-14.174 Y-22.972 E0.0218
G1 X-13.911 Y-23.007 E0.0088
G1 X-13.321 Y-23.046 E0.0196
G1 X-13.188 Y-23.050 E0.0044
G1 X15.944 Y-23.050 E0.9665
G1 X16.077 Y-23.046 E0.0044
G1 X16.667 Y-23.007 E0.0196
G1 X16.930 Y-22.972 E0.0088
G1 X17.575 Y-22.844 E0.0218
G1 X17.831 Y-22.775 E0.0088
G1 X18.453 Y-22.564 E0.0218
G1 X18.698 Y-22.463 E0.0088
G1 X19.288 Y-22.172 E0.0218
G1 X19.518 Y-22.039 E0.0088
G1 X20.065 Y-21.674 E0.0218
G1 X20.275 Y-21.512 E0.0088
G1 X20.769 Y-21.079 E0.0218
G1 X20.957 Y-20.891 E0.0088
G1 X21.390 Y-20.397 E0.0218
G1 X21.552 Y-20.187 E0.0088
G1 X21.917 Y-19.640 E0.0218
G1 X22.050 Y-19.410 E0.0088
G1 X22.341 Y-18.820 E0.0218
G1 X22.442 Y-18.575 E0.0088
G1 X22.653 Y-17.953 E0.0218
G1 X22.722 Y-17.696 E0.0088
G1 X22.850 Y-17.051 E0.0218
G1 X22.885 Y-16.789 E0.0088
G1 X22.924 Y-16.199 E0.0196
G1 X22.928 Y-16.066 E0.0044
G1 X22.928 Y16.066 E1.0661
G1 X22.924 Y16.199 E0.0044
G1 X22.885 Y16.789 E0.0196
G1 X22.850 Y17.052 E0.0088
G1 X22.722 Y17.697 E0.0218
G1 X22.653 Y17.953 E0.0088
G1 X22.442 Y18.576 E0.0218
G1 X22.340 Y18.822 E0.0088
G1 X22.048 Y19.413 E0.0219
G1 X21.916 Y19.642 E0.0088
G1 X21.552 Y20.187 E0.0217
G1 X21.390 Y20.397 E0.0088
G1 X20.956 Y20.892 E0.0218
G1 X20.768 Y21.080 E0.0088
G1 X20.272 Y21.515 E0.0219
G1 X20.063 Y21.675 E0.0088
G1 X19.518 Y22.039 E0.0217
G1 X19.288 Y22.172 E0.0088
G1 X18.698 Y22.463 E0.0218
G1 X18.453 Y22.564 E0.0088
G1 X17.831 Y22.776 E0.0218
G1 X17.575 Y22.844 E0.0088
G1 X16.930 Y22.972 E0.0218
G1 X16.667 Y23.007 E0.0088
G1 X16.077 Y23.046 E0.0196
G1 X15.944 Y23.050 E0.0044
G1 X-13.189 Y23.050 E0.9666
G1 X-13.324 Y23.046 E0.0045
G1 X-13.917 Y23.006 E0.0197
G1 X-14.178 Y22.972 E0.0087
G1 X-14.819 Y22.844 E0.0217
G1 X-15.075 Y22.776 E0.0088
G1 X-15.697 Y22.564 E0.0218
G1 X-15.942 Y22.463 E0.0088
G1 X-16.532 Y22.172 E0.0218
G1 X-16.762 Y22.039 E0.0088
G1 X-17.309 Y21.674 E0.0218
G1 X-17.519 Y21.513 E0.0088
G1 X-18.013 Y21.079 E0.0218
G1 X-18.201 Y20.891 E0.0088
G1 X-18.634 Y20.397 E0.0218
G1 X-18.796 Y20.187 E0.0088
G1 X-19.161 Y19.640 E0.0218
G1 X-19.294 Y19.410 E0.0088
G1 X-19.585 Y18.820 E0.0218
G1 X-19.686 Y18.575 E0.0088
G1 X-19.897 Y17.953 E0.0218
G1 X-19.966 Y17.697 E0.0088
G1 X-20.094 Y17.052 E0.0218
G1 X-20.129 Y16.789 E0.0088
G1 X-20.168 Y16.199 E0.0196
G1 X-20.172 Y16.066 E0.0044
G1 X-20.172 Y-16.066 E1.0661
G1 E-2.0000 F1500
G1 X-19.752 Y-16.059 F4200
G1 E2.0000 F1500
G1 X-19.748 Y-16.178 E0.0039 F960
G1 X-19.711 Y-16.748 E0.0189
G1 X-19.680 Y-16.983 E0.0079
G1 X-19.557 Y-17.601 E0.0209
G1 X-19.495 Y-17.831 E0.0079
G1 X-19.293 Y-18.427 E0.0209
G1 X-19.202 Y-18.647 E0.0079
G1 X-18.923 Y-19.212 E0.0209
G1 X-18.804 Y-19.418 E0.0079
G1 X-18.454 Y-19.942 E0.0209
G1 X-18.310 Y-20.130 E0.0079
G1 X-17.894 Y-20.604 E0.0209
G1 X-17.726 Y-20.772 E0.0079
G1 X-17.252 Y-21.188 E0.0209
G1 X-17.064 Y-21.332 E0.0079
G1 X-16.540 Y-21.682 E0.0209
G1 X-16.334 Y-21.801 E0.0079
G1 X-15.769 Y-22.080 E0.0209
G1 X-15.549 Y-22.171 E0.0079
G1 X-14.953 Y-22.373 E0.0209
G1 X-14.723 Y-22.435 E0.0079
G1 X-14.105 Y-22.558 E0.0209
G1 X-13.870 Y-22.589 E0.0079
G1 X-13.300 Y-22.626 E0.0189
G1 X-13.181 Y-22.630 E0.0039
G1 X15.937 Y-22.630 E0.9661
G1 X16.056 Y-22.626 E0.0039
G1 X16.626 Y-22.589 E0.0189
G1 X16.861 Y-22.558 E0.0079
G1 X17.479 Y-22.435 E0.0209
G1 X17.709 Y-22.373 E0.0079
G1 X18.305 Y-22.171 E0.0209
G1 X18.525 Y-22.080 E0.0079
G1 X19.090 Y-21.801 E0.0209
G1 X19.296 Y-21.682 E0.0079
G1 X19.820 Y-21.332 E0.0209
G1 X20.008 Y-21.187 E0.0079
G1 X20.482 Y-20.772 E0.0209
G1 X20.650 Y-20.604 E0.0079
G1 X21.066 Y-20.130 E0.0209
G1 X21.210 Y-19.942 E0.0079
G1 X21.560 Y-19.418 E0.0209
G1 X21.679 Y-19.212 E0.0079
G1 X21.958 Y-18.647 E0.0209
G1 X22.049 Y-18.427 E0.0079
G1 X22.251 Y-17.831 E0.0209
G1 X22.313 Y-17.601 E0.0079
G1 X22.436 Y-16.983 E0.0209
G1 X22.467 Y-16.747 E0.0079
G1 X22.504 Y-16.178 E0.0189
G1 X22.508 Y-16.059 E0.0039
G1 X22.508 Y16.060 E1.0656
G1 X22.504 Y16.178 E0.0039
G1 X22.467 Y16.748 E0.0189
G1 X22.436 Y16.983 E0.0079
G1 X22.313 Y17.601 E0.0209
G1 X22.251 Y17.831 E0.0079
G1 X22.049 Y18.428 E0.0209
G1 X21.957 Y18.649 E0.0079
G1 X21.677 Y19.215 E0.0210
G1 X21.559 Y19.420 E0.0078
G1 X21.210 Y19.942 E0.0208
G1 X21.066 Y20.130 E0.0079
G1 X20.650 Y20.605 E0.0209
G1 X20.481 Y20.773 E0.0079
G1 X20.006 Y21.190 E0.0210
G1 X19.818 Y21.334 E0.0079
G1 X19.296 Y21.682 E0.0208
G1 X19.090 Y21.801 E0.0079
G1 X18.525 Y22.080 E0.0209
