; G-Code generated by Simplify3D(R) Version 4.1.2
; Mar 6, 2021 at 11:21:34 PM
; Settings Summary
;   processName,High Quality ABS
;   applyToModels,bracket
;   profileName,FlashForge Creator Pro - Octoprint (modified)
;   profileVersion,2021-02-07 11:52:42
;   baseProfile,FlashForge Creator Pro(2) (modified)
;   printMaterial,ABS
;   printQuality,High
;   printExtruders,Left Extruder Only
;   extruderName,Right Extruder,Left Extruder
;   extruderToolheadNumber,0,1
;   extruderDiameter,0.4,0.4
;   extruderAutoWidth,0,0
;   extruderWidth,0.4,0.4
;   extrusionMultiplier,0.95,0.95
;   extruderUseRetract,1,1
;   extruderRetractionDistance,2,2
;   extruderExtraRestartDistance,0,0
;   extruderRetractionZLift,0,0
;   extruderRetractionSpeed,1500,1500
;   extruderUseCoasting,0,0
;   extruderCoastingDistance,0.2,0.2
;   extruderUseWipe,0,0
;   extruderWipeDistance,5,5
;   primaryExtruder,1
;   layerHeight,0.1
;   topSolidLayers,3
;   bottomSolidLayers,3
;   perimeterOutlines,3
;   printPerimetersInsideOut,1
;   startPointOption,2
;   startPointOriginX,0
;   startPointOriginY,0
;   sequentialIslands,0
;   spiralVaseMode,0
;   firstLayerHeightPercentage,200
;   firstLayerWidthPercentage,110
;   firstLayerUnderspeed,0.4
;   useRaft,0
;   raftExtruder,1
;   raftTopLayers,3
;   raftBaseLayers,2
;   raftOffset,3
;   raftSeparationDistance,0.14
;   raftTopInfill,100
;   aboveRaftSpeedMultiplier,0.3
;   useSkirt,1
;   skirtExtruder,1
;   skirtLayers,1
;   skirtOutlines,5
;   skirtOffset,4
;   usePrimePillar,0
;   primePillarExtruder,999
;   primePillarWidth,12
;   primePillarLocation,7
;   primePillarSpeedMultiplier,1
;   useOozeShield,0
;   oozeShieldExtruder,999
;   oozeShieldOffset,3
;   oozeShieldOutlines,2
;   oozeShieldSidewallShape,0
;   oozeShieldSidewallAngle,30
;   oozeShieldSpeedMultiplier,1
;   infillExtruder,1
;   internalInfillPattern,Triangular
;   externalInfillPattern,Rectilinear
;   infillPercentage,30
;   outlineOverlapPercentage,15
;   infillExtrusionWidthPercentage,100
;   minInfillLength,5
;   infillLayerInterval,1
;   internalInfillAngles,0,60,-60
;   overlapInternalInfillAngles,1
;   externalInfillAngles,45,-45
;   generateSupport,0
;   supportExtruder,1
;   supportInfillPercentage,90
;   supportExtraInflation,0
;   supportBaseLayers,0
;   denseSupportExtruder,1
;   denseSupportLayers,0
;   denseSupportInfillPercentage,70
;   supportLayerInterval,1
;   supportHorizontalPartOffset,0.3
;   supportUpperSeparationLayers,1
;   supportLowerSeparationLayers,1
;   supportType,0
;   supportGridSpacing,4
;   maxOverhangAngle,45
;   supportAngles,0
;   temperatureName,Right Extruder,Left Extruder,Heated Build Platform
;   temperatureNumber,0,1,0
;   temperatureSetpointCount,1,1,1
;   temperatureSetpointLayers,1,1,1
;   temperatureSetpointTemperatures,0,235,110
;   temperatureStabilizeAtStartup,0,1,0
;   temperatureHeatedBed,0,0,1
;   fanLayers,1
;   fanSpeeds,0
;   blipFanToFullPower,0
;   adjustSpeedForCooling,1
;   minSpeedLayerTime,15
;   minCoolingSpeedSlowdown,20
;   increaseFanForCooling,0
;   minFanLayerTime,45
;   maxCoolingFanSpeed,100
;   increaseFanForBridging,1
;   bridgingFanSpeed,100
;   use5D,1
;   relativeEdistances,1
;   allowEaxisZeroing,0
;   independentExtruderAxes,1
;   includeM10123,0
;   stickySupport,1
;   applyToolheadOffsets,0
;   gcodeXoffset,0
;   gcodeYoffset,0
;   gcodeZoffset,0
;   overrideMachineDefinition,1
;   machineTypeOverride,0
;   strokeXoverride,225
;   strokeYoverride,145
;   strokeZoverride,150
;   originOffsetXoverride,112.5
;   originOffsetYoverride,72.5
;   originOffsetZoverride,0
;   homeXdirOverride,1
;   homeYdirOverride,1
;   homeZdirOverride,-1
;   flipXoverride,1
;   flipYoverride,-1
;   flipZoverride,1
;   toolheadOffsets,0,0|34,0|0,0|0,0|0,0|0,0
;   overrideFirmwareConfiguration,1
;   firmwareTypeOverride,MakerBot/Sailfish Firmware
;   GPXconfigOverride,r1d
;   baudRateOverride,115200
;   overridePrinterModels,1
;   printerModelsOverride,FlashForge_CreatorPro.stl
;   startingGcode,; **** Replicator 1 dual start.gcode ****,M73 P0 ; enable build progress,G162 X Y F3000 ; home XY maximum,G161 Z F1200 ; home Z minimum,G92 Z-5 ; set Z to -5,G1 Z0 ; move Z to 0,G161 Z F100 ; home Z slowly,M132 X Y Z A B ; recall home offsets,M135 T0 ; load right extruder offsets,G1 X-110 Y-70 Z30 F9000 ; move to wait position left hand side of the table,G130 X20 Y20 Z20 A20 B20 ; lower stepper Vrefs while heating,M126 S[fan_speed_pwm],M140 S[bed0_temperature] T0,M134 T0 ; stabilize bed temperature,M104 S[extruder1_temperature] T1,M133 T1 ; stabilize left extruder temperature,G130 X127 Y127 Z40 A127 B127 ; default stepper Vrefs,G92 A0 B0 ; zero extruders,G1 Z0.4 ; position nozzle,M135 T1 ; left tool,G1 X-140 Y-70 F9000 ; reposition nozzle,G1 X-100 Y-70 E25 F300 ; purge nozzle,G1 X-110 Y-70 Z0.15 F1200 ; slow wipe,G1 X-100 Y-70 Z0.5 F1200 ; lift,G92 A0 B0 ; zero extruders,M73 P1 ;@body (notify GPX body has started),; **** end of start.gcode ****
;   layerChangeGcode,
;   retractionGcode,
;   toolChangeGcode,
;   endingGcode,; **** Replicator 1 dual end.gcode ****,M73 P100 ; end build progress,G1 Z150 F1000 ; send Z axis to bottom of machine,M140 S0 T0 ; cool down HBP,M104 S0 T0 ; cool down right extruder,M104 S0 T1 ; cool down left extruder,M127 ; stop blower fan,G162 X Y F3000 ; home XY maximum,M18 ; disable stepper,M72 P1 ; play Ta-Da song,; **** end of end.gcode ****
;   exportFileFormat,gcode
;   celebration,0
;   celebrationSong,Random Song
;   postProcessing,curl -k -H "X-Api-Key: 27C03DAE77BD475FAFE33C1E0B3A564D" -F "select=false" -F "print=false" -F "file=@[output_filepath]" "http://rpi42/api/files/local" {STRIP "; postProcessing"}
;   defaultSpeed,2400
;   outlineUnderspeed,0.5
;   solidInfillUnderspeed,0.8
;   supportUnderspeed,0.8
;   rapidXYspeed,4200
;   rapidZspeed,1200
;   minBridgingArea,5
;   bridgingExtraInflation,0
;   bridgingExtrusionMultiplier,0.95
;   bridgingSpeedMultiplier,0.65
;   useFixedBridgingAngle,0
;   fixedBridgingAngle,0
;   applyBridgingToPerimeters,1
;   filamentDiameters,1.75|1.75|1.75|1.75|1.75|1.75
;   filamentPricesPerKg,46|46|46|46|46|46
;   filamentDensities,1.25|1.25|1.25|1.25|1.25|1.25
;   useMinPrintHeight,0
;   minPrintHeight,0
;   useMaxPrintHeight,0
;   maxPrintHeight,0
;   useDiaphragm,0
;   diaphragmLayerInterval,20
;   robustSlicing,1
;   mergeAllIntoSolid,0
;   onlyRetractWhenCrossingOutline,1
;   retractBetweenLayers,1
;   useRetractionMinTravel,0
;   retractionMinTravel,3
;   retractWhileWiping,0
;   onlyWipeOutlines,1
;   avoidCrossingOutline,0
;   maxMovementDetourFactor,3
;   toolChangeRetractionDistance,12
;   toolChangeExtraRestartDistance,-0.5
;   toolChangeRetractionSpeed,600
;   externalThinWallType,0
;   internalThinWallType,2
;   thinWallAllowedOverlapPercentage,10
;   singleExtrusionMinLength,1
;   singleExtrusionMinPrintingWidthPercentage,50
;   singleExtrusionMaxPrintingWidthPercentage,200
;   singleExtrusionEndpointExtension,0.2
;   horizontalSizeCompensation,0
G90
M83
; **** Replicator 1 dual start.gcode ****
M73 P0 ; enable build progress
G162 X Y F3000 ; home XY maximum
G161 Z F1200 ; home Z minimum
G92 Z-5 ; set Z to -5
G1 Z0 ; move Z to 0
G161 Z F100 ; home Z slowly
M132 X Y Z A B ; recall home offsets
M135 T0 ; load right extruder offsets
G1 X-110 Y-70 Z30 F9000 ; move to wait position left hand side of the table
G130 X20 Y20 Z20 A20 B20 ; lower stepper Vrefs while heating
M127
M140 S110 T0
M134 T0 ; stabilize bed temperature
M104 S235 T1
M133 T1 ; stabilize left extruder temperature
G130 X127 Y127 Z40 A127 B127 ; default stepper Vrefs
G92 A0 B0 ; zero extruders
G1 Z0.4 ; position nozzle
M135 T1 ; left tool
G1 X-140 Y-70 F9000 ; reposition nozzle
G1 X-100 Y-70 E25 F300 ; purge nozzle
G1 X-110 Y-70 Z0.15 F1200 ; slow wipe
G1 X-100 Y-70 Z0.5 F1200 ; lift
G92 A0 B0 ; zero extruders
M73 P1 ;@body (notify GPX body has started)
; **** end of start.gcode ****
; process High Quality ABS
; layer 1, Z = 0.200
M135 T1
G1 E-2.0000 F1500
; feature skirt
; tool H0.200 W0.440
G1 Z0.200 F1200
G1 X16.828 Y23.480 F4200
G1 E2.0000 F1500
G1 X-16.828 Y23.480 E1.1698 F960
G1 X-16.998 Y23.475 E0.0059
G1 X-17.704 Y23.435 E0.0246
G1 X-18.043 Y23.396 E0.0118
G1 X-18.825 Y23.262 E0.0276
G1 X-19.161 Y23.184 E0.0120
G1 X-19.924 Y22.959 E0.0277
G1 X-20.255 Y22.840 E0.0122
G1 X-20.990 Y22.527 E0.0278
G1 X-21.314 Y22.365 E0.0126
G1 X-22.009 Y21.962 E0.0279
G1 X-22.320 Y21.755 E0.0130
G1 X-22.964 Y21.266 E0.0281
G1 X-23.257 Y21.012 E0.0135
G1 X-23.836 Y20.440 E0.0283
G1 X-24.103 Y20.139 E0.0140
G1 X-24.605 Y19.488 E0.0286
G1 X-24.836 Y19.140 E0.0145
G1 X-25.247 Y18.420 E0.0288
G1 X-25.433 Y18.031 E0.0150
G1 X-25.737 Y17.253 E0.0290
G1 X-25.868 Y16.831 E0.0154
G1 X-26.056 Y16.011 E0.0292
G1 X-26.124 Y15.567 E0.0156
G1 X-26.179 Y14.839 E0.0254
G1 X-26.187 Y14.613 E0.0079
G1 X-26.187 Y-19.977 E1.2022
G1 X-22.684 Y-23.480 E0.1722
G1 X22.684 Y-23.480 E1.5769
G1 X26.187 Y-19.977 E0.1722
G1 X26.187 Y14.613 E1.2022
G1 X26.179 Y14.839 E0.0078
G1 X26.124 Y15.567 E0.0254
G1 X26.056 Y16.011 E0.0156
G1 X25.868 Y16.831 E0.0292
G1 X25.737 Y17.253 E0.0154
G1 X25.433 Y18.031 E0.0290
G1 X25.247 Y18.420 E0.0150
G1 X24.836 Y19.140 E0.0288
G1 X24.605 Y19.488 E0.0145
G1 X24.103 Y20.139 E0.0286
G1 X23.836 Y20.440 E0.0140
G1 X23.257 Y21.012 E0.0283
G1 X22.964 Y21.266 E0.0135
G1 X22.320 Y21.755 E0.0281
G1 X22.009 Y21.962 E0.0130
G1 X21.314 Y22.365 E0.0279
G1 X20.990 Y22.527 E0.0126
G1 X20.255 Y22.840 E0.0278
G1 X19.924 Y22.959 E0.0122
G1 X19.161 Y23.184 E0.0277
G1 X18.825 Y23.262 E0.0120
G1 X18.043 Y23.396 E0.0276
G1 X17.704 Y23.435 E0.0118
G1 X16.998 Y23.475 E0.0246
G1 X16.828 Y23.480 E0.0059
G1 E-2.0000 F1500
G1 X16.822 Y23.040 F4200
G1 E2.0000 F1500
G1 X-16.822 Y23.040 E1.1693 F960
G1 X-16.979 Y23.036 E0.0055
G1 X-17.667 Y22.996 E0.0240
G1 X-17.980 Y22.961 E0.0110
G1 X-18.738 Y22.830 E0.0267
G1 X-19.049 Y22.758 E0.0111
G1 X-19.788 Y22.541 E0.0268
G1 X-20.095 Y22.431 E0.0113
G1 X-20.805 Y22.127 E0.0268
G1 X-21.105 Y21.977 E0.0117
G1 X-21.777 Y21.588 E0.0270
G1 X-22.065 Y21.397 E0.0120
G1 X-22.686 Y20.925 E0.0271
G1 X-22.958 Y20.689 E0.0125
G1 X-23.517 Y20.137 E0.0273
G1 X-23.764 Y19.858 E0.0129
G1 X-24.247 Y19.231 E0.0275
G1 X-24.462 Y18.909 E0.0134
G1 X-24.857 Y18.216 E0.0277
G1 X-25.029 Y17.856 E0.0139
G1 X-25.322 Y17.108 E0.0279
G1 X-25.443 Y16.716 E0.0142
G1 X-25.624 Y15.929 E0.0281
G1 X-25.686 Y15.517 E0.0145
G1 X-25.739 Y14.814 E0.0245
G1 X-25.747 Y14.605 E0.0073
G1 X-25.747 Y-19.795 E1.1956
G1 X-22.502 Y-23.040 E0.1595
G1 X22.502 Y-23.040 E1.5642
G1 X25.747 Y-19.795 E0.1595
G1 X25.747 Y14.605 E1.1956
G1 X25.739 Y14.814 E0.0073
G1 X25.686 Y15.517 E0.0245
G1 X25.624 Y15.929 E0.0145
G1 X25.443 Y16.716 E0.0281
G1 X25.322 Y17.108 E0.0142
G1 X25.029 Y17.856 E0.0279
G1 X24.857 Y18.216 E0.0139
G1 X24.462 Y18.909 E0.0277
G1 X24.247 Y19.231 E0.0134
G1 X23.764 Y19.858 E0.0275
G1 X23.517 Y20.137 E0.0130
G1 X22.958 Y20.689 E0.0273
G1 X22.686 Y20.925 E0.0125
G1 X22.065 Y21.397 E0.0271
G1 X21.777 Y21.588 E0.0120
G1 X21.105 Y21.977 E0.0270
G1 X20.805 Y22.127 E0.0117
G1 X20.095 Y22.431 E0.0269
G1 X19.788 Y22.541 E0.0113
G1 X19.049 Y22.758 E0.0268
G1 X18.738 Y22.830 E0.0111
G1 X17.980 Y22.961 E0.0267
G1 X17.667 Y22.996 E0.0110
G1 X16.979 Y23.036 E0.0240
G1 X16.822 Y23.040 E0.0055
G1 E-2.0000 F1500
G1 X16.816 Y22.600 F4200
G1 E2.0000 F1500
G1 X-16.816 Y22.600 E1.1689 F960
G1 X-16.960 Y22.596 E0.0050
G1 X-17.630 Y22.558 E0.0233
G1 X-17.918 Y22.525 E0.0101
G1 X-18.650 Y22.399 E0.0258
G1 X-18.937 Y22.332 E0.0102
G1 X-19.651 Y22.122 E0.0259
G1 X-19.934 Y22.021 E0.0104
G1 X-20.620 Y21.728 E0.0259
G1 X-20.896 Y21.590 E0.0107
G1 X-21.544 Y21.214 E0.0260
G1 X-21.810 Y21.038 E0.0111
G1 X-22.409 Y20.583 E0.0262
G1 X-22.659 Y20.366 E0.0115
G1 X-23.197 Y19.834 E0.0263
G1 X-23.424 Y19.578 E0.0119
G1 X-23.890 Y18.975 E0.0265
G1 X-24.087 Y18.678 E0.0124
G1 X-24.466 Y18.012 E0.0267
G1 X-24.625 Y17.680 E0.0128
G1 X-24.906 Y16.962 E0.0268
G1 X-25.018 Y16.602 E0.0131
G1 X-25.191 Y15.846 E0.0269
G1 X-25.249 Y15.468 E0.0133
G1 X-25.300 Y14.789 E0.0237
G1 X-25.307 Y14.596 E0.0067
G1 X-25.307 Y-19.612 E1.1890
G1 X-22.320 Y-22.600 E0.1468
G1 X22.320 Y-22.600 E1.5515
G1 X25.307 Y-19.612 E0.1468
G1 X25.307 Y14.596 E1.1890
G1 X25.300 Y14.789 E0.0067
G1 X25.249 Y15.467 E0.0237
G1 X25.191 Y15.846 E0.0133
G1 X25.018 Y16.602 E0.0269
G1 X24.906 Y16.962 E0.0131
G1 X24.625 Y17.680 E0.0268
G1 X24.466 Y18.012 E0.0128
G1 X24.087 Y18.678 E0.0267
G1 X23.890 Y18.975 E0.0124
G1 X23.424 Y19.578 E0.0265
G1 X23.197 Y19.835 E0.0119
G1 X22.659 Y20.366 E0.0263
G1 X22.409 Y20.583 E0.0115
G1 X21.810 Y21.038 E0.0262
G1 X21.544 Y21.214 E0.0111
G1 X20.896 Y21.590 E0.0260
G1 X20.620 Y21.728 E0.0107
G1 X19.934 Y22.021 E0.0259
G1 X19.651 Y22.122 E0.0104
G1 X18.937 Y22.332 E0.0259
G1 X18.650 Y22.399 E0.0102
G1 X17.918 Y22.525 E0.0258
G1 X17.629 Y22.558 E0.0101
G1 X16.960 Y22.596 E0.0233
G1 X16.816 Y22.600 E0.0050
G1 E-2.0000 F1500
G1 X16.809 Y22.160 F4200
G1 E2.0000 F1500
G1 X-16.809 Y22.160 E1.1685 F960
G1 X-16.941 Y22.156 E0.0046
G1 X-17.592 Y22.119 E0.0226
G1 X-17.856 Y22.089 E0.0092
G1 X-18.563 Y21.967 E0.0250
G1 X-18.825 Y21.906 E0.0093
G1 X-19.515 Y21.704 E0.0250
G1 X-19.773 Y21.611 E0.0095
G1 X-20.435 Y21.328 E0.0250
G1 X-20.687 Y21.202 E0.0098
G1 X-21.312 Y20.840 E0.0251
G1 X-21.554 Y20.679 E0.0101
G1 X-22.131 Y20.241 E0.0252
G1 X-22.360 Y20.043 E0.0105
G1 X-22.877 Y19.532 E0.0253
G1 X-23.085 Y19.297 E0.0109
G1 X-23.532 Y18.718 E0.0254
G1 X-23.712 Y18.447 E0.0113
G1 X-24.076 Y17.808 E0.0256
G1 X-24.221 Y17.505 E0.0117
G1 X-24.491 Y16.817 E0.0257
G1 X-24.592 Y16.488 E0.0120
G1 X-24.759 Y15.764 E0.0258
G1 X-24.811 Y15.418 E0.0122
G1 X-24.861 Y14.764 E0.0228
G1 X-24.867 Y14.588 E0.0061
G1 X-24.867 Y-19.430 E1.1824
G1 X-22.137 Y-22.160 E0.1342
G1 X22.137 Y-22.160 E1.5389
G1 X24.867 Y-19.430 E0.1342
G1 X24.867 Y14.588 E1.1824
G1 X24.861 Y14.764 E0.0061
G1 X24.811 Y15.418 E0.0228
G1 X24.759 Y15.764 E0.0122
G1 X24.592 Y16.488 E0.0258
G1 X24.491 Y16.817 E0.0120
G1 X24.221 Y17.505 E0.0257
G1 X24.076 Y17.808 E0.0117
G1 X23.712 Y18.447 E0.0256
G1 X23.532 Y18.718 E0.0113
G1 X23.085 Y19.297 E0.0254
G1 X22.877 Y19.532 E0.0109
G1 X22.360 Y20.043 E0.0253
G1 X22.131 Y20.241 E0.0105
G1 X21.554 Y20.679 E0.0252
G1 X21.312 Y20.840 E0.0101
G1 X20.687 Y21.202 E0.0251
G1 X20.435 Y21.328 E0.0098
G1 X19.773 Y21.611 E0.0250
G1 X19.515 Y21.704 E0.0095
G1 X18.825 Y21.906 E0.0250
G1 X18.563 Y21.967 E0.0093
G1 X17.856 Y22.089 E0.0250
G1 X17.592 Y22.119 E0.0092
G1 X16.941 Y22.156 E0.0226
G1 X16.809 Y22.160 E0.0046
G1 E-2.0000 F1500
G1 X16.803 Y21.720 F4200
G1 E2.0000 F1500
G1 X-16.803 Y21.720 E1.1680 F960
G1 X-16.923 Y21.717 E0.0042
G1 X-17.555 Y21.681 E0.0220
G1 X-17.793 Y21.653 E0.0083
G1 X-18.476 Y21.536 E0.0241
G1 X-18.713 Y21.481 E0.0085
G1 X-19.378 Y21.285 E0.0241
G1 X-19.612 Y21.201 E0.0086
G1 X-20.250 Y20.929 E0.0241
G1 X-20.478 Y20.815 E0.0089
G1 X-21.080 Y20.467 E0.0242
G1 X-21.299 Y20.320 E0.0092
G1 X-21.854 Y19.899 E0.0242
G1 X-22.061 Y19.720 E0.0095
G1 X-22.558 Y19.229 E0.0243
G1 X-22.746 Y19.017 E0.0099
G1 X-23.174 Y18.461 E0.0244
G1 X-23.337 Y18.216 E0.0102
G1 X-23.686 Y17.604 E0.0245
G1 X-23.817 Y17.330 E0.0106
G1 X-24.075 Y16.671 E0.0246
G1 X-24.167 Y16.373 E0.0108
G1 X-24.326 Y15.682 E0.0247
G1 X-24.374 Y15.368 E0.0110
G1 X-24.421 Y14.739 E0.0219
G1 X-24.427 Y14.580 E0.0055
G1 X-24.427 Y-19.248 E1.1757
G1 X-21.955 Y-21.720 E0.1215
G1 X21.955 Y-21.720 E1.5262
G1 X24.427 Y-19.248 E0.1215
G1 X24.427 Y14.580 E1.1757
G1 X24.421 Y14.739 E0.0055
G1 X24.374 Y15.368 E0.0219
G1 X24.326 Y15.682 E0.0110
G1 X24.167 Y16.373 E0.0247
G1 X24.075 Y16.671 E0.0108
G1 X23.817 Y17.330 E0.0246
G1 X23.686 Y17.604 E0.0106
G1 X23.337 Y18.216 E0.0245
G1 X23.174 Y18.461 E0.0102
G1 X22.746 Y19.017 E0.0244
G1 X22.558 Y19.229 E0.0099
G1 X22.061 Y19.720 E0.0243
G1 X21.854 Y19.899 E0.0095
G1 X21.299 Y20.320 E0.0242
G1 X21.080 Y20.467 E0.0092
G1 X20.478 Y20.815 E0.0241
G1 X20.250 Y20.929 E0.0089
G1 X19.612 Y21.201 E0.0241
G1 X19.378 Y21.285 E0.0086
G1 X18.713 Y21.481 E0.0241
G1 X18.476 Y21.536 E0.0085
G1 X17.793 Y21.653 E0.0241
G1 X17.555 Y21.681 E0.0083
